luts/Mad Max.cube
TITLE "Generated by Resolve"
LUT_3D_SIZE 5
0 0 0
0 0 0
0.0331121 0.00650034 0.00996414
0.189227 0.0392309 0.0524605
0.418952 0.0512856 0.0759289
0.0476081 0.108431 0.082414
0.188144 0.15108 0.0583505
0.428885 0.163073 0.0442054
0.671916 0.173419 0.037995
0.902342 0.186496 0.0403754
0.097322 0.359533 0.188083
0.263386 0.399344 0.107561
0.519356 0.417685 0
0.782605 0.421332 0
1 0.432425 0
0.198306 0.593194 0.296162
0.373297 0.626474 0.252995
0.525795 0.679026 0.0742962
0.766384 0.697154 0
1 0.707607 0
0.312612 0.821134 0.411078
0.487602 0.852918 0.381064
0.601572 0.911971 0.252201
0.770321 0.956649 0.103075
0.987671 0.980423 0.0228122
0 0 0
0 0 0
0.066804 0.0223545 0.040589
0.226307 0.051957 0.101884
0.449119 0.0635233 0.150088
0.0253452 0.138003 0.138613
0.194827 0.166781 0.170596
0.405356 0.18439 0.189761
0.629175 0.198413 0.203281
0.844617 0.214694 0.217716
0.0796826 0.385321 0.264683
0.302983 0.399527 0.275731
0.528466 0.425055 0.157488
0.783856 0.429786 0.165576
0.999542 0.444709 0.189746
0.201846 0.612009 0.378531
0.415137 0.628687 0.390936
0.542519 0.684077 0.261067
0.775067 0.704753 0.168154
1 0.71458 0.162432
0.323949 0.837369 0.49543
0.526696 0.857191 0.505058
0.638758 0.911513 0.432685
0.784024 0.963043 0.284123
0.996201 0.988113 0.205966
0 0 0
0.00285344 0 0.0109255
0.108446 0.0337682 0.0938125
0.272221 0.0594186 0.179309
0.485359 0.0710613 0.254704
0 0.167819 0.277028
0.220523 0.169497 0.361379
0.40032 0.20032 0.333288
0.587976 0.223133 0.366369
0.779339 0.244968 0.396994
0 0.425666 0.40647
0.29424 0.417838 0.403403
0.520546 0.431373 0.41033
0.729824 0.448814 0.428321
0.923323 0.470665 0.448295
0.161593 0.641398 0.48661
0.43592 0.638758 0.511925
0.575769 0.678813 0.506065
0.779873 0.708858 0.402686
1 0.718624 0.408179
0.308324 0.859968 0.597009
0.552666 0.865492 0.627634
0.689219 0.905104 0.634714
0.801373 0.962707 0.525917
1 0.992981 0.4318
0 0 0
0.0305791 0.00663767 0.0670024
0.169238 0.0345464 0.202457
0.341924 0.0552071 0.306096
0.54612 0.0677348 0.397269
0 0.187594 0.484627
0.227924 0.172045 0.610834
0.483192 0.178744 0.59942
0.628977 0.221042 0.555077
0.782895 0.25536 0.570199
0 0.462715 0.661082
0.226871 0.438819 0.688426
0.536904 0.428031 0.689525
0.692683 0.469383 0.62092
0.854414 0.500267 0.644755
0.0608225 0.683192 0.653803
0.369512 0.673167 0.648768
0.588266 0.687633 0.66627
0.77966 0.711284 0.671427
0.97673 0.731456 0.695262
0.245716 0.894286 0.722347
0.53489 0.887724 0.739818
0.719783 0.910002 0.778729
0.841596 0.953872 0.786267
1 0.996063 0.684138
0 0 0.0251164
0.0613565 0.0170443 0.171557
0.234119 0.027451 0.382162
0.441489 0.0335241 0.525887
0.642283 0.047013 0.613321
0 0.20058 0.745373
0.23122 0.171679 0.903532
0.527657 0.160708 0.949172
0.727764 0.189517 0.875608
0.849256 0.241184 0.807248
0 0.481117 0.984894
0.214618 0.439704 1
0.537316 0.425116 1
0.776684 0.442374 0.938628
0.899199 0.494606 0.857862
0 0.723018 0.914885
0.264027 0.705989 0.926863
0.518471 0.708263 0.961395
0.78529 0.708766 0.974853
0.943618 0.749035 0.905974
0.136156 0.937102 0.905715
0.439704 0.928283 0.901488
0.656947 0.943114 0.917311
0.846159 0.965438 0.941329
1 0.998047 0.952239
