luts/Mad Max.cube
TITLE "Generated by Resolve"
LUT_3D_SIZE 9
0 0 0
0 0 0
0 0 0
0 0 0
0.0331121 0.00650034 0.00996414
0.101534 0.0256199 0.0335699
0.189227 0.0392309 0.0524605
0.295933 0.0475166 0.066453
0.418952 0.0512856 0.0759289
0 0 0
0.0217746 0.0238804 0.0222782
0.0770123 0.0471656 0.0410773
0.148226 0.0658885 0.0569772
0.237476 0.0796521 0.0673838
0.342641 0.0890516 0.0731212
0.459937 0.0951095 0.0753796
0.584634 0.0991073 0.0755627
0.712169 0.102281 0.0749981
0.0476081 0.108431 0.082414
0.0994125 0.132479 0.101289
0.188144 0.15108 0.0583505
0.307759 0.157519 0.0491798
0.428885 0.163073 0.0442054
0.550835 0.168215 0.0404212
0.671916 0.173419 0.037995
0.789715 0.179339 0.0377508
0.902342 0.186496 0.0403754
0.0741741 0.233143 0.142214
0.148516 0.251179 0.151476
0.227893 0.277333 0.056611
0.369909 0.281361 0.000259403
0.513115 0.281254 0
0.64654 0.282811 0
0.768872 0.28687 0
0.880095 0.293614 0
0.983429 0.302419 0.0078584
0.097322 0.359533 0.188083
0.189456 0.372503 0.193256
0.263386 0.399344 0.107561
0.377234 0.415946 0.00460822
0.519356 0.417685 0
0.655406 0.418647 0
0.782605 0.421332 0
0.901503 0.425986 0
1 0.432425 0
0.140642 0.479011 0.238468
0.240269 0.48954 0.244816
0.316472 0.513329 0.183246
0.394949 0.540383 0.0795605
0.515129 0.552392 0.00418097
0.647227 0.556619 0
0.776333 0.559777 0
0.899641 0.563745 0
1 0.568917 0
0.198306 0.593194 0.296162
0.295521 0.604486 0.30103
0.373297 0.626474 0.252995
0.435142 0.656794 0.166003
0.525795 0.679026 0.0742962
0.642359 0.69073 0.0126802
0.766384 0.697154 0
0.88922 0.702266 0
1 0.707607 0
0.255314 0.707332 0.353475
0.350652 0.719203 0.357366
0.43032 0.739742 0.317968
0.486885 0.769757 0.250477
0.55642 0.797879 0.161807
0.650813 0.817655 0.0836347
0.762097 0.830121 0.0297398
0.879179 0.838499 0.000915541
0.996307 0.845441 0
0.312612 0.821134 0.411078
0.406348 0.833478 0.414435
0.487602 0.852918 0.381064
0.542962 0.881834 0.328405
0.601572 0.911971 0.252201
0.676463 0.937636 0.172244
0.770321 0.956649 0.103075
0.876478 0.97026 0.0525673
0.987671 0.980423 0.0228122
0 0 0
0 0 0
0 0 0
0.00190738 0 0
0.0497444 0.0146792 0.0234531
0.119661 0.0328985 0.0505837
0.208148 0.0457771 0.0739147
0.314549 0.0536202 0.0930953
0.435569 0.0573892 0.108293
0 0.00563058 0.00657664
0.0283055 0.0347753 0.0384222
0.0841077 0.0573281 0.0624399
0.15491 0.0755779 0.0837873
0.243259 0.0889906 0.100221
0.346502 0.0983139 0.112322
0.460822 0.104601 0.120943
0.581811 0.109087 0.127169
0.705119 0.112963 0.132143
0.0421912 0.122194 0.103136
0.104814 0.142855 0.123247
0.197818 0.158022 0.104082
0.313161 0.164553 0.106844
0.427314 0.171389 0.109697
0.543236 0.177722 0.111711
0.659113 0.184009 0.113924
0.772457 0.19089 0.11725
0.881148 0.198947 0.122393
0.0668956 0.246677 0.16965
0.155505 0.259937 0.184512
0.235279 0.282765 0.123919
0.37702 0.286076 0.075639
0.518608 0.285634 0.0677348
0.646876 0.288136 0.0700694
0.763165 0.293645 0.0778363
0.869047 0.301839 0.0892653
0.969131 0.311635 0.101762
0.0945602 0.371069 0.221653
0.1991 0.37966 0.234226
0.280369 0.400626 0.187915
0.382406 0.420478 0.0871901
0.524529 0.421958 0.0557107
0.660197 0.422812 0.0508125
0.785657 0.425788 0.0555581
0.901946 0.430976 0.0652934
1 0.438087 0.0773785
0.143664 0.488457 0.275731
0.252079 0.49572 0.288808
0.336812 0.514244 0.256519
0.405249 0.543297 0.162905
0.520088 0.556771 0.0886854
0.652399 0.560998 0.0577859
0.781552 0.564004 0.0495918
0.904356 0.567971 0.0510109
1 0.573312 0.0576181
0.203479 0.601892 0.334096
0.30782 0.610452 0.34548
0.393729 0.627955 0.31957
0.451362 0.657954 0.249317
0.53373 0.682673 0.157
0.647318 0.695033 0.0976577
0.771481 0.701579 0.066865
0.894469 0.706569 0.0560616
1 0.711833 0.0553902
0.261952 0.715526 0.39202
0.363287 0.725032 0.40206
0.450263 0.741772 0.380072
0.506065 0.770504 0.32842
0.569238 0.799985 0.245441
0.657984 0.821469 0.166567
0.767147 0.834348 0.114885
0.884199 0.842939 0.0840162
1 0.849821 0.0702068
0.320302 0.828946 0.450095
0.419257 0.839185 0.459205
0.506981 0.85539 0.439979
0.563302 0.882734 0.401007
0.618265 0.913085 0.334081
0.687556 0.940444 0.253544
0.777249 0.96054 0.185809
0.881636 0.974456 0.137591
0.992645 0.984802 0.106355
0 0 0
0 0 0
0 0 0
0.012314 7.62951e-05 0.00679026
0.066804 0.0223545 0.040589
0.137835 0.039704 0.0726329
0.226307 0.051957 0.101884
0.331289 0.0595254 0.127779
0.449119 0.0635233 0.150088
0 0.0175021 0.025391
0.0349432 0.0446784 0.0665446
0.0961929 0.0656443 0.0874037
0.163012 0.0844587 0.114519
0.2477 0.0981765 0.138781
0.347005 0.107851 0.158999
0.456809 0.114702 0.175494
0.572747 0.119951 0.189044
0.690806 0.124727 0.200534
0.0253452 0.138003 0.138613
0.0922713 0.157275 0.159136
0.194827 0.166781 0.170596
0.297032 0.176394 0.181353
0.405356 0.18439 0.189761
0.517067 0.191455 0.19678
0.629175 0.198413 0.203281
0.739101 0.205966 0.21004
0.844617 0.214694 0.217716
0.0444648 0.263478 0.2103
0.149462 0.272114 0.222248
0.247654 0.284428 0.215854
0.382239 0.289601 0.169894
0.515862 0.290501 0.172595
0.633646 0.295567 0.180392
0.741421 0.303395 0.190234
0.841657 0.313252 0.201633
0.938155 0.324193 0.213214
0.0796826 0.385321 0.264683
0.200366 0.388983 0.278599
0.302983 0.399527 0.275731
0.386572 0.423697 0.18735
0.528466 0.425055 0.157488
0.662501 0.42594 0.157473
0.783856 0.429786 0.165576
0.895277 0.436255 0.176959
0.999542 0.444709 0.189746
0.137438 0.499947 0.320119
0.257954 0.503349 0.336172
0.35938 0.514107 0.333928
0.419013 0.543084 0.268894
0.523964 0.560189 0.187076
0.656184 0.564111 0.15938
0.785046 0.566827 0.155077
0.906615 0.570916 0.15906
1 0.576745 0.167834
0.201846 0.612009 0.378531
0.315709 0.61735 0.394003
0.415137 0.628687 0.390936
0.472328 0.656214 0.348623
0.542519 0.684077 0.261067
0.65124 0.698436 0.195621
0.775067 0.704753 0.168154
0.898085 0.709407 0.160693
1 0.71458 0.162432
0.263386 0.724666 0.436896
0.372549 0.731411 0.451438
0.470741 0.743114 0.447776
0.529198 0.768963 0.418631
0.585275 0.799207 0.349706
0.665217 0.82359 0.26775
0.771221 0.837751 0.212161
0.887724 0.846174 0.184558
1 0.852705 0.174411
0.323949 0.837369 0.49543
0.429526 0.845212 0.509133
0.526696 0.857191 0.505058
0.586557 0.881819 0.483864
0.638758 0.911513 0.432685
0.700465 0.940642 0.357061
0.784024 0.963043 0.284123
0.885908 0.977859 0.233951
0.996201 0.988113 0.205966
0 0 0
0 0 0
0 0 0
0.0286259 0.00808728 0.0242618
0.0858167 0.0289769 0.0630045
0.158465 0.0451972 0.10074
0.247028 0.056733 0.136492
0.350088 0.0641489 0.16939
0.464454 0.068452 0.198917
0.000869764 0.0291752 0.052491
0.0414435 0.053666 0.104891
0.118029 0.0692149 0.133715
0.180575 0.0897231 0.153994
0.260868 0.104219 0.18294
0.354635 0.114855 0.209934
0.458213 0.122835 0.233677
0.567605 0.129335 0.2542
0.679118 0.135439 0.271992
0 0.154238 0.197299
0.0741436 0.169863 0.23328
0.212894 0.167865 0.252262
0.292012 0.186069 0.24332
0.388281 0.196796 0.26038
0.492332 0.205341 0.275425
0.598688 0.213382 0.28838
0.703883 0.221851 0.300114
0.805463 0.231388 0.311406
0.00209049 0.283925 0.275273
0.115633 0.29041 0.282673
0.254307 0.289921 0.284489
0.370398 0.295918 0.288319
0.484321 0.302296 0.294514
0.593194 0.310063 0.301595
0.696284 0.319387 0.310033
0.794812 0.329931 0.319554
0.89044 0.341253 0.329686
0.0459297 0.403738 0.322866
0.18175 0.403555 0.329747
0.3187 0.402502 0.342031
0.391211 0.425238 0.30367
0.530877 0.42707 0.275898
0.658427 0.429236 0.282551
0.770596 0.435492 0.293996
0.874083 0.444221 0.306294
0.972213 0.454505 0.318776
0.116594 0.515023 0.372824
0.251362 0.514458 0.385901
0.37583 0.516884 0.399466
0.440681 0.539742 0.383368
0.526894 0.562448 0.300893
0.659007 0.566278 0.274495
0.786954 0.568902 0.274067
0.905257 0.573602 0.281605
1 0.580514 0.292988
0.189059 0.624903 0.428504
0.315084 0.626612 0.444282
0.431708 0.631464 0.45594
0.49752 0.653223 0.447761
0.554971 0.682887 0.381277
0.654124 0.700755 0.308629
0.777768 0.707134 0.280873
0.900832 0.711559 0.275731
1 0.716777 0.279347
0.25626 0.735927 0.486137
0.375433 0.739528 0.502617
0.487312 0.745922 0.512261
0.553948 0.76704 0.507652
0.606516 0.795926 0.464363
0.673961 0.823682 0.385733
0.774289 0.840101 0.324071
0.890394 0.848783 0.294896
1 0.855161 0.285222
0.320867 0.84741 0.544656
0.434638 0.852567 0.561013
0.543236 0.860044 0.568948
0.610269 0.880796 0.5664
0.663172 0.908202 0.537285
0.717144 0.938415 0.474754
0.791424 0.963729 0.399939
0.889265 0.980209 0.344701
0.998962 0.99089 0.313924
0 0 0
0 0 0
0.00285344 0 0.0109255
0.0483253 0.0144656 0.0502022
0.108446 0.0337682 0.0938125
0.182879 0.0487831 0.137163
0.272221 0.0594186 0.179309
0.374197 0.0664683 0.218784
0.485359 0.0710613 0.254704
0.00109865 0.0403143 0.0890211
0.0471504 0.0618296 0.154253
0.136797 0.0718242 0.200748
0.210025 0.0893111 0.217212
0.284871 0.105806 0.240558
0.373587 0.117662 0.269718
0.471458 0.126879 0.297688
0.573983 0.134966 0.322789
0.678248 0.142763 0.345052
0 0.167819 0.277028
0.0649729 0.177768 0.329305
0.220523 0.169497 0.361379
0.322759 0.182467 0.334051
0.40032 0.20032 0.333288
0.492073 0.21239 0.349538
0.587976 0.223133 0.366369
0.684688 0.233707 0.382193
0.779339 0.244968 0.396994
0 0.303517 0.371313
0.07187 0.307347 0.389319
0.23209 0.298604 0.410849
0.37583 0.298665 0.390021
0.459266 0.315236 0.383688
0.556435 0.325948 0.396231
0.653773 0.336599 0.408515
0.749493 0.347738 0.420523
0.843381 0.359396 0.432456
0 0.425666 0.40647
0.136217 0.423743 0.406271
0.29424 0.417838 0.403403
0.406577 0.42417 0.414176
0.520546 0.431373 0.41033
0.627878 0.439323 0.419226
0.729824 0.448814 0.428321
0.828077 0.459327 0.43801
0.923323 0.470665 0.448295
0.0789349 0.533745 0.439582
0.223575 0.530999 0.444648
0.372839 0.526497 0.453666
0.463661 0.538491 0.471336
0.530297 0.563653 0.424445
0.661006 0.567712 0.399939
0.784482 0.571069 0.405829
0.894728 0.577783 0.417472
0.996384 0.586877 0.430579
0.161593 0.641398 0.48661
0.299596 0.639979 0.497704
0.43592 0.638758 0.511925
0.519051 0.653162 0.527291
0.575769 0.678813 0.506065
0.656794 0.702312 0.430564
0.779873 0.708858 0.402686
0.902525 0.713054 0.401328
1 0.718624 0.408179
0.237308 0.75024 0.54023
0.367636 0.750698 0.554955
0.49485 0.752041 0.569894
0.574365 0.767651 0.583276
0.632532 0.791745 0.573373
0.687175 0.821546 0.513603
0.777066 0.841703 0.444923
0.892363 0.850752 0.414313
1 0.85684 0.406882
0.308324 0.859968 0.597009
0.431769 0.862257 0.613458
0.552666 0.865492 0.627634
0.629908 0.881849 0.639597
0.689219 0.905104 0.634714
0.739239 0.934218 0.596185
0.801373 0.962707 0.525917
0.892317 0.981796 0.464668
1 0.992981 0.4318
0 0 0
0 0 0.00215152
0.0151217 0 0.0310674
0.0710307 0.0188449 0.0887312
0.136599 0.0356756 0.13872
0.213367 0.0493782 0.186694
0.30309 0.0593118 0.233845
0.403738 0.0661784 0.278569
0.512276 0.0710155 0.319677
7.62951e-05 0.0508125 0.136049
0.0519112 0.0691081 0.215579
0.150729 0.0747234 0.278981
0.243259 0.0849012 0.311818
0.322087 0.100923 0.325795
0.404517 0.115236 0.347463
0.495659 0.126543 0.373861
0.592065 0.136294 0.400015
0.690013 0.145769 0.424048
0 0.178759 0.373648
0.059205 0.183352 0.438941
0.224842 0.171145 0.480369
0.357031 0.172976 0.476799
0.437873 0.192981 0.441794
0.514 0.21146 0.438392
0.599054 0.225864 0.450278
0.686717 0.239185 0.465293
0.772869 0.252918 0.480369
0 0.318959 0.494697
0.0413672 0.317479 0.526711
0.229603 0.29987 0.553811
0.393912 0.292134 0.551003
0.488975 0.310063 0.492912
0.562081 0.330007 0.48275
0.645411 0.345022 0.49279
0.731106 0.358984 0.506203
0.817838 0.372534 0.52047
0 0.446372 0.520607
0.081117 0.442847 0.524544
0.246357 0.433906 0.531197
0.386069 0.43154 0.548257
0.514549 0.43682 0.518715
0.594903 0.453651 0.518029
0.687129 0.46566 0.530999
0.780819 0.477241 0.543786
0.873564 0.489097 0.556237
0.0227512 0.555749 0.530114
0.173556 0.551812 0.528298
0.33312 0.545403 0.524926
0.448066 0.551171 0.532525
0.545327 0.56144 0.547845
0.65507 0.570291 0.538582
0.758785 0.579034 0.549386
0.856855 0.589456 0.559808
0.951629 0.600824 0.57052
0.118502 0.661158 0.559213
0.263951 0.658213 0.562936
0.417762 0.652613 0.568475
0.521508 0.660716 0.585946
0.600595 0.676081 0.603662
0.661021 0.702632 0.560739
0.781567 0.710033 0.531823
0.90161 0.714443 0.53637
1 0.721553 0.547829
0.20412 0.767941 0.60325
0.344152 0.766018 0.612573
0.48806 0.762661 0.62472
0.582177 0.773388 0.644083
0.655741 0.790555 0.659464
0.70927 0.816709 0.642145
0.780468 0.842435 0.573053
0.893889 0.852277 0.539849
1 0.858015 0.535943
0.283772 0.875578 0.654826
0.416907 0.875273 0.668177
0.551904 0.87425 0.683024
0.640131 0.886732 0.701778
0.710994 0.904814 0.71548
0.765988 0.929519 0.708385
0.816968 0.959396 0.658625
0.895811 0.982589 0.591714
1 0.99469 0.555673
0 0 0
0 0 0.0192569
0.0305791 0.00663767 0.0670024
0.0943465 0.0218051 0.140352
0.169238 0.0345464 0.202457
0.251286 0.0459754 0.256001
0.341924 0.0552071 0.306096
0.441016 0.0621958 0.353521
0.54612 0.0677348 0.397269
0 0.0605631 0.194629
0.0556802 0.0754559 0.289708
0.16257 0.0770428 0.369604
0.269169 0.0809796 0.423987
0.365164 0.0911269 0.445319
0.448905 0.105989 0.455802
0.533272 0.12018 0.471962
0.621729 0.132769 0.492485
0.712276 0.144656 0.513817
0 0.187594 0.484627
0.0541848 0.187533 0.561013
0.227924 0.172045 0.610834
0.372824 0.168185 0.627604
0.483192 0.178744 0.59942
0.557427 0.200656 0.564797
0.628977 0.221042 0.555077
0.705303 0.238651 0.55996
0.782895 0.25536 0.570199
0 0.329854 0.636286
0.021912 0.323079 0.67744
0.228077 0.300175 0.704036
0.39585 0.290806 0.707347
0.528572 0.295964 0.666239
0.600259 0.320836 0.607599
0.6654 0.343725 0.590875
0.739574 0.361898 0.595712
0.817853 0.37821 0.607279
0 0.462715 0.661082
0.0375372 0.455665 0.673671
0.226871 0.438819 0.688426
0.38468 0.431418 0.701732
0.536904 0.428031 0.689525
0.624628 0.447959 0.632151
0.692683 0.469383 0.62092
0.772061 0.485451 0.631022
0.854414 0.500267 0.644755
0 0.576669 0.647547
0.115129 0.571801 0.647379
0.277134 0.564187 0.649058
0.398718 0.567452 0.662394
0.525414 0.56875 0.680201
0.647669 0.575265 0.656092
0.723033 0.593561 0.654475
0.811185 0.606638 0.668086
0.901411 0.619089 0.681498
0.0608225 0.683192 0.653803
0.210117 0.679591 0.652293
0.369512 0.673167 0.648768
0.48452 0.67892 0.65568
0.588266 0.687633 0.66627
0.678706 0.699672 0.683467
0.77966 0.711284 0.671427
0.881788 0.720302 0.683574
0.97673 0.731456 0.695262
0.156741 0.788464 0.681041
0.302388 0.785489 0.683833
0.458289 0.779416 0.686931
0.567269 0.786191 0.701396
0.6598 0.79736 0.720699
0.73402 0.814008 0.739437
0.788357 0.841062 0.709697
0.895186 0.853391 0.670649
1 0.858885 0.67245
0.245716 0.894286 0.722347
0.386587 0.892195 0.73019
0.53489 0.887724 0.739818
0.635737 0.896468 0.758343
0.719783 0.910002 0.778729
0.789044 0.928283 0.795224
0.841596 0.953872 0.786267
0.901564 0.982055 0.725963
1 0.996063 0.684138
0 0 0.00766003
0 0 0.0361639
0.0460975 0.0123751 0.113527
0.116991 0.0236973 0.204532
0.202609 0.0314794 0.284535
0.294423 0.038819 0.349157
0.38912 0.0463874 0.402518
0.487724 0.0533913 0.450141
0.589258 0.0599832 0.493126
0 0.0694896 0.265705
0.0583963 0.0807965 0.377279
0.173007 0.0784924 0.473426
0.288838 0.0778058 0.547356
0.401755 0.0811627 0.587076
0.498726 0.0919203 0.598398
0.583215 0.107179 0.601907
0.66508 0.122866 0.609766
0.747189 0.138094 0.621775
0 0.194781 0.608804
0.0491035 0.19057 0.694881
0.230015 0.172213 0.752178
0.381003 0.165255 0.782315
0.512078 0.167834 0.773632
0.607156 0.183963 0.734203
0.676493 0.207553 0.696956
0.741619 0.230564 0.679301
0.808042 0.251896 0.67541
0 0.337301 0.790112
0.00949111 0.325856 0.835798
0.226383 0.299886 0.86099
0.395773 0.289769 0.866865
0.542763 0.289128 0.842435
0.645457 0.304784 0.784085
0.709484 0.331487 0.729946
0.769955 0.356207 0.707973
0.836896 0.377081 0.706462
0 0.47396 0.818311
0.0102541 0.462455 0.83563
0.218997 0.439887 0.849836
0.383566 0.430869 0.858946
0.538201 0.426276 0.852018
0.662715 0.433692 0.811597
0.7337 0.458518 0.754528
0.794888 0.48278 0.734524
0.864836 0.502266 0.737697
0 0.593774 0.788632
0.0660258 0.586389 0.794781
0.241611 0.573831 0.806226
0.380911 0.571389 0.824186
0.523659 0.568322 0.837797
0.665888 0.567376 0.830167
0.75639 0.585855 0.778378
0.819272 0.609232 0.761761
0.894087 0.626657 0.77084
0 0.704875 0.773495
0.14931 0.70016 0.772534
0.309758 0.693126 0.772122
0.427085 0.697902 0.782025
0.53698 0.704417 0.796643
0.653132 0.708705 0.815061
0.777401 0.713359 0.803479
0.846632 0.734234 0.792996
0.930236 0.748516 0.80708
0.0988174 0.810239 0.778988
0.245762 0.807218 0.777996
0.405005 0.800793 0.774365
0.519539 0.806638 0.781033
0.623346 0.815366 0.790585
0.720287 0.825879 0.802762
0.807965 0.838621 0.820386
0.895827 0.854017 0.808728
0.99884 0.862684 0.820951
0.195026 0.915358 0.804654
0.340047 0.912551 0.806851
0.496544 0.906416 0.80827
0.607462 0.912764 0.820478
0.705303 0.922576 0.836957
0.791974 0.935347 0.856992
0.864485 0.9523 0.877195
0.91693 0.978073 0.86656
1 0.997192 0.816449
0 0 0.0251164
0.00573739 0.00270085 0.0644694
0.0613565 0.0170443 0.171557
0.138781 0.0245518 0.281621
0.234119 0.027451 0.382162
0.337911 0.0294957 0.464195
0.441489 0.0335241 0.525887
0.542687 0.0396277 0.573648
0.642283 0.047013 0.613321
0 0.0775158 0.350149
0.0600595 0.0851148 0.478737
0.182132 0.079057 0.590234
0.304738 0.0746777 0.68162
0.429435 0.0727398 0.740047
0.542321 0.0775616 0.763806
0.637308 0.0899214 0.764446
0.718914 0.106889 0.758572
0.794903 0.125277 0.755947
0 0.20058 0.745373
0.0437324 0.19263 0.839902
0.23122 0.171679 0.903532
0.386023 0.162676 0.942977
0.527657 0.160708 0.949172
0.643473 0.169528 0.92195
0.727764 0.189517 0.875608
0.791394 0.215244 0.833402
0.849256 0.241184 0.807248
0 0.342321 0.95285
0.000274662 0.327108 1
0.224414 0.299123 1
0.394934 0.288594 1
0.546731 0.285801 1
0.670054 0.293904 0.970428
0.756863 0.314336 0.910933
0.818173 0.341497 0.86009
0.875425 0.36759 0.833387
0 0.481117 0.984894
0 0.465568 1
0.214618 0.439704 1
0.382239 0.430045 1
0.537316 0.425116 1
0.674479 0.427344 0.989899
0.776684 0.442374 0.938628
0.842023 0.468559 0.884627
0.899199 0.494606 0.857862
0 0.606317 0.946136
0.0289006 0.595941 0.957916
0.22295 0.577615 0.972519
0.37409 0.571832 0.988754
0.52224 0.567514 0.998444
0.666041 0.565728 0.994644
0.788663 0.572793 0.963073
0.864149 0.595987 0.90837
0.921462 0.621942 0.881544
0 0.723018 0.914885
0.0959487 0.716091 0.918639
0.264027 0.705989 0.926863
0.392447 0.706874 0.943084
0.518471 0.708263 0.961395
0.650355 0.708232 0.976089
0.78529 0.708766 0.974853
0.884916 0.723537 0.932921
0.943618 0.749035 0.905974
0.0313268 0.832624 0.900832
0.183413 0.828107 0.899504
0.342947 0.821378 0.898039
0.458824 0.826658 0.906371
0.564752 0.834562 0.918135
0.666941 0.843229 0.933303
0.773754 0.850187 0.952071
0.897246 0.853468 0.957092
0.968002 0.874998 0.933883
0.136156 0.937102 0.905715
0.28127 0.934539 0.905074
0.439704 0.928283 0.901488
0.55378 0.934218 0.90808
0.656947 0.943114 0.917311
0.753933 0.953674 0.928344
0.846159 0.965438 0.941329
0.932433 0.978607 0.958297
1 0.998047 0.952239
