luts/Mad Max.cube
TITLE "Generated by Resolve"
LUT_3D_SIZE 33
0 0 0
0 0 0
0 0 0
0 0 0
0 0 0
0 0 0
0 0 0
0 0 0
0 0 0
0 0 0
0 0 0
0 0 0
0 0 0
0.000747692 0 0
0.00941482 0 0
0.018967 0.000854505 0.00344854
0.0331121 0.00650034 0.00996414
0.0484627 0.0117952 0.0162814
0.0649729 0.0167391 0.0223239
0.0826581 0.0213626 0.0280919
0.101534 0.0256199 0.0335699
0.12163 0.0295415 0.0387427
0.142947 0.0331121 0.0436255
0.165469 0.036347 0.048188
0.189227 0.0392309 0.0524605
0.214176 0.0417792 0.0564126
0.240314 0.044007 0.0600595
0.267582 0.0458991 0.0634012
0.295933 0.0475166 0.066453
0.325338 0.0488289 0.0692149
0.355718 0.0498665 0.0717021
0.386999 0.05066 0.0739147
0.418952 0.0512856 0.0759289
0 0 0
0 0 0
0 0 0
0 0 0
0 0 0
0 0 0
0 0 0
0 0 0
0 0 0
0 0 0
0.000396735 0 0
0.00924697 0 0
0.0198825 0.00411994 0.00585946
0.0332036 0.0100099 0.0123293
0.0476539 0.0155795 0.0185397
0.0632334 0.0208133 0.0244602
0.0799573 0.0257115 0.0300755
0.0978408 0.0302739 0.0353857
0.116915 0.0345159 0.0403906
0.137194 0.038407 0.0450904
0.158679 0.0419623 0.0494545
0.181353 0.045182 0.0534981
0.205219 0.0480812 0.0572366
0.230213 0.0506447 0.0606546
0.256321 0.0529183 0.0637675
0.283528 0.0548867 0.0665599
0.311772 0.0565652 0.0690776
0.340993 0.0579843 0.0713054
0.371115 0.059144 0.0732738
0.401801 0.0601511 0.0750439
0.433387 0.060914 0.0765393
0.465629 0.0615091 0.0778515
0.498436 0.0619364 0.0789654
0 0 0
0 0 0
0 0 0
0 0 0
0 0 0
0 0 0
0 0 0
0 0 0
0.00852979 0.00123598 0.00173953
0.0197147 0.00772107 0.00840772
0.0321202 0.0138857 0.0148013
0.045594 0.0197299 0.0208896
0.0601816 0.0252689 0.0266728
0.0758984 0.0304723 0.0321508
0.0927596 0.0353552 0.0372931
0.110811 0.0399023 0.0421302
0.130037 0.0441291 0.0466163
0.150439 0.0480201 0.050782
0.17203 0.0515755 0.054612
0.194797 0.0548104 0.0581216
0.218708 0.0577401 0.0613107
0.243732 0.0603494 0.0641642
0.269825 0.0626688 0.0667124
0.296941 0.0646982 0.068986
0.325032 0.0664683 0.0709544
0.354025 0.0679942 0.0726635
0.383581 0.0693675 0.0741894
0.414038 0.0704814 0.0754559
0.445167 0.0714122 0.0765087
0.476875 0.0721904 0.0773785
0.509087 0.0728313 0.0780804
0.541711 0.0733654 0.0786603
0.57467 0.0737926 0.0791028
0 0 0
0 0 0
0 0 0
0 0 0
0 0 0
0.00749218 0.00505074 0.00450141
0.0179751 0.0117647 0.0111238
0.0294499 0.018204 0.0174258
0.0419776 0.0243534 0.0234073
0.0555734 0.0301671 0.0290684
0.0702983 0.0356909 0.0344091
0.0861372 0.0408789 0.0393988
0.103151 0.0457465 0.0440681
0.12134 0.0502785 0.0483864
0.140688 0.0545052 0.052369
0.161227 0.0583963 0.0560159
0.18291 0.0619669 0.0593118
0.205722 0.0652171 0.0622873
0.229664 0.0681773 0.0649424
0.254658 0.0708476 0.0672923
0.28069 0.0732128 0.069337
0.307668 0.0753338 0.0710918
0.335393 0.0772564 0.0726482
0.364034 0.0789044 0.07393
0.393423 0.0803693 0.0749828
0.423499 0.0816358 0.0758373
0.45417 0.0827344 0.076524
0.485359 0.0836957 0.0770581
0.516991 0.0845197 0.0774395
0.549004 0.0852522 0.0777295
0.581292 0.0859083 0.0779278
0.613809 0.0865034 0.0780652
0.646479 0.0870375 0.0781567
0 0 0
0 0.00216678 0.00103761
0.00408942 0.00955215 0.00825513
0.0122988 0.016907 0.0153506
0.0217746 0.0238804 0.0222782
0.0340581 0.0302281 0.0256199
0.047776 0.0360418 0.0310063
0.0619516 0.0417334 0.0362097
0.0770123 0.0471656 0.0410773
0.0931258 0.0523079 0.045594
0.110353 0.057145 0.0497444
0.12871 0.061677 0.0535286
0.148226 0.0658885 0.0569772
0.168872 0.0697795 0.0600748
0.190646 0.0733806 0.0628214
0.213519 0.0766613 0.0652628
0.237476 0.0796521 0.0673838
0.26244 0.0823682 0.0691997
0.288365 0.0848249 0.0707408
0.315022 0.087068 0.0720684
0.342641 0.0890516 0.0731212
0.371008 0.090837 0.0739605
0.400061 0.0924239 0.0746014
0.429725 0.093843 0.0750744
0.459937 0.0951095 0.0753796
0.490608 0.0962539 0.0755627
0.52166 0.0972915 0.0756542
0.553033 0.0982223 0.075639
0.584634 0.0991073 0.0755627
0.616434 0.0999313 0.0754406
0.648325 0.100725 0.075288
0.680262 0.101503 0.0751354
0.712169 0.102281 0.0749981
0.00825513 0.021622 0.0183871
0.0155642 0.029221 0.02533
0.0238651 0.0365301 0.0320897
0.0333715 0.043473 0.0386816
0.0441749 0.0500496 0.0450446
0.0573281 0.0565194 0.0434424
0.0750744 0.061326 0.0460975
0.0930343 0.0660105 0.0496223
0.111437 0.0705577 0.0530861
0.130571 0.0748913 0.0562753
0.150652 0.078996 0.0591287
0.171679 0.082826 0.0616617
0.193713 0.0863813 0.063859
0.216754 0.089662 0.0657206
0.240772 0.0926833 0.0672923
0.265751 0.0954452 0.0685588
0.291447 0.0979934 0.0696422
0.31809 0.100298 0.0704356
0.345495 0.102388 0.0710002
0.373587 0.104295 0.0713817
0.402304 0.10602 0.0715953
0.431586 0.107576 0.0716564
0.461341 0.10901 0.0715953
0.491508 0.110338 0.0714275
0.522026 0.111559 0.0711986
0.552804 0.112703 0.0708934
0.58378 0.113787 0.0705577
0.614893 0.114824 0.0702068
0.646097 0.115831 0.0698558
0.677317 0.116838 0.0695354
0.708476 0.117845 0.0692454
0.739559 0.118883 0.0690013
0.770504 0.119936 0.0688334
0.0237278 0.0498207 0.0416266
0.0321202 0.0570993 0.0480049
0.0416571 0.0640421 0.0542306
0.0524453 0.0706188 0.0603494
0.0646982 0.0767987 0.0659037
0.0776074 0.0837262 0.0599527
0.0981003 0.0881666 0.057023
0.120104 0.0918746 0.0578012
0.142443 0.0954147 0.059205
0.165194 0.0988327 0.0607156
0.188495 0.102083 0.0621042
0.212451 0.105165 0.0632944
0.237049 0.108064 0.0643168
0.26247 0.110735 0.0650339
0.288563 0.113222 0.0655528
0.315358 0.115511 0.0658732
0.342794 0.117632 0.0660105
0.370825 0.119585 0.06598
0.39939 0.121386 0.0658122
0.428443 0.123049 0.0655222
0.457908 0.124605 0.0651408
0.487724 0.12604 0.064683
0.51783 0.127413 0.0641947
0.54815 0.12871 0.0636606
0.578637 0.129946 0.0631266
0.609201 0.131167 0.0626078
0.639826 0.132357 0.0621195
0.670436 0.133547 0.061677
0.700999 0.134752 0.0612955
0.731426 0.135973 0.0609903
0.761715 0.137224 0.0607767
0.791791 0.138537 0.0606699
0.821622 0.139895 0.0606851
0.0368353 0.0787366 0.0630045
0.0464485 0.0856794 0.0688334
0.0572518 0.092256 0.0745403
0.0692607 0.098497 0.0801251
0.0831159 0.104265 0.0846723
0.0962234 0.111376 0.076051
0.116762 0.116503 0.0652781
0.142092 0.1196 0.061799
0.168185 0.122255 0.0604257
0.194583 0.124773 0.0598154
0.221286 0.127169 0.0594644
0.24831 0.129442 0.0592203
0.275685 0.131624 0.0589609
0.303471 0.133684 0.0586252
0.331655 0.135622 0.0582132
0.360235 0.137453 0.0577249
0.389166 0.139178 0.0571756
0.41854 0.140795 0.0564889
0.448096 0.142336 0.0558175
0.477897 0.143801 0.0551308
0.507897 0.14522 0.0544289
0.538033 0.146578 0.053727
0.568276 0.147906 0.0530556
0.59855 0.149218 0.05243
0.628824 0.15053 0.0518502
0.659052 0.151827 0.0513619
0.689174 0.153155 0.0509499
0.719158 0.154513 0.0506447
0.748959 0.155901 0.0504616
0.778531 0.157351 0.0504005
0.807843 0.158862 0.0504921
0.836866 0.160433 0.050721
0.865553 0.162097 0.0511177
0.0476081 0.108431 0.082414
0.0585031 0.115007 0.0877089
0.0706035 0.121233 0.0929122
0.083772 0.127153 0.0979171
0.0994125 0.132479 0.101289
0.113512 0.139483 0.090898
0.132021 0.14583 0.0733349
0.15903 0.148989 0.0633249
0.188144 0.15108 0.0583505
0.217792 0.152865 0.0551308
0.2477 0.154482 0.0526894
0.277684 0.156024 0.050782
0.307759 0.157519 0.0491798
0.337911 0.158968 0.047776
0.368154 0.160372 0.0465095
0.398489 0.161746 0.0453193
0.428885 0.163073 0.0442054
0.459342 0.164385 0.0431525
0.489845 0.165667 0.0421607
0.520348 0.166934 0.0412451
0.550835 0.168215 0.0404212
0.581338 0.169467 0.0396124
0.611704 0.170748 0.038941
0.641901 0.172061 0.038407
0.671916 0.173419 0.037995
0.701747 0.174807 0.037705
0.731334 0.176257 0.0375677
0.760678 0.177768 0.037583
0.789715 0.179339 0.0377508
0.818433 0.181003 0.0381018
0.846799 0.182742 0.0386206
0.874784 0.184573 0.0393835
0.902342 0.186496 0.0403754
0.0562295 0.138872 0.0998398
0.0684672 0.145083 0.104646
0.0818494 0.150942 0.109377
0.096376 0.156497 0.113771
0.113802 0.161395 0.115969
0.12932 0.168093 0.104311
0.14548 0.175525 0.0825818
0.171847 0.179583 0.0648661
0.202838 0.181582 0.0546731
0.235019 0.182895 0.0482948
0.267506 0.183948 0.0436103
0.300084 0.184894 0.0398108
0.332586 0.185794 0.0367132
0.36495 0.186679 0.0341192
0.397131 0.187594 0.0318914
0.429129 0.188525 0.0299687
0.46096 0.189487 0.0282292
0.492592 0.190478 0.0266117
0.524025 0.191516 0.0253605
0.555215 0.192569 0.0243687
0.586175 0.193683 0.0235904
0.616892 0.194858 0.0230106
0.647318 0.196078 0.0226291
0.677455 0.197375 0.022446
0.707286 0.198734 0.022446
0.736767 0.200168 0.0226596
0.766079 0.201663 0.0229496
0.794797 0.203281 0.0235904
0.823133 0.20499 0.0244297
0.851041 0.206806 0.0254826
0.878508 0.208743 0.0267643
0.905516 0.210773 0.0282597
0.932036 0.21294 0.029984
0.0632181 0.169909 0.11545
0.0768139 0.175738 0.119829
0.0912032 0.181323 0.124163
0.107347 0.18645 0.127886
0.126513 0.190921 0.128969
0.143664 0.197238 0.116258
0.158282 0.20531 0.092607
0.182162 0.210666 0.0686046
0.213306 0.21323 0.0519112
0.247059 0.214466 0.0411841
0.281498 0.215183 0.0336767
0.31606 0.215732 0.0278172
0.350545 0.21622 0.0227359
0.384771 0.216663 0.0188602
0.418662 0.217136 0.0157931
0.452155 0.217655 0.0133516
0.485267 0.21825 0.0114137
0.517952 0.218906 0.0099031
0.550256 0.219669 0.00874342
0.582116 0.220508 0.00791943
0.613581 0.221439 0.00738537
0.644602 0.222461 0.00715648
0.675181 0.223606 0.007187
0.705318 0.224842 0.00746166
0.734997 0.226184 0.00799573
0.764202 0.227649 0.0087892
0.792935 0.229221 0.00982681
0.82118 0.230915 0.0111086
0.84892 0.232731 0.0126345
0.876127 0.234684 0.0144198
0.902815 0.236759 0.0164492
0.929168 0.238926 0.0185855
0.954772 0.24126 0.0211185
0.0690166 0.201404 0.129458
0.0838788 0.206867 0.133516
0.0994888 0.212116 0.137453
0.117128 0.216831 0.140597
0.137942 0.22089 0.140658
0.156771 0.226795 0.127153
0.170733 0.23508 0.103365
0.191608 0.241703 0.0753338
0.221103 0.24535 0.0521706
0.255116 0.246998 0.0360418
0.290761 0.247745 0.0243534
0.326726 0.248066 0.0162356
0.36257 0.248234 0.0102388
0.398138 0.248341 0.00549325
0.433356 0.248478 0.00169375
0.468086 0.248676 0
0.502297 0.248966 0
0.535927 0.249348 0
0.569009 0.249851 0
0.601495 0.250492 0
0.633433 0.251255 0
0.664775 0.25214 0
0.695537 0.253178 0
0.725719 0.254337 0
0.755322 0.25565 0
0.784329 0.257099 0
0.812741 0.258701 0
0.840558 0.260441 0.000213626
0.867765 0.262333 0.00250248
0.894392 0.264378 0.005066
0.920378 0.266575 0.00791943
0.945754 0.268925 0.0110475
0.970657 0.271397 0.0143587
0.0741741 0.233143 0.142214
0.0900282 0.238315 0.14609
0.107149 0.243153 0.14963
0.126192 0.247501 0.15227
0.148516 0.251179 0.151476
0.168963 0.256641 0.137392
0.182925 0.264851 0.114458
0.201251 0.272419 0.084535
0.227893 0.277333 0.056611
0.260731 0.27985 0.0347601
0.296498 0.28098 0.0186465
0.33315 0.281331 0.00793469
0.369909 0.281361 0.000259403
0.406394 0.281285 0
0.442481 0.281224 0
0.47808 0.281193 0
0.513115 0.281254 0
0.547494 0.281422 0
0.581201 0.281743 0
0.614221 0.2822 0
0.64654 0.282811 0
0.678172 0.283574 0
0.709102 0.284504 0
0.73933 0.285603 0
0.768872 0.28687 0
0.797726 0.288304 0
0.825864 0.289906 0
0.85333 0.291676 0
0.880095 0.293614 0
0.906432 0.295674 0
0.932418 0.297841 0.0012665
0.958068 0.300084 0.00453193
0.983429 0.302419 0.0078584
0.0791943 0.264973 0.154116
0.0960861 0.269856 0.157855
0.114626 0.274281 0.161074
0.134936 0.278264 0.163317
0.158618 0.281605 0.161807
0.180591 0.286641 0.147402
0.194873 0.294652 0.125628
0.211505 0.302724 0.095613
0.234974 0.308812 0.0651408
0.265446 0.312474 0.0385443
0.300191 0.314321 0.0177768
0.336721 0.315007 0.00375372
0.3738 0.315145 0
0.410788 0.315053 0
0.447395 0.314885 0
0.483482 0.314748 0
0.518975 0.314687 0
0.553841 0.314733 0
0.587976 0.3149 0
0.621347 0.315236 0
0.653956 0.31574 0
0.685771 0.316411 0
0.716808 0.317266 0
0.747036 0.318303 0
0.776501 0.319524 0
0.805234 0.320928 0
0.833432 0.322454 0
0.861189 0.324132 0
0.888502 0.325902 0
0.915404 0.327794 0
0.941955 0.329793 0
0.968124 0.331884 0
0.993988 0.334066 0.0012665
0.0843824 0.296773 0.165545
0.102571 0.301259 0.169116
0.122316 0.305348 0.172122
0.14374 0.309026 0.17409
0.168612 0.312047 0.172
0.191974 0.31667 0.157519
0.20679 0.324392 0.137102
0.222416 0.332631 0.108492
0.243122 0.339635 0.0769055
0.270558 0.344457 0.0474403
0.303273 0.347311 0.0223087
0.338781 0.348638 0.00460822
0.375494 0.349126 0
0.412497 0.349187 0
0.449271 0.349065 0
0.485557 0.348913 0
0.521248 0.348806 0
0.556237 0.348806 0
0.590524 0.348928 0
0.624063 0.349187 0
0.656779 0.34963 0
0.68864 0.35024 0
0.719768 0.351034 0
0.750271 0.35198 0
0.780194 0.353079 0
0.809567 0.354314 0
0.838422 0.355673 0
0.866789 0.357168 0
0.894713 0.358785 0
0.92221 0.360525 0
0.94931 0.362356 0
0.976028 0.364294 0
1 0.366323 0
0.0902113 0.328359 0.176806
0.109758 0.332448 0.180224
0.130541 0.336217 0.183108
0.152926 0.33962 0.184878
0.178805 0.342382 0.182406
0.203387 0.346639 0.168017
0.21883 0.354025 0.14905
0.234012 0.362188 0.122499
0.252613 0.369818 0.0910048
0.276936 0.375631 0.0606241
0.30695 0.379568 0.0324407
0.340627 0.381781 0.0109865
0.376272 0.382849 0
0.412711 0.383261 0
0.44921 0.383352 0
0.48539 0.383307 0
0.521004 0.383261 0
0.555932 0.383276 0
0.590127 0.383413 0
0.623652 0.383673 0
0.656565 0.38407 0
0.688869 0.384604 0
0.720546 0.385275 0
0.751614 0.386099 0
0.782116 0.387045 0
0.81207 0.388144 0
0.84152 0.389364 0
0.870466 0.390707 0
0.898955 0.392187 0
0.927016 0.393759 0
0.954665 0.395453 0
0.981918 0.397238 0
1 0.39913 0
0.097322 0.359533 0.188083
0.117906 0.363302 0.191485
0.139559 0.366812 0.194324
0.162753 0.36997 0.195972
0.189456 0.372503 0.193256
0.215106 0.37641 0.179156
0.231189 0.383459 0.161654
0.24622 0.39147 0.137316
0.263386 0.399344 0.107561
0.285054 0.405966 0.0769055
0.311986 0.410849 0.0481422
0.343328 0.414099 0.0230411
0.377234 0.415946 0.00460822
0.412528 0.416907 0
0.448295 0.417365 0
0.484001 0.417578 0
0.519356 0.417685 0
0.554223 0.417807 0
0.588525 0.41799 0
0.622248 0.418265 0
0.655406 0.418647 0
0.688014 0.419135 0
0.720088 0.419745 0
0.751614 0.420478 0
0.782605 0.421332 0
0.813062 0.422324 0
0.843015 0.423423 0
0.87248 0.424643 0
0.901503 0.425986 0
0.930068 0.427436 0
0.958221 0.428992 0
0.985977 0.430655 0
1 0.432425 0
0.105791 0.390234 0.19968
0.127214 0.393744 0.203128
0.149615 0.397024 0.205982
0.173449 0.4 0.207614
0.200809 0.402335 0.204807
0.227344 0.405921 0.19115
0.244068 0.412634 0.175128
0.259174 0.420401 0.153109
0.275425 0.428305 0.12575
0.294987 0.435492 0.0957656
0.319036 0.441169 0.0675059
0.347601 0.44538 0.0407416
0.379309 0.448157 0.0193027
0.412955 0.449866 0.00311284
0.447593 0.450889 0
0.482612 0.451514 0
0.517601 0.451911 0
0.5523 0.452216 0
0.586587 0.452522 0
0.620401 0.452857 0
0.653712 0.453254 0
0.686503 0.453758 0
0.718807 0.454353 0
0.750622 0.455039 0
0.781964 0.455848 0
0.812833 0.456748 0
0.843214 0.457771 0
0.873121 0.4589 0
0.902586 0.460136 0
0.931609 0.461479 0
0.96022 0.462913 0
0.988434 0.464469 0
1 0.466117 0
0.115755 0.420417 0.21181
0.137865 0.423713 0.215366
0.160861 0.426795 0.218326
0.185214 0.429603 0.22002
0.213062 0.431785 0.217243
0.240314 0.435096 0.204166
0.257618 0.441489 0.189624
0.272938 0.448966 0.169909
0.288655 0.456779 0.145235
0.306554 0.464286 0.116945
0.328115 0.47071 0.0885328
0.353689 0.475776 0.0621042
0.38294 0.479591 0.0373388
0.414588 0.48217 0.0179294
0.447776 0.483894 0.00292973
0.481804 0.485039 0
0.516136 0.485832 0
0.550454 0.486412 0
0.584558 0.4869 0
0.618311 0.487358 0
0.651667 0.487846 0
0.684565 0.48838 0
0.717006 0.488991 0
0.748989 0.489677 0
0.780545 0.490455 0
0.811658 0.491325 0
0.842374 0.492302 0
0.872633 0.493355 0
0.90248 0.494514 0
0.931899 0.495781 0
0.960891 0.497139 0
0.989502 0.498589 0
1 0.50013 0
0.127337 0.450034 0.224689
0.149981 0.453132 0.228412
0.173449 0.456062 0.23154
0.198184 0.458732 0.233341
0.226368 0.460792 0.230732
0.254154 0.463874 0.218311
0.271855 0.470024 0.205051
0.287266 0.477287 0.187198
0.302464 0.485054 0.164569
0.319097 0.49276 0.138109
0.338567 0.499779 0.110048
0.361532 0.505608 0.0835737
0.388098 0.510277 0.0581216
0.417639 0.513802 0.0352789
0.449104 0.516304 0.0173953
0.481819 0.518074 0.00329595
0.515236 0.519341 0
0.548928 0.520302 0
0.58265 0.52105 0
0.61619 0.521706 0
0.649439 0.522316 0
0.682338 0.522957 0
0.714839 0.523613 0
0.746929 0.52433 0
0.778622 0.525124 0
0.809903 0.525994 0
0.840787 0.52694 0
0.87129 0.527962 0
0.901411 0.529076 0
0.931136 0.530282 0
0.960479 0.531579 0
0.989441 0.532952 0
1 0.534432 0
0.140642 0.479011 0.238468
0.163684 0.481987 0.242405
0.187396 0.48481 0.24567
0.212161 0.487465 0.247486
0.240269 0.48954 0.244816
0.268208 0.492546 0.232746
0.286107 0.498543 0.220386
0.301595 0.505653 0.204013
0.316472 0.513329 0.183246
0.33225 0.521111 0.158709
0.350057 0.528496 0.131685
0.370886 0.535012 0.104646
0.394949 0.540383 0.0795605
0.422141 0.544732 0.0554208
0.451713 0.548089 0.0342565
0.482887 0.550561 0.0175479
0.515129 0.552392 0.00418097
0.547967 0.553796 0
0.581079 0.554894 0
0.614221 0.55581 0
0.647227 0.556619 0
0.680003 0.557397 0
0.712459 0.55816 0
0.744579 0.558938 0
0.776333 0.559777 0
0.807721 0.560662 0
0.838727 0.561608 0
0.869368 0.562646 0
0.899641 0.563745 0
0.929564 0.56492 0
0.959152 0.566171 0
0.988373 0.567498 0
1 0.568917 0
0.155138 0.507561 0.252934
0.178042 0.510567 0.256809
0.201572 0.513451 0.259968
0.226169 0.516167 0.261646
0.254124 0.518288 0.258885
0.282216 0.521218 0.247105
0.300298 0.527092 0.235538
0.315892 0.53402 0.220447
0.330617 0.541588 0.201373
0.3458 0.549371 0.178683
0.362371 0.557 0.153002
0.381399 0.564004 0.126345
0.403296 0.570031 0.100999
0.428153 0.575082 0.0766766
0.455711 0.579217 0.0535286
0.485176 0.582452 0.0340887
0.51603 0.584924 0.0183261
0.547784 0.586831 0.00553903
0.580087 0.588357 0
0.612634 0.589609 0
0.645243 0.590677 0
0.677745 0.591638 0
0.710048 0.592554 0
0.742092 0.593454 0
0.773831 0.594354 0
0.805234 0.5953 0
0.836316 0.596292 0
0.867033 0.59733 0
0.897429 0.598428 0
0.927474 0.599603 0
0.957183 0.600839 0
0.986572 0.602152 0
1 0.603525 0
0.169604 0.536095 0.267384
0.19234 0.539162 0.271168
0.215702 0.542092 0.274235
0.240116 0.544869 0.275776
0.267948 0.547036 0.272938
0.296178 0.549889 0.261418
0.314443 0.555642 0.250553
0.330159 0.562432 0.236561
0.344823 0.569863 0.218982
0.359533 0.57763 0.197833
0.37528 0.585351 0.173861
0.392874 0.592691 0.148074
0.412955 0.599283 0.122255
0.435676 0.604944 0.0982681
0.461051 0.609751 0.0748608
0.488762 0.613718 0.0529183
0.518059 0.616876 0.034699
0.548547 0.619379 0.0196994
0.579843 0.621378 0.00740063
0.611627 0.623026 0
0.643641 0.624414 0
0.675731 0.625635 0
0.707744 0.626749 0
0.739605 0.627802 0
0.771237 0.628824 0
0.802594 0.629847 0
0.833661 0.6309 0
0.864424 0.631983 0
0.894865 0.633112 0
0.925002 0.634302 0
0.954803 0.635538 0
0.984298 0.636851 0
1 0.638224 0
0.183978 0.564645 0.281788
0.206561 0.567758 0.285496
0.22977 0.570748 0.288457
0.254032 0.573571 0.289876
0.281743 0.575769 0.286976
0.310109 0.578546 0.2757
0.328542 0.584192 0.265431
0.344381 0.590845 0.252415
0.359045 0.598169 0.236149
0.373495 0.605844 0.216571
0.388632 0.613596 0.194217
0.405081 0.621164 0.169543
0.423621 0.628168 0.144137
0.444541 0.634409 0.119509
0.467887 0.63978 0.0964828
0.493599 0.644388 0.0740368
0.521324 0.648249 0.0532387
0.550408 0.651377 0.0360113
0.580514 0.653925 0.0216678
0.611353 0.656016 0.00976577
0.642634 0.657786 0
0.674144 0.659312 0
0.70573 0.66067 0
0.737285 0.661921 0
0.768704 0.663096 0
0.799924 0.664256 0
0.830915 0.6654 0
0.861646 0.66656 0
0.892088 0.667735 0
0.922255 0.668956 0
0.952117 0.670222 0
0.981689 0.67155 0
1 0.672923 0
0.198306 0.593194 0.296162
0.220752 0.596338 0.299794
0.243809 0.59939 0.302647
0.267933 0.602258 0.30396
0.295521 0.604486 0.30103
0.32401 0.607217 0.289967
0.342596 0.612757 0.280217
0.358587 0.619287 0.26807
0.373297 0.626474 0.252995
0.387579 0.634058 0.234836
0.402289 0.641779 0.214023
0.417868 0.649485 0.190616
0.435142 0.656794 0.166003
0.45449 0.663493 0.141314
0.476066 0.669398 0.118166
0.499886 0.674571 0.0956741
0.525795 0.679026 0.0742962
0.553429 0.682826 0.0544137
0.582238 0.685939 0.0380102
0.611978 0.688533 0.0242161
0.642359 0.69073 0.0126802
0.673152 0.692622 0.00309758
0.704173 0.69427 0
0.735286 0.695766 0
0.766384 0.697154 0
0.797375 0.698466 0
0.828199 0.699733 0
0.858824 0.700999 0
0.88922 0.702266 0
0.919356 0.703548 0
0.949233 0.70486 0
0.978821 0.706203 0
1 0.707607 0
0.212589 0.621744 0.310506
0.234897 0.624933 0.314076
0.257816 0.628016 0.316838
0.281819 0.63093 0.318044
0.309285 0.633204 0.315068
0.337881 0.635859 0.304204
0.356619 0.641306 0.294942
0.372763 0.647715 0.283574
0.387533 0.65478 0.26952
0.40174 0.662287 0.252659
0.416037 0.670008 0.233066
0.431098 0.677699 0.211276
0.447349 0.685222 0.18764
0.465385 0.692271 0.163394
0.485405 0.69868 0.13962
0.507485 0.704326 0.117556
0.531609 0.709331 0.0958267
0.55761 0.713649 0.0754406
0.585077 0.717418 0.0564126
0.613596 0.720546 0.0406958
0.642954 0.723217 0.0273899
0.672892 0.725505 0.016144
0.703227 0.727504 0.00674449
0.733776 0.72929 0
0.764431 0.730922 0
0.795087 0.732433 0
0.825666 0.733867 0
0.856107 0.735271 0
0.886366 0.736629 0
0.916426 0.738003 0
0.946258 0.739391 0
0.975845 0.740795 0
1 0.742229 0
0.226841 0.650294 0.324834
0.249042 0.653513 0.328328
0.271824 0.656641 0.331014
0.295705 0.659586 0.332128
0.323049 0.661891 0.329137
0.351766 0.6645 0.318456
0.370642 0.669856 0.309636
0.386923 0.676158 0.298939
0.401785 0.683101 0.285847
0.415961 0.690501 0.270146
0.430045 0.698161 0.251865
0.444663 0.705852 0.231479
0.460121 0.713497 0.208957
0.477043 0.720806 0.185458
0.49572 0.727596 0.161822
0.516289 0.733745 0.139132
0.538735 0.739193 0.117845
0.563043 0.74406 0.0969253
0.589044 0.748302 0.077348
0.616312 0.752041 0.0591745
0.644526 0.755215 0.0440375
0.673503 0.757946 0.0311589
0.703014 0.760327 0.0201877
0.732891 0.762448 0.0109255
0.762997 0.764355 0.00317388
0.79321 0.76611 0
0.823438 0.767758 0
0.853605 0.769314 0
0.883665 0.770825 0
0.913573 0.772305 0
0.943313 0.773785 0
0.972839 0.775265 0
1 0.776761 0
0.241077 0.678828 0.339147
0.263157 0.682078 0.342596
0.285832 0.685237 0.345205
0.30959 0.688228 0.346242
0.336843 0.690562 0.343221
0.365652 0.693126 0.332723
0.384665 0.698405 0.324285
0.401083 0.704601 0.314214
0.416037 0.711437 0.301976
