luts/Silent Film.cube
TITLE "Generated by Resolve"
LUT_3D_SIZE 9
0.154406 0.153445 0.152377
0.162737 0.161501 0.159991
0.171298 0.169451 0.167636
0.179553 0.177417 0.174945
0.187991 0.185229 0.182437
0.196475 0.193393 0.190066
0.205524 0.201724 0.197818
0.215137 0.21088 0.206348
0.225605 0.22063 0.215335
0.182422 0.179965 0.177493
0.19089 0.188144 0.185046
0.199634 0.196201 0.192676
0.208774 0.204944 0.200809
0.218601 0.214099 0.209323
0.229374 0.224125 0.218555
0.241337 0.235157 0.228779
0.254627 0.247395 0.239811
0.269154 0.260838 0.252064
0.212039 0.207843 0.20351
0.222156 0.217365 0.212268
0.233463 0.227909 0.222034
0.245502 0.239124 0.232319
0.25948 0.25185 0.244022
0.274495 0.265751 0.256474
0.291417 0.281224 0.270634
0.309758 0.297963 0.285679
0.32987 0.316289 0.302327
0.25008 0.243214 0.236011
0.264363 0.256321 0.248096
0.280095 0.270893 0.261189
0.297368 0.286625 0.275502
0.316152 0.303899 0.291005
0.336767 0.322621 0.308019
0.358297 0.342535 0.326009
0.381384 0.363821 0.345357
0.406119 0.386694 0.366323
0.303517 0.292241 0.280552
0.322881 0.309972 0.296559
0.343862 0.329229 0.314
0.365972 0.349416 0.332296
0.389242 0.371084 0.351934
0.414313 0.394461 0.373281
0.441245 0.419425 0.396338
0.4701 0.445914 0.420829
0.502022 0.474586 0.44654
0.373419 0.356435 0.338643
0.397543 0.378729 0.359106
0.423377 0.402716 0.381018
0.450584 0.428244 0.404501
0.480262 0.455039 0.429114
0.513298 0.484764 0.455741
0.548806 0.517174 0.484276
0.586526 0.552041 0.515724
0.624689 0.587793 0.548363
0.460166 0.436988 0.412573
0.491264 0.464927 0.438041
0.525017 0.495552 0.46508
0.561273 0.528664 0.494728
0.599298 0.56376 0.526406
0.637705 0.599878 0.559731
0.67483 0.635767 0.592935
0.710781 0.671 0.626551
0.74464 0.704585 0.659388
0.574655 0.540795 0.505592
0.612634 0.576288 0.537911
0.650721 0.612543 0.571221
0.687526 0.648188 0.604944
0.722393 0.682612 0.63798
0.755108 0.715297 0.670054
0.785748 0.746105 0.700526
0.813947 0.774639 0.729381
0.839841 0.80116 0.756039
0.699809 0.660243 0.61619
0.73431 0.694453 0.649287
0.766278 0.726513 0.680919
0.796017 0.756344 0.710979
0.822904 0.783886 0.738476
0.84828 0.809766 0.764828
0.872312 0.834119 0.789837
0.894636 0.856809 0.813062
0.916945 0.878691 0.835218
0.157763 0.156619 0.15555
0.166491 0.164904 0.16318
0.174853 0.172976 0.170779
0.1832 0.180713 0.178195
0.191531 0.188739 0.18555
0.200336 0.196857 0.193286
0.209506 0.205615 0.201282
0.219364 0.214817 0.209995
0.230213 0.224903 0.219272
0.186007 0.183536 0.180682
0.194644 0.191501 0.188296
0.203479 0.199969 0.196033
0.212802 0.208698 0.204318
0.222995 0.218143 0.213046
0.234073 0.228534 0.222614
0.246479 0.239887 0.233143
0.260426 0.25272 0.244724
0.2757 0.266697 0.257496
0.216114 0.211795 0.20705
0.22678 0.221714 0.216342
0.2383 0.232364 0.226123
0.25095 0.24416 0.236866
0.265385 0.257267 0.248951
0.281147 0.271855 0.261982
0.298573 0.287724 0.276478
0.317723 0.30518 0.292332
0.338338 0.324163 0.309407
0.255711 0.248417 0.240742
0.270481 0.261921 0.253178
0.286702 0.276921 0.26656
0.304601 0.293309 0.281498
0.324361 0.311238 0.29778
0.345235 0.33051 0.315145
0.367544 0.351019 0.333715
0.391165 0.372824 0.353704
0.416556 0.396368 0.375204
0.310826 0.299046 0.286656
0.331151 0.317464 0.30338
0.352392 0.337087 0.32108
0.375067 0.357961 0.340032
0.399252 0.380316 0.360555
0.425147 0.404456 0.382635
0.452445 0.429938 0.406073
0.482811 0.457176 0.43122
0.515969 0.487144 0.457633
0.382681 0.364996 0.34641
0.407416 0.387991 0.367376
0.433799 0.412619 0.389944
0.462135 0.438575 0.414054
0.492927 0.466407 0.439277
0.527413 0.49752 0.467063
0.563851 0.530999 0.496651
0.601846 0.566293 0.528695
0.640482 0.602747 0.562112
0.472053 0.447639 0.422385
0.504356 0.476692 0.448615
0.539315 0.508476 0.476539
0.576654 0.54284 0.507408
0.614832 0.57847 0.539773
0.65275 0.61442 0.573037
0.689693 0.650309 0.606882
0.724987 0.685191 0.640238
0.757839 0.718044 0.672511
0.589868 0.554925 0.518364
0.628351 0.591089 0.551568
0.665812 0.627039 0.584787
0.702342 0.66273 0.618555
0.736812 0.696696 0.651728
0.768444 0.728695 0.683085
0.797925 0.758389 0.712779
0.824948 0.786191 0.740826
0.850202 0.811994 0.767117
0.714336 0.674617 0.630198
0.74789 0.708064 0.662867
0.77937 0.739467 0.694057
0.807568 0.768399 0.722805
0.833875 0.795331 0.750103
0.858366 0.820279 0.775631
0.882124 0.844007 0.799985
0.904189 0.866316 0.82269
0.925887 0.88748 0.844068
0.161776 0.160433 0.158968
0.170184 0.168383 0.166629
0.178622 0.17641 0.173983
0.186877 0.18436 0.18146
0.195377 0.192203 0.188968
0.204089 0.200549 0.196567
0.213642 0.209476 0.205051
0.22385 0.218982 0.213825
0.235004 0.229328 0.223331
0.189807 0.186954 0.184054
0.198322 0.195132 0.191516
0.207431 0.203677 0.199649
0.217136 0.212589 0.207919
0.227497 0.22237 0.216938
0.239185 0.233219 0.226902
0.252094 0.24506 0.237858
0.266438 0.258335 0.249928
0.282414 0.272847 0.26305
0.2206 0.215976 0.211063
0.231434 0.226032 0.22031
0.243549 0.237201 0.230549
0.256764 0.249516 0.241749
0.271824 0.263157 0.254292
0.288136 0.278157 0.267857
0.306188 0.294667 0.282826
0.325994 0.312734 0.299138
0.347036 0.332082 0.316487
0.261479 0.253849 0.245701
0.277043 0.267933 0.25861
0.294057 0.283543 0.272709
0.312657 0.300572 0.288121
0.332769 0.319112 0.304784
0.35433 0.33872 0.322576
0.376837 0.359609 0.341512
0.401068 0.382132 0.362036
0.4271 0.406378 0.384207
0.319127 0.306462 0.293492
0.339651 0.325399 0.310353
0.361685 0.345663 0.328862
0.384787 0.366949 0.348363
0.409613 0.389944 0.369345
0.436103 0.414618 0.391943
0.464317 0.440711 0.416022
0.49575 0.468956 0.44155
0.530221 0.500038 0.46923
0.392828 0.374365 0.35494
0.418341 0.398032 0.37673
0.445136 0.423178 0.399832
0.47451 0.449805 0.424445
0.506966 0.479057 0.450507
0.542184 0.510948 0.47892
0.579339 0.545342 0.509651
0.61796 0.581445 0.542504
0.656031 0.617639 0.57612
0.484947 0.459266 0.432944
0.518563 0.489632 0.459907
0.554635 0.522576 0.489265
0.592294 0.557397 0.520607
0.630976 0.593606 0.553826
0.66862 0.62974 0.58732
0.705089 0.665446 0.621408
0.739101 0.699245 0.654154
0.77142 0.731426 0.686046
0.605966 0.569924 0.531991
0.644022 0.606134 0.565255
0.681529 0.642313 0.599283
0.717266 0.677531 0.632761
0.750469 0.710643 0.665171
0.781094 0.741482 0.695994
0.810056 0.770932 0.725368
0.836454 0.797894 0.752789
0.860975 0.822889 0.778347
0.729183 0.689113 0.644327
0.761685 0.72163 0.676341
0.791653 0.752178 0.706523
0.819654 0.780591 0.735302
0.845197 0.806714 0.761883
0.86891 0.830961 0.786603
0.891905 0.853803 0.81001
0.914092 0.875929 0.832547
0.935424 0.896803 0.853407
0.165728 0.164157 0.162539
0.17409 0.172259 0.170108
0.182422 0.179965 0.177493
0.190784 0.188037 0.18497
0.19939 0.195956 0.192462
0.208377 0.204562 0.200473
0.218006 0.21355 0.20882
0.228702 0.223362 0.217853
0.240284 0.234226 0.227955
0.193729 0.190631 0.187488
0.202441 0.198993 0.1953
0.211765 0.207568 0.20325
0.221653 0.216938 0.211948
0.232639 0.227161 0.221347
0.244694 0.238331 0.231571
0.258 0.250568 0.242786
0.272999 0.264393 0.255421
0.289662 0.279637 0.269184
0.225238 0.220279 0.215015
0.236606 0.230808 0.224689
0.249226 0.24242 0.235294
0.262943 0.255177 0.246891
0.278492 0.269429 0.259983
0.295552 0.284993 0.274022
0.314366 0.302144 0.289433
0.334508 0.320699 0.306127
0.356451 0.340841 0.324498
0.267994 0.259815 0.251102
0.284031 0.274479 0.264546
0.301732 0.290608 0.279088
0.321019 0.308186 0.294865
0.341756 0.327169 0.312123
0.363577 0.347372 0.330404
0.38706 0.369055 0.350103
0.412222 0.392355 0.371542
0.438682 0.417182 0.394308
0.32755 0.314321 0.300389
0.348974 0.333822 0.318151
0.371298 0.354421 0.336843
0.395026 0.37644 0.356817
0.420447 0.400168 0.3785
0.447761 0.425452 0.401923
0.477272 0.452369 0.426703
0.51017 0.481926 0.45304
0.546029 0.514488 0.482063
0.403296 0.3841 0.363973
0.429526 0.408453 0.386297
0.457328 0.434379 0.410178
0.4878 0.461814 0.435203
0.521599 0.492241 0.462364
0.557916 0.525383 0.491798
0.59617 0.560845 0.523919
0.634577 0.597131 0.55697
0.672724 0.633722 0.591119
0.498909 0.471794 0.444129
0.533623 0.503197 0.472038
0.570565 0.537224 0.502373
0.608789 0.572793 0.534585
0.647395 0.609369 0.56849
0.684977 0.645685 0.602319
0.7205 0.680598 0.636011
0.75404 0.713954 0.668711
0.784756 0.74519 0.699519
0.622309 0.585458 0.54638
0.660716 0.622065 0.580209
0.697307 0.657786 0.614099
0.732158 0.692332 0.647211
0.764569 0.724788 0.679301
0.794812 0.755123 0.709758
0.822309 0.783215 0.737942
0.848081 0.809552 0.76463
0.872236 0.834043 0.789761
0.74377 0.703914 0.658549
0.775433 0.735759 0.690089
0.804883 0.765377 0.720043
0.83151 0.79263 0.747372
0.856489 0.818112 0.773419
0.880003 0.841871 0.798001
0.902068 0.864179 0.820554
0.924315 0.885954 0.842527
0.945174 0.906554 0.863111
0.169558 0.16788 0.166064
0.178134 0.175921 0.173541
0.186358 0.183856 0.180987
0.194812 0.191653 0.188449
0.203555 0.200046 0.196094
0.212696 0.208606 0.204227
0.222766 0.217868 0.212787
0.233738 0.228153 0.222263
0.245701 0.239277 0.232486
0.197757 0.194583 0.191012
0.206744 0.202884 0.198901
0.216129 0.21181 0.20705
0.226535 0.221485 0.216129
0.237888 0.231998 0.225788
0.250401 0.243534 0.236301
0.264439 0.256397 0.248157
0.280018 0.270832 0.261143
0.29723 0.286519 0.275395
0.230167 0.224857 0.219242
0.241917 0.235691 0.22916
0.255131 0.247852 0.240238
0.269505 0.261097 0.252354
0.285756 0.276066 0.265965
0.303578 0.292287 0.280598
0.322835 0.309926 0.296513
0.343877 0.329229 0.314
0.366171 0.34963 0.332433
0.274556 0.265812 0.256519
0.291402 0.281209 0.270619
0.309697 0.297871 0.285603
0.329625 0.316106 0.302113
0.351064 0.335866 0.320012
0.373632 0.356634 0.338827
0.397604 0.378775 0.359136
0.423392 0.402731 0.381033
0.450721 0.428367 0.404623
0.336553 0.322408 0.307836
0.358175 0.342428 0.325917
0.381277 0.363714 0.345266
0.405829 0.386419 0.366125
0.431876 0.410773 0.388418
0.460014 0.436835 0.412436
0.491096 0.464775 0.437934
0.525063 0.495583 0.465126
0.561807 0.529168 0.495186
0.414054 0.394217 0.373053
0.440986 0.419242 0.396109
0.469902 0.445716 0.420645
0.501793 0.474372 0.446357
0.537133 0.506325 0.474861
0.574472 0.540612 0.505425
0.612863 0.576455 0.538109
0.651499 0.613291 0.571908
0.688823 0.649454 0.606134
0.513497 0.484932 0.455894
0.549401 0.517617 0.484779
0.587366 0.552819 0.516442
0.625834 0.588861 0.549355
0.664103 0.625391 0.583474
0.700877 0.66128 0.617182
0.735821 0.695918 0.650752
0.768261 0.728511 0.682902
0.798154 0.758709 0.713085
0.639323 0.601648 0.561151
0.677104 0.637995 0.595026
0.713314 0.673609 0.629236
0.747143 0.707301 0.66212
0.779034 0.739116 0.693706
0.807614 0.768444 0.722866
0.834287 0.795758 0.75053
0.859098 0.821027 0.77641
0.882948 0.844816 0.800809
0.758419 0.718624 0.673091
0.789029 0.749523 0.704067
0.817288 0.778347 0.73286
0.843198 0.804868 0.759823
0.867369 0.829297 0.784909
0.890654 0.852552 0.808728
0.912459 0.874525 0.831022
0.934386 0.895796 0.852399
0.955261 0.916274 0.87274
0.173571 0.17174 0.169604
0.181964 0.179538 0.177096
0.19028 0.187488 0.184558
0.198688 0.195407 0.191821
0.20763 0.203861 0.199817
0.217197 0.212634 0.207965
0.22742 0.222293 0.216876
0.238972 0.23299 0.226703
0.251514 0.244602 0.237354
0.201724 0.198306 0.194659
0.210819 0.20679 0.202426
0.220752 0.216114 0.211185
0.231357 0.225956 0.220249
0.243214 0.236881 0.230259
0.256306 0.249104 0.241367
0.270954 0.262364 0.253574
0.287037 0.277226 0.26685
0.304845 0.293599 0.281773
0.235172 0.229465 0.223468
0.247532 0.240864 0.233997
0.261143 0.253468 0.245335
0.276417 0.267353 0.258091
0.293065 0.282658 0.271962
0.311482 0.299535 0.287221
0.331685 0.317952 0.303822
0.353048 0.337697 0.321508
0.375799 0.358633 0.340627
0.281621 0.272206 0.262379
0.299107 0.288121 0.276936
0.318151 0.305562 0.292683
0.338674 0.324514 0.309743
0.360616 0.344533 0.327825
0.383505 0.365774 0.347127
0.408087 0.388693 0.368017
0.434623 0.413321 0.390661
0.463111 0.439475 0.414878
0.345525 0.33077 0.315389
0.368109 0.351553 0.334188
0.391669 0.373297 0.354131
0.416953 0.396735 0.37554
0.443839 0.421836 0.398596
0.472724 0.448264 0.42295
0.505196 0.477455 0.449287
0.54049 0.50959 0.477531
0.57818 0.544259 0.50869
0.425345 0.404715 0.382864
0.452995 0.430457 0.406531
0.483421 0.457832 0.431769
0.516732 0.487846 0.458259
0.552834 0.520684 0.487572
0.590799 0.555856 0.519219
0.630014 0.592584 0.553017
0.66807 0.629206 0.586816
0.705165 0.665522 0.621469
0.528405 0.498421 0.467857
0.565713 0.53254 0.498222
0.603998 0.568292 0.53051
0.642603 0.604761 0.563989
0.680522 0.641337 0.598428
0.716762 0.677028 0.632288
0.750546 0.710719 0.665248
0.781811 0.742214 0.696544
0.811032 0.771862 0.726375
0.655634 0.617258 0.57586
0.693462 0.653971 0.610239
0.729061 0.688975 0.64419
0.761868 0.721813 0.676524
0.792035 0.752575 0.706935
0.820356 0.781216 0.736019
0.846403 0.807858 0.763149
0.870375 0.83238 0.788113
0.893187 0.855344 0.811566
0.772366 0.732647 0.687144
0.802182 0.76289 0.717266
0.829923 0.791012 0.745983
0.855039 0.816632 0.772076
0.87834 0.840452 0.796338
0.90103 0.862913 0.819257
0.922942 0.884596 0.84123
0.943984 0.90515 0.861723
0.96527 0.925841 0.882139
0.177432 0.17525 0.173068
0.185657 0.1832 0.180362
0.194156 0.191028 0.187869
0.202716 0.199252 0.195499
0.211856 0.207645 0.203342
0.221561 0.216861 0.211872
0.232334 0.226871 0.221088
0.244266 0.237873 0.231144
0.257176 0.249897 0.242084
0.205844 0.202014 0.198093
0.215137 0.210895 0.206363
0.225238 0.220279 0.21503
0.236347 0.230564 0.22446
0.248692 0.241947 0.234852
0.262242 0.254551 0.246326
0.277485 0.268391 0.259037
0.294408 0.283955 0.273075
0.3131 0.300969 0.28838
0.240269 0.234211 0.227939
0.253086 0.245975 0.238697
0.267384 0.259251 0.250675
0.283101 0.273625 0.263767
0.300526 0.289509 0.278096
0.319707 0.306996 0.293935
0.340261 0.325963 0.310872
0.362585 0.346487 0.32961
0.385824 0.36791 0.349157
0.28867 0.278721 0.26836
0.306783 0.295216 0.283223
0.326574 0.313283 0.299519
0.347662 0.332586 0.317021
0.369879 0.35317 0.335653
0.393576 0.375051 0.35555
0.418936 0.398611 0.377218
0.446082 0.424063 0.400641
0.475883 0.45098 0.425452
0.354818 0.3393 0.32311
0.377493 0.360311 0.342153
0.401724 0.382788 0.362615
0.427695 0.406928 0.38471
0.455543 0.432609 0.40853
0.485771 0.459983 0.43357
0.519631 0.490471 0.460792
0.556313 0.524071 0.49044
0.594614 0.559564 0.522576
0.436805 0.415244 0.392538
0.465064 0.441367 0.416617
0.496727 0.469856 0.442527
0.531258 0.501137 0.470039
0.568429 0.535058 0.500435
0.607248 0.571328 0.533272
0.646281 0.608103 0.56733
0.684276 0.644999 0.601663
0.720439 0.680522 0.635935
0.543908 0.51252 0.480339
0.58172 0.547341 0.511467
0.620478 0.583673 0.544701
0.659022 0.620508 0.578683
0.696406 0.656809 0.613184
0.731472 0.691646 0.646632
0.764477 0.724697 0.679225
0.795331 0.755657 0.710277
0.823056 0.7841 0.738689
0.672206 0.633219 0.590814
0.708751 0.669078 0.624613
0.743404 0.703563 0.658183
0.775433 0.735759 0.690089
0.805219 0.765713 0.720363
0.831998 0.793149 0.74789
0.857145 0.818784 0.77409
0.881193 0.843061 0.799008
0.903365 0.865492 0.821881
0.786053 0.746349 0.700832
0.814633 0.775448 0.729976
0.840986 0.802457 0.757366
0.865812 0.827558 0.783108
0.889021 0.850904 0.807034
0.910719 0.872801 0.829267
0.932738 0.894194 0.850797
0.953475 0.914549 0.871031
0.974624 0.934737 0.890837
0.180957 0.178683 0.176181
0.189364 0.186526 0.183658
0.197818 0.194644 0.191073
0.206683 0.202808 0.198825
0.2159 0.211597 0.206928
0.226017 0.221012 0.215686
0.237156 0.231312 0.225162
0.24947 0.242649 0.235492
0.263066 0.255299 0.246998
0.209781 0.205875 0.201526
0.219318 0.214771 0.209949
0.22977 0.224491 0.218891
0.241321 0.235142 0.228763
0.254078 0.246891 0.239429
0.268269 0.26006 0.251316
0.284169 0.274617 0.264652
0.301747 0.290623 0.279088
0.321019 0.308202 0.294881
0.245228 0.238895 0.232074
0.258793 0.251225 0.243458
0.273579 0.264942 0.255848
0.290074 0.280018 0.269535
0.308248 0.296544 0.284413
0.327779 0.314534 0.300572
0.349218 0.334112 0.31841
0.371801 0.354833 0.337331
0.395422 0.376928 0.357275
0.29575 0.285176 0.274189
0.314549 0.302296 0.28957
0.334661 0.320836 0.306249
0.356542 0.340932 0.32459
0.379477 0.362036 0.343801
0.403784 0.384527 0.364401
0.429908 0.40882 0.386633
0.457664 0.434714 0.410483
0.488502 0.46244 0.435767
0.363729 0.347509 0.330526
0.387228 0.369207 0.35024
0.412299 0.392432 0.371603
0.438697 0.417197 0.394324
0.467414 0.443473 0.41857
0.499245 0.472099 0.444343
0.534234 0.5037 0.472526
0.571542 0.538125 0.503059
0.610407 0.574319 0.535973
0.447883 0.425559 0.402014
0.477531 0.452598 0.426932
0.510399 0.482185 0.453269
0.546395 0.514931 0.48246
0.584146 0.549828 0.513695
0.622965 0.58616 0.546853
0.662257 0.623377 0.581613
0.69926 0.659693 0.615671
0.734844 0.694987 0.649805
0.558907 0.526299 0.492622
0.597711 0.562219 0.525002
0.6365 0.598962 0.558648
0.674739 0.635691 0.592874
0.711589 0.671641 0.627329
0.746044 0.70602 0.660853
0.778073 0.738231 0.692744
0.807324 0.768139 0.72256
0.834424 0.79588 0.750668
0.687526 0.648188 0.604944
0.723537 0.683757 0.638911
0.757229 0.717433 0.671916
0.788495 0.748791 0.703395
0.8168 0.777844 0.732357
0.843015 0.804669 0.759625
0.867445 0.829419 0.785016
0.890929 0.852827 0.809003
0.912978 0.875029 0.83154
0.798428 0.75906 0.713436
0.826215 0.787488 0.742138
0.85182 0.813642 0.768795
0.875685 0.83769 0.793515
0.898863 0.860761 0.817075
0.920256 0.8822 0.838773
0.942 0.903212 0.8598
0.962737 0.923415 0.879759
0.983902 0.943481 0.899321
0.18468 0.182132 0.179355
0.192859 0.189975 0.186725
0.201419 0.198032 0.194385
0.210452 0.206516 0.202121
0.220066 0.215473 0.21059
0.230488 0.225162 0.219501
0.241962 0.235737 0.229206
0.254932 0.247669 0.24007
0.269017 0.260746 0.251942
0.213687 0.209522 0.205081
0.22356 0.218723 0.213581
0.234318 0.228779 0.222827
0.246311 0.239734 0.233005
0.259739 0.252094 0.244251
0.274357 0.265644 0.256367
0.290974 0.280827 0.270268
0.30927 0.297475 0.285252
0.329076 0.315694 0.30164
0.250614 0.243809 0.236561
0.264683 0.256626 0.248371
0.280079 0.270878 0.261173
0.297139 0.286427 0.275319
0.315755 0.303426 0.290578
0.336233 0.322133 0.307576
0.35787 0.342138 0.325658
0.381064 0.363516 0.345083
0.405585 0.386206 0.365927
0.303197 0.291951 0.280293
0.322362 0.309575 0.296117
0.343496 0.328801 0.313603
0.365637 0.349172 0.332067
0.388891 0.370718 0.351614
0.413748 0.393942 0.372793
0.440513 0.418875 0.395697
0.469581 0.445335 0.420279
0.501656 0.47425 0.44625
0.373144 0.356176 0.338445
0.39707 0.378286 0.358694
0.422736 0.402121 0.380484
0.450034 0.427604 0.403906
0.479652 0.45449 0.428626
0.512917 0.484413 0.455436
0.548898 0.517235 0.484352
0.58732 0.552758 0.516381
0.626429 0.589426 0.549889
0.459281 0.436179 0.411826
0.49041 0.464164 0.437507
0.524468 0.495018 0.464622
0.561227 0.528618 0.494697
0.59971 0.564294 0.526879
0.639231 0.601556 0.56109
0.677485 0.638331 0.595376
0.714153 0.674449 0.63003
0.748775 0.708949 0.663523
0.574411 0.540566 0.505379
0.613306 0.576822 0.538491
0.65211 0.613886 0.572473
0.689921 0.650523 0.60705
0.725994 0.686198 0.641215
0.759548 0.719753 0.67422
0.790524 0.751049 0.705394
0.819211 0.78024 0.734859
0.84564 0.80708 0.762341
0.702708 0.663035 0.618921
0.738109 0.698146 0.653147
0.770901 0.730907 0.685542
0.800763 0.761456 0.715846
0.828534 0.789578 0.744533
0.853956 0.815534 0.771038
0.877546 0.839673 0.795529
0.900618 0.862486 0.81883
0.922515 0.88423 0.840909
0.810498 0.771389 0.725826
0.837674 0.798932 0.75404
0.862516 0.824216 0.77995
0.885588 0.847745 0.8038
0.908324 0.870146 0.826596
0.929534 0.891325 0.847929
0.950912 0.911818 0.868345
0.971786 0.932036 0.888212
0.993194 0.952117 0.907668
