luts/Silent Film.cube
TITLE "Generated by Resolve"
LUT_3D_SIZE 33
0.154406 0.153445 0.152377
0.156268 0.155276 0.154116
0.15845 0.157259 0.156115
0.160678 0.15938 0.157977
0.162737 0.161501 0.159991
0.164965 0.163455 0.161975
0.167132 0.165499 0.163745
0.169162 0.16759 0.165713
0.171298 0.169451 0.167636
0.173358 0.171481 0.16936
0.175372 0.173358 0.171221
0.177569 0.175372 0.173159
0.179553 0.177417 0.174945
0.181704 0.179294 0.176867
0.183825 0.181292 0.178683
0.185809 0.183337 0.180499
0.187991 0.185229 0.182437
0.190097 0.187259 0.184344
0.192172 0.189349 0.18613
0.1944 0.191272 0.188098
0.196475 0.193393 0.190066
0.198596 0.195346 0.19176
0.200931 0.197482 0.193881
0.203235 0.199741 0.195834
0.205524 0.201724 0.197818
0.207767 0.203998 0.199939
0.210269 0.206332 0.201953
0.212604 0.208515 0.20415
0.215137 0.21088 0.206348
0.217609 0.213107 0.208408
0.22031 0.215702 0.210803
0.222904 0.218036 0.21294
0.225605 0.22063 0.215335
0.16144 0.160113 0.158663
0.163455 0.162188 0.160616
0.165698 0.164141 0.162524
0.167849 0.166232 0.164431
0.169818 0.168063 0.166293
0.172076 0.170184 0.168154
0.174044 0.172229 0.170062
0.17612 0.173999 0.171893
0.178347 0.17612 0.173709
0.180331 0.178164 0.175631
0.182391 0.179934 0.177462
0.184604 0.18204 0.179278
0.186587 0.184085 0.181201
0.188678 0.18587 0.183047
0.190799 0.188052 0.18497
0.192859 0.189975 0.186725
0.195117 0.191943 0.188724
0.197314 0.194171 0.190631
0.199512 0.196063 0.192554
0.201648 0.198245 0.194598
0.203967 0.200427 0.196445
0.206378 0.202518 0.198566
0.208637 0.204807 0.200702
0.210971 0.206897 0.202564
0.213489 0.209339 0.204913
0.215976 0.211658 0.206973
0.218479 0.213993 0.209216
0.221134 0.21648 0.211521
0.223804 0.218952 0.213794
0.226596 0.221546 0.21619
0.229282 0.224033 0.218479
0.232212 0.226764 0.220981
0.23505 0.229374 0.223377
0.168505 0.166964 0.165118
0.170581 0.168765 0.166979
0.172717 0.170794 0.168704
0.174777 0.172915 0.170703
0.176867 0.174716 0.17258
0.178912 0.176776 0.174334
0.180987 0.178698 0.176211
0.183154 0.180667 0.178149
0.185168 0.182742 0.179934
0.187274 0.18468 0.181781
0.189471 0.186633 0.183749
0.191501 0.188708 0.185534
0.193729 0.190646 0.187503
0.195819 0.192737 0.189471
0.198032 0.194858 0.191272
0.200351 0.196857 0.193301
0.202502 0.199054 0.195346
0.204761 0.201038 0.197147
0.207141 0.203372 0.199359
0.209522 0.205646 0.201312
0.211933 0.207721 0.203403
0.214298 0.210101 0.205615
0.216907 0.21239 0.207706
0.219425 0.214862 0.21004
0.221942 0.217197 0.212116
0.224674 0.21976 0.214542
0.22739 0.222278 0.216861
0.230304 0.224994 0.219348
0.233265 0.227726 0.221881
0.236133 0.230365 0.224292
0.239185 0.233204 0.226902
0.242298 0.236042 0.22948
0.245274 0.238941 0.23212
0.175402 0.173388 0.171252
0.177615 0.175418 0.173205
0.179614 0.177478 0.17499
0.181781 0.17937 0.176928
0.183917 0.181384 0.178744
0.185901 0.183429 0.180591
0.188083 0.185321 0.182513
0.190204 0.187381 0.184451
0.192309 0.189471 0.186236
0.194537 0.191409 0.188205
0.196628 0.19353 0.190158
0.198734 0.195453 0.191867
0.201007 0.197589 0.193973
0.203372 0.199863 0.195926
0.205661 0.201846 0.19794
0.207889 0.204105 0.200046
0.210361 0.206409 0.202029
0.212711 0.208606 0.204242
0.215228 0.210971 0.206424
0.217685 0.213199 0.208484
0.220386 0.215763 0.210864
0.222965 0.218097 0.213016
0.225681 0.220691 0.215396
0.228473 0.223117 0.21767
0.231235 0.225849 0.220142
0.234104 0.228565 0.222629
0.237232 0.231388 0.225223
0.240146 0.234134 0.227832
0.243442 0.23711 0.230457
0.246586 0.239994 0.233249
0.250019 0.243153 0.235966
0.253346 0.24622 0.238911
0.256779 0.249531 0.241764
0.182422 0.179965 0.177493
0.184649 0.182086 0.179324
0.186664 0.184146 0.181247
0.188754 0.185946 0.183108
0.19089 0.188144 0.185046
0.192966 0.190036 0.186816
0.195239 0.19205 0.188815
0.197436 0.194293 0.190753
0.199634 0.196201 0.192676
0.201785 0.198383 0.19472
0.204059 0.200504 0.196521
0.206531 0.202655 0.198703
0.208774 0.204944 0.200809
0.211139 0.207019 0.202701
0.213626 0.209476 0.205035
0.216083 0.211765 0.207019
0.218601 0.214099 0.209323
0.221256 0.216587 0.211612
0.223896 0.219028 0.21387
0.226703 0.221637 0.216281
0.229374 0.224125 0.218555
0.232303 0.226841 0.221057
0.235142 0.22945 0.223438
0.238239 0.232303 0.226078
0.241337 0.235157 0.228779
0.244572 0.238193 0.231449
0.247791 0.241108 0.234165
0.250935 0.24416 0.236866
0.254627 0.247395 0.239811
0.25803 0.250584 0.242802
0.261692 0.254047 0.245869
0.265476 0.257359 0.249027
0.269154 0.260838 0.252064
0.189502 0.186664 0.18378
0.191546 0.188754 0.18558
0.19379 0.190692 0.187549
0.19588 0.192813 0.189548
0.198123 0.194934 0.191348
0.200443 0.196948 0.193378
0.202609 0.199161 0.195422
0.204898 0.201144 0.197269
0.207248 0.20351 0.199496
0.209674 0.205783 0.201434
0.21207 0.207858 0.20354
0.21445 0.210239 0.205753
0.217044 0.212497 0.207828
0.219562 0.215 0.210163
0.22211 0.217334 0.212222
0.224811 0.219883 0.214664
0.227481 0.222354 0.216938
0.230442 0.225101 0.219471
0.233387 0.227832 0.221988
0.23624 0.230472 0.224384
0.239246 0.23328 0.226963
0.24239 0.236133 0.229557
0.245365 0.239033 0.232197
0.249012 0.242222 0.235111
0.252293 0.245243 0.238025
0.255833 0.248569 0.240894
0.259373 0.251759 0.243946
0.262852 0.2551 0.246815
0.266712 0.258656 0.250217
0.270665 0.262089 0.25333
0.274449 0.265705 0.256428
0.278599 0.26952 0.26006
0.282795 0.273259 0.263432
0.196643 0.193545 0.190173
0.198779 0.195483 0.191897
0.201053 0.19762 0.194003
0.203433 0.199924 0.195987
0.205737 0.201923 0.198001
0.20798 0.204196 0.200137
0.210437 0.206485 0.20209
0.212833 0.208728 0.204349
0.215366 0.211093 0.206546
0.217792 0.213336 0.208606
0.220523 0.2159 0.210986
0.223072 0.21825 0.213138
0.225818 0.220829 0.215518
0.228611 0.223255 0.217762
0.231388 0.225986 0.220264
0.234226 0.228687 0.222751
0.237354 0.23151 0.22533
0.240284 0.234226 0.227955
0.243549 0.237201 0.230549
0.246693 0.240085 0.233326
0.250111 0.243244 0.236042
0.253437 0.246296 0.238972
0.25684 0.249592 0.24181
0.260609 0.252903 0.244846
0.264332 0.256291 0.248066
0.26807 0.259892 0.251164
0.272068 0.263386 0.254505
0.276005 0.266987 0.257755
0.280064 0.270863 0.261173
0.28423 0.274662 0.264714
0.288472 0.278538 0.268208
0.292836 0.28249 0.271778
0.297368 0.286641 0.275502
0.204059 0.200504 0.196521
0.206546 0.20267 0.198718
0.208804 0.204959 0.200824
0.211185 0.207065 0.202747
0.213687 0.209537 0.205097
0.216144 0.21181 0.207065
0.218692 0.214191 0.2094
0.221363 0.216678 0.211719
0.223987 0.219104 0.213947
0.226825 0.221759 0.216388
0.229511 0.224247 0.218677
0.232441 0.226963 0.221164
0.235279 0.229572 0.22356
0.238361 0.232425 0.226184
0.241443 0.235264 0.228855
0.244663 0.2383 0.23154
0.247913 0.241215 0.234241
0.251041 0.244251 0.236957
0.254719 0.247471 0.239887
0.258122 0.25066 0.242893
0.261769 0.254124 0.24593
0.265553 0.25742 0.249088
0.26923 0.260899 0.252125
0.273213 0.264591 0.255604
0.277302 0.268177 0.258839
0.281407 0.272053 0.262211
0.285725 0.276036 0.265949
0.290013 0.279957 0.269474
0.294392 0.28394 0.273075
0.29897 0.288014 0.276814
0.30367 0.292378 0.280674
0.3084 0.296696 0.28455
0.313207 0.301076 0.288472
0.212039 0.207843 0.20351
0.214435 0.210224 0.205737
0.21706 0.212512 0.207828
0.219593 0.21503 0.210178
0.222156 0.217365 0.212268
0.224872 0.219944 0.21471
0.227527 0.2224 0.216968
0.230518 0.225177 0.219532
0.233463 0.227909 0.222034
0.236347 0.230564 0.224475
0.239307 0.233371 0.227039
0.242496 0.23624 0.229648
0.245502 0.239124 0.232319
0.249119 0.242329 0.235203
0.252415 0.24535 0.238117
0.255924 0.248676 0.240986
0.25948 0.25185 0.244022
0.262943 0.255177 0.246891
0.266789 0.258717 0.250278
0.270726 0.26215 0.253376
0.274495 0.265751 0.256474
0.27863 0.269551 0.26009
0.282811 0.273274 0.263447
0.286961 0.27715 0.266773
0.291417 0.281224 0.270634
0.295842 0.285252 0.274266
0.300374 0.289372 0.277974
0.304891 0.293645 0.281804
0.309758 0.297963 0.285679
0.314763 0.302495 0.289754
0.319707 0.306996 0.293935
0.324758 0.311604 0.2981
0.32987 0.316289 0.302327
0.220478 0.215854 0.210941
0.223041 0.218204 0.213107
0.225803 0.220813 0.215503
0.228611 0.223255 0.217762
0.231403 0.226001 0.220279
0.234272 0.228717 0.222782
0.237415 0.23154 0.225376
0.24036 0.234287 0.228016
0.243626 0.237278 0.23061
0.246769 0.240162 0.233402
0.250202 0.24332 0.236118
0.253529 0.246372 0.239063
0.256916 0.249653 0.241871
0.260685 0.252949 0.244877
0.264408 0.256367 0.248127
0.268116 0.259937 0.251209
0.272114 0.263447 0.254551
0.276051 0.267033 0.257786
0.280095 0.270893 0.261189
0.284245 0.274693 0.264729
0.288487 0.278553 0.268208
0.292836 0.28249 0.271778
0.297368 0.286625 0.275502
0.302007 0.290867 0.279316
0.306691 0.295125 0.283131
0.311391 0.299458 0.287144
0.316182 0.303929 0.291035
0.321248 0.308476 0.295109
0.326543 0.313237 0.299474
0.33167 0.317952 0.303822
0.336904 0.322744 0.308125
0.342229 0.327611 0.31252
0.347646 0.33257 0.317006
0.229419 0.22417 0.218601
0.232364 0.226902 0.221118
0.235218 0.229526 0.223514
0.238331 0.232395 0.226154
0.241428 0.235248 0.22884
0.244663 0.2383 0.231556
0.247929 0.24123 0.234257
0.251087 0.244282 0.236988
0.254765 0.247517 0.239933
0.258198 0.250706 0.242939
0.26183 0.254185 0.245991
0.265614 0.257481 0.249149
0.269291 0.260945 0.252186
0.273274 0.264652 0.25565
0.277348 0.268223 0.258885
0.281453 0.272084 0.262242
0.28574 0.276051 0.265949
0.290028 0.279957 0.26949
0.294392 0.28394 0.273075
0.298939 0.287999 0.276799
0.303639 0.292348 0.280644
0.308354 0.296651 0.284504
0.313146 0.301015 0.288411
0.318029 0.30547 0.292592
0.323003 0.310048 0.296651
0.328008 0.314733 0.300755
0.333257 0.319554 0.305089
0.338598 0.324453 0.309682
0.343969 0.329351 0.314107
0.349401 0.334325 0.318608
0.354879 0.339376 0.323186
0.360555 0.344457 0.327764
0.366186 0.34963 0.332448
0.239246 0.23328 0.226963
0.242405 0.236149 0.229572
0.245411 0.239063 0.232242
0.249058 0.242283 0.235157
0.252369 0.245319 0.238087
0.255894 0.248661 0.24097
0.259464 0.25185 0.244022
0.262959 0.255192 0.246891
0.266819 0.258747 0.250294
0.270756 0.262181 0.253407
0.274525 0.265782 0.256504
0.278676 0.269596 0.260121
0.282841 0.27332 0.263478
0.286992 0.27718 0.266804
0.291432 0.281239 0.270634
0.295842 0.285252 0.274266
0.300374 0.289357 0.277958
0.30486 0.293614 0.281773
0.309728 0.297917 0.285634
0.314702 0.302434 0.289708
0.319615 0.30692 0.293873
0.324651 0.311498 0.298024
0.329732 0.316182 0.302205
0.334813 0.320974 0.306371
0.340185 0.325887 0.310796
0.345541 0.330785 0.315404
0.351125 0.335943 0.320073
0.356634 0.341009 0.324651
0.362341 0.346258 0.329397
0.368017 0.351461 0.334112
0.37377 0.356756 0.338933
0.379614 0.362173 0.343893
0.38558 0.367681 0.349004
0.25008 0.243214 0.236011
0.253422 0.246281 0.238956
0.25684 0.249592 0.24181
0.260624 0.252903 0.244846
0.264363 0.256321 0.248096
0.268086 0.259907 0.251194
0.272099 0.263432 0.254536
0.276051 0.267018 0.257786
0.280095 0.270893 0.261189
0.28426 0.274693 0.264729
0.288502 0.278569 0.268223
0.292836 0.282506 0.271778
0.297368 0.286625 0.275502
0.302007 0.290852 0.279301
0.306676 0.295109 0.283116
0.31136 0.299443 0.287129
0.316152 0.303899 0.291005
0.321218 0.308415 0.295079
0.326452 0.313161 0.299428
0.331563 0.317845 0.303731
0.336767 0.322621 0.308019
0.342092 0.327474 0.312398
0.347478 0.332403 0.316869
0.352789 0.337453 0.32134
0.358297 0.342535 0.326009
0.363897 0.347677 0.330663
0.369589 0.352895 0.335409
0.375494 0.358358 0.340383
0.381384 0.363821 0.345357
0.387411 0.36936 0.350378
0.393515 0.37499 0.355505
0.399832 0.38085 0.360937
0.406119 0.386694 0.366323
0.261692 0.254047 0.245869
0.265492 0.257374 0.249042
0.269184 0.260868 0.252079
0.273182 0.264576 0.255589
0.277302 0.268162 0.258824
0.281407 0.272053 0.262196
0.285725 0.276036 0.265949
0.290013 0.279957 0.269474
0.294392 0.28394 0.27306
0.298939 0.287999 0.276799
0.303639 0.292348 0.280644
0.308354 0.296651 0.284504
0.31313 0.300999 0.288411
0.318013 0.30544 0.292576
0.322957 0.310018 0.29662
0.327962 0.314687 0.300725
0.333196 0.319509 0.305058
0.338521 0.324361 0.309606
0.343877 0.329244 0.314
0.349294 0.334188 0.318486
0.354742 0.339208 0.323033
0.360372 0.344274 0.327596
0.365988 0.349432 0.332296
0.371649 0.354696 0.337179
0.37731 0.360098 0.34197
0.383291 0.36556 0.346929
0.389319 0.371176 0.35201
0.395392 0.376898 0.357244
0.401633 0.382696 0.362539
0.407996 0.388617 0.367941
0.414496 0.394629 0.373434
0.421118 0.400748 0.37908
0.427756 0.406989 0.384771
0.274388 0.26566 0.256382
0.278553 0.269474 0.260014
0.282765 0.273213 0.263386
0.2869 0.277104 0.266728
0.291371 0.281193 0.270604
0.295796 0.285222 0.274235
0.300343 0.289326 0.277928
0.304845 0.293599 0.281773
0.309728 0.297917 0.285634
0.314702 0.302434 0.289708
0.319615 0.30692 0.293873
0.324651 0.311498 0.298009
0.329717 0.316182 0.30219
0.334783 0.320958 0.306355
0.340154 0.325872 0.31078
0.345495 0.330755 0.315358
0.35108 0.335897 0.320027
0.356542 0.340932 0.32459
0.362203 0.346136 0.32929
0.367849 0.351308 0.333974
0.373587 0.356588 0.338781
0.3794 0.361975 0.343755
0.385351 0.367483 0.348837
0.391455 0.373098 0.353964
0.39765 0.37882 0.359182
0.403922 0.384665 0.364508
0.41033 0.3906 0.36994
0.416876 0.396658 0.375479
0.423484 0.402823 0.381125
0.430182 0.409079 0.386877
0.436988 0.415427 0.392691
0.44387 0.421866 0.398627
0.450828 0.428473 0.404715
0.288365 0.278431 0.268101
0.292714 0.282399 0.271672
0.297292 0.286564 0.275441
0.30193 0.290791 0.27924
0.3066 0.295048 0.283085
0.311315 0.299397 0.287068
0.316121 0.303868 0.290974
0.321202 0.308415 0.295064
0.326452 0.313161 0.299428
0.331563 0.317845 0.303731
0.336767 0.322621 0.308019
0.342077 0.327474 0.312398
0.347463 0.332403 0.316854
0.352773 0.337438 0.321324
0.358251 0.342489 0.325978
0.363836 0.347616 0.330617
0.369512 0.352819 0.335348
0.375418 0.358282 0.340322
0.381292 0.363729 0.345266
0.387289 0.369253 0.350286
0.393378 0.374868 0.355398
0.399619 0.380652 0.3608
0.405921 0.386511 0.366201
0.41239 0.392508 0.371664
0.41883 0.398474 0.377127
0.425376 0.404746 0.382895
0.431998 0.41091 0.388556
0.438987 0.417456 0.394553
0.445945 0.423941 0.400534
0.453025 0.430472 0.406561
0.460258 0.437049 0.412634
0.467842 0.443793 0.418906
0.475639 0.45069 0.425223
0.303517 0.292241 0.280552
0.308232 0.296529 0.284413
0.313024 0.300908 0.28835
0.317922 0.305364 0.2925
0.322881 0.309972 0.296559
0.327916 0.314656 0.300679
0.333181 0.319493 0.305043
0.338491 0.324346 0.30959
0.343862 0.329229 0.314
0.349279 0.334188 0.318486
0.354726 0.339193 0.323018
0.360357 0.344259 0.327596
0.365972 0.349416 0.332296
0.371618 0.354665 0.337133
0.377279 0.360052 0.341924
0.38323 0.365515 0.346883
0.389242 0.371084 0.351934
0.395315 0.376791 0.357137
0.401495 0.382574 0.362432
0.407828 0.388464 0.367803
0.414313 0.394461 0.373281
0.42089 0.400565 0.378866
0.427527 0.406775 0.384573
0.434287 0.413062 0.390356
0.441245 0.419425 0.396338
0.44828 0.425925 0.402365
0.455421 0.432486 0.408438
0.46273 0.439109 0.414542
0.4701 0.445914 0.420829
0.477867 0.452903 0.427207
0.485664 0.459907 0.433494
0.493706 0.467109 0.439902
0.502022 0.474586 0.44654
0.319493 0.306798 0.293782
0.324514 0.311376 0.297917
0.329595 0.316091 0.302083
0.334691 0.320867 0.306279
0.340108 0.325811 0.310735
0.345449 0.330709 0.315328
0.351049 0.335866 0.320012
0.356527 0.340917 0.324575
0.362188 0.34612 0.329274
0.367834 0.351293 0.333959
0.373571 0.356588 0.338781
0.379385 0.361959 0.343755
0.385336 0.367453 0.348837
0.391424 0.373068 0.353933
0.397604 0.378775 0.359136
0.403845 0.384588 0.364462
0.410239 0.390524 0.369863
0.416754 0.396551 0.375372
0.423346 0.402686 0.381003
0.429999 0.408911 0.386725
0.43679 0.415244 0.392523
0.443687 0.421668 0.398444
0.450568 0.428229 0.404501
0.457664 0.43473 0.410483
0.464927 0.441245 0.41651
0.472526 0.448066 0.422782
0.480339 0.455116 0.429191
0.488334 0.462287 0.43563
0.496452 0.469596 0.442252
0.504875 0.477165 0.449027
0.513542 0.484977 0.45594
0.522072 0.492668 0.462715
0.530892 0.500694 0.469673
0.336614 0.322469 0.307881
0.341939 0.327337 0.312276
0.347311 0.332296 0.316732
0.352651 0.337331 0.321248
0.35816 0.342412 0.325902
0.36376 0.347555 0.330556
0.369451 0.352773 0.335302
0.375387 0.358267 0.340307
0.381277 0.363714 0.345251
0.387274 0.369253 0.350271
0.393378 0.374868 0.355383
0.399603 0.380652 0.360784
0.40589 0.386496 0.366186
0.412375 0.392493 0.371649
0.418799 0.398444 0.377096
0.42533 0.4047 0.382849
0.431937 0.410849 0.388495
0.438865 0.41735 0.394461
0.445792 0.423804 0.400397
0.452873 0.430335 0.406424
0.46009 0.436912 0.412497
0.467536 0.44358 0.418692
0.475334 0.450416 0.42504
0.483146 0.457527 0.431556
0.491081 0.464759 0.437934
0.499229 0.472084 0.444343
0.507622 0.479622 0.450996
0.516289 0.487449 0.457893
0.524865 0.495399 0.464958
0.533959 0.503441 0.472313
0.54316 0.511818 0.479713
0.55227 0.520165 0.487114
0.561303 0.528695 0.494759
0.354604 0.33904 0.322881
0.360204 0.344137 0.327459
0.36582 0.349294 0.332189
0.371496 0.354574 0.337041
0.377218 0.359976 0.341863
0.383169 0.365454 0.346822
0.389212 0.371054 0.351904
0.3953 0.376776 0.357122
0.401495 0.382574 0.362432
0.407843 0.388464 0.367803
0.414313 0.394461 0.373281
0.420874 0.400565 0.378866
0.427512 0.40676 0.384558
0.434256 0.413046 0.390341
0.441199 0.419394 0.396292
0.448218 0.425864 0.402304
0.455329 0.43241 0.408347
0.462608 0.439002 0.414435
0.469947 0.445762 0.420691
0.477668 0.45272 0.427039
0.485481 0.459739 0.433356
0.493431 0.466865 0.439689
0.501762 0.474357 0.446342
0.510307 0.482094 0.453178
0.51902 0.489967 0.460304
0.527855 0.497932 0.467414
0.537011 0.506218 0.474754
0.546029 0.514504 0.482063
0.555169 0.523049 0.489616
0.564614 0.531563 0.497307
0.574136 0.540307 0.50515
0.583413 0.54902 0.512978
0.592874 0.557931 0.521096
0.373419 0.356435 0.338643
0.379248 0.361837 0.343664
0.385229 0.367361 0.348745
0.391348 0.372992 0.353857
0.397543 0.378729 0.359106
0.40383 0.384573 0.364431
0.410239 0.390509 0.369863
0.41677 0.396551 0.375387
0.423377 0.402716 0.381018
0.43003 0.408942 0.386755
0.436805 0.415259 0.392554
0.443702 0.421683 0.398459
0.450584 0.428244 0.404501
0.457664 0.434714 0.410483
0.464897 0.441215 0.41648
0.472465 0.44802 0.422751
0.480262 0.455039 0.429114
0.488228 0.462181 0.435538
0.4963 0.469459 0.442084
0.504677 0.476982 0.448875
0.513298 0.484764 0.455741
0.521859 0.49247 0.462562
0.530602 0.500404 0.469474
0.539513 0.508705 0.476753
0.548806 0.517174 0.484276
0.558175 0.525628 0.492012
0.567529 0.534218 0.499718
0.576974 0.543145 0.507683
0.586526 0.552041 0.515724
0.596262 0.560906 0.523995
0.605936 0.569894 0.53196
0.615137 0.57879 0.540063
0.624689 0.587793 0.548363
0.393271 0.374777 0.355306
0.399512 0.380545 0.360723
0.405829 0.386419 0.366125
0.41236 0.392477 0.371649
0.418799 0.398428 0.377096
0.425345 0.404715 0.382864
0.431952 0.410864 0.38851
0.438911 0.417395 0.394491
0.445853 0.42385 0.400458
0.452934 0.430396 0.406485
0.460136 0.436957 0.412543
0.467628 0.443641 0.418753
0.475395 0.450477 0.425086
0.483192 0.457557 0.431586
0.491096 0.464775 0.437934
0.499229 0.472084 0.444343
0.507576 0.479591 0.450965
0.516213 0.487358 0.457816
0.524727 0.495293 0.464851
0.533761 0.503288 0.472145
0.542931 0.51162 0.47953
0.552056 0.519982 0.486961
0.561013 0.52842 0.494514
0.570413 0.537072 0.502251
0.579934 0.545907 0.510155
0.58967 0.554742 0.518196
0.599222 0.563668 0.526329
0.608545 0.572564 0.534386
0.618357 0.581827 0.542855
0.628046 0.590875 0.551293
0.637781 0.599939 0.559792
0.647028 0.609018 0.56817
0.656184 0.617792 0.576242
0.414237 0.3944 0.37322
0.420844 0.400519 0.378836
0.427497 0.406729 0.384543
0.434256 0.413046 0.390341
0.44123 0.419425 0.396323
0.448264 0.42591 0.40235
0.455406 0.432486 0.408423
0.462699 0.439094 0.414527
0.470054 0.445869 0.420783
0.477791 0.452827 0.427146
0.485588 0.459831 0.433433
0.493553 0.466972 0.439796
0.501839 0.474418 0.446403
0.510369 0.482155 0.453239
0.519097 0.490013 0.460349
0.527886 0.497948 0.46743
0.537011 0.506218 0.474754
0.545998 0.514458 0.482033
0.555077 0.522972 0.48957
0.564477 0.531456 0.497185
0.573968 0.540139 0.505013
0.583291 0.548852 0.512825
0.592615 0.557687 0.520882
0.602197 0.566613 0.528984
0.61178 0.575601 0.537148
0.6215 0.584558 0.545602
0.631098 0.593774 0.553933
0.640635 0.602884 0.562264
0.65005 0.611902 0.570611
0.659419 0.62089 0.579034
0.668803 0.629923 0.587488
0.678172 0.63888 0.596033
0.687175 0.64773 0.604517
0.43679 0.415244 0.392538
0.443717 0.421683 0.398459
0.450614 0.428275 0.404547
0.457725 0.43476 0.410529
0.464988 0.441306 0.416571
0.472602 0.448142 0.422843
0.480415 0.455177 0.429252
0.488396 0.462333 0.435676
0.496483 0.469627 0.442283
0.504875 0.477165 0.449027
0.513512 0.484947 0.455909
0.522011 0.492607 0.462669
0.530785 0.500572 0.469581
0.539696 0.508858 0.476875
0.548959 0.517296 0.484413
0.558282 0.525719 0.492103
0.567605 0.534279 0.499779
0.576989 0.54316 0.507698
0.586511 0.55201 0.515694
0.596185 0.560845 0.523934
0.605814 0.569787 0.531868
0.615015 0.578668 0.539956
0.624491 0.587594 0.54818
0.634104 0.596674 0.556542
0.643595 0.605722 0.564874
0.653071 0.614664 0.573327
0.662852 0.623957 0.582147
0.671977 0.633005 0.5906
0.680934 0.641733 0.598795
0.689952 0.650553 0.60708
0.698863 0.659297 0.615305
0.707851 0.668177 0.623774
0.716655 0.676921 0.632197
0.460166 0.436988 0.412573
0.467704 0.443687 0.418814
0.475486 0.450568 0.425147
0.483299 0.457694 0.431678
0.491264 0.464927 0.438041
0.499382 0.472221 0.44445
0.507774 0.479759 0.451118
0.516472 0.487602 0.458045
0.525017 0.495552 0.46508
0.534081 0.503548 0.472404
0.543236 0.511894 0.479774
0.552285 0.52018 0.487129
0.561273 0.528664 0.494728
0.570642 0.537301 0.502449
0.580194 0.54609 0.510353
0.589853 0.55491 0.518349
0.599298 0.56376 0.526406
0.608606 0.572625 0.534432
0.618402 0.581857 0.542885
0.628031 0.59086 0.551293
0.637705 0.599878 0.559731
0.646937 0.608942 0.568093
0.656031 0.617639 0.576135
0.6654 0.626642 0.584405
0.67483 0.635767 0.592935
0.684138 0.644877 0.601541
0.693095 0.653635 0.609903
0.701976 0.662364 0.618219
0.710781 0.671 0.626551
0.719463 0.6795 0.634897
0.728283 0.688197 0.643442
0.736507 0.696468 0.651438
0.74464 0.704585 0.659388
0.485679 0.459907 0.433494
0.49369 0.467094 0.439902
0.502007 0.474571 0.446525
0.510506 0.482322 0.453376
0.51931 0.490181 0.460533
0.528115 0.498146 0.467613
0.53727 0.506447 0.474952
0.546273 0.514794 0.482338
0.555444 0.523308 0.489799
0.564889 0.531792 0.497536
0.574334 0.540505 0.505318
0.583505 0.549142 0.513085
0.592966 0.558022 0.521172
0.602518 0.566918 0.529274
0.6121 0.575875 0.537438
0.621759 0.584802 0.545846
0.631235 0.593942 0.554055
0.640787 0.603037 0.562402
0.650141 0.611994 0.570703
0.65948 0.620935 0.57908
0.668803 0.629923 0.587488
0.678126 0.638834 0.595972
0.687099 0.647639 0.604425
0.696178 0.656535 0.612909
0.705028 0.665385 0.621347
0.713542 0.673838 0.62945
0.722042 0.682261 0.637644
0.730526 0.6907 0.645869
0.738872 0.699031 0.653986
0.747051 0.70721 0.662028
0.755001 0.71519 0.669932
0.763226 0.723171 0.677867
0.771038 0.731044 0.685664
0.513695 0.485115 0.456062
0.52221 0.49279 0.462821
0.530999 0.500832 0.469764
0.540002 0.509148 0.477134
0.549355 0.517586 0.484749
0.558663 0.526055 0.492409
0.567926 0.534569 0.500023
0.577401 0.543542 0.508034
0.586969 0.552438 0.516091
0.596674 0.561257 0.524315
0.606271 0.570214 0.532265
0.615366 0.578988 0.540246
0.624903 0.587991 0.548547
0.634485 0.59704 0.556893
0.643961 0.606073 0.565194
0.653437 0.614939 0.573678
0.663066 0.624247 0.582406
0.672145 0.633173 0.590753
0.681117 0.641901 0.598962
0.690074 0.650675 0.607156
0.69894 0.659373 0.615366
0.707881 0.668208 0.623789
0.716655 0.676921 0.632181
0.725109 0.685313 0.64036
0.733425 0.693584 0.648432
0.741573 0.701732 0.656382
0.74992 0.710079 0.664622
0.757778 0.717968 0.67245
0.765515 0.725734 0.680156
0.773068 0.733349 0.687709
0.780591 0.740948 0.695521
0.788342 0.748577 0.703166
0.795483 0.75581 0.710445
0.543496 0.512123 0.479988
0.552529 0.520409 0.487327
0.561608 0.528984 0.495018
0.571023 0.537652 0.502739
0.580682 0.546456 0.510704
0.590295 0.555337 0.51873
0.599573 0.564126 0.526741
