luts/Silent Film.cube
TITLE "Generated by Resolve"
LUT_3D_SIZE 5
0.154406 0.153445 0.152377
0.171298 0.169451 0.167636
0.187991 0.185229 0.182437
0.205524 0.201724 0.197818
0.225605 0.22063 0.215335
0.212039 0.207843 0.20351
0.233463 0.227909 0.222034
0.25948 0.25185 0.244022
0.291417 0.281224 0.270634
0.32987 0.316289 0.302327
0.303517 0.292241 0.280552
0.343862 0.329229 0.314
0.389242 0.371084 0.351934
0.441245 0.419425 0.396338
0.502022 0.474586 0.44654
0.460166 0.436988 0.412573
0.525017 0.495552 0.46508
0.599298 0.56376 0.526406
0.67483 0.635767 0.592935
0.74464 0.704585 0.659388
0.699809 0.660243 0.61619
0.766278 0.726513 0.680919
0.822904 0.783886 0.738476
0.872312 0.834119 0.789837
0.916945 0.878691 0.835218
0.161776 0.160433 0.158968
0.178622 0.17641 0.173983
0.195377 0.192203 0.188968
0.213642 0.209476 0.205051
0.235004 0.229328 0.223331
0.2206 0.215976 0.211063
0.243549 0.237201 0.230549
0.271824 0.263157 0.254292
0.306188 0.294667 0.282826
0.347036 0.332082 0.316487
0.319127 0.306462 0.293492
0.361685 0.345663 0.328862
0.409613 0.389944 0.369345
0.464317 0.440711 0.416022
0.530221 0.500038 0.46923
0.484947 0.459266 0.432944
0.554635 0.522576 0.489265
0.630976 0.593606 0.553826
0.705089 0.665446 0.621408
0.77142 0.731426 0.686046
0.729183 0.689113 0.644327
0.791653 0.752178 0.706523
0.845197 0.806714 0.761883
0.891905 0.853803 0.81001
0.935424 0.896803 0.853407
0.169558 0.16788 0.166064
0.186358 0.183856 0.180987
0.203555 0.200046 0.196094
0.222766 0.217868 0.212787
0.245701 0.239277 0.232486
0.230167 0.224857 0.219242
0.255131 0.247852 0.240238
0.285756 0.276066 0.265965
0.322835 0.309926 0.296513
0.366171 0.34963 0.332433
0.336553 0.322408 0.307836
0.381277 0.363714 0.345266
0.431876 0.410773 0.388418
0.491096 0.464775 0.437934
0.561807 0.529168 0.495186
0.513497 0.484932 0.455894
0.587366 0.552819 0.516442
0.664103 0.625391 0.583474
0.735821 0.695918 0.650752
0.798154 0.758709 0.713085
0.758419 0.718624 0.673091
0.817288 0.778347 0.73286
0.867369 0.829297 0.784909
0.912459 0.874525 0.831022
0.955261 0.916274 0.87274
0.177432 0.17525 0.173068
0.194156 0.191028 0.187869
0.211856 0.207645 0.203342
0.232334 0.226871 0.221088
0.257176 0.249897 0.242084
0.240269 0.234211 0.227939
0.267384 0.259251 0.250675
0.300526 0.289509 0.278096
0.340261 0.325963 0.310872
0.385824 0.36791 0.349157
0.354818 0.3393 0.32311
0.401724 0.382788 0.362615
0.455543 0.432609 0.40853
0.519631 0.490471 0.460792
0.594614 0.559564 0.522576
0.543908 0.51252 0.480339
0.620478 0.583673 0.544701
0.696406 0.656809 0.613184
0.764477 0.724697 0.679225
0.823056 0.7841 0.738689
0.786053 0.746349 0.700832
0.840986 0.802457 0.757366
0.889021 0.850904 0.807034
0.932738 0.894194 0.850797
0.974624 0.934737 0.890837
0.18468 0.182132 0.179355
0.201419 0.198032 0.194385
0.220066 0.215473 0.21059
0.241962 0.235737 0.229206
0.269017 0.260746 0.251942
0.250614 0.243809 0.236561
0.280079 0.270878 0.261173
0.315755 0.303426 0.290578
0.35787 0.342138 0.325658
0.405585 0.386206 0.365927
0.373144 0.356176 0.338445
0.422736 0.402121 0.380484
0.479652 0.45449 0.428626
0.548898 0.517235 0.484352
0.626429 0.589426 0.549889
0.574411 0.540566 0.505379
0.65211 0.613886 0.572473
0.725994 0.686198 0.641215
0.790524 0.751049 0.705394
0.84564 0.80708 0.762341
0.810498 0.771389 0.725826
0.862516 0.824216 0.77995
0.908324 0.870146 0.826596
0.950912 0.911818 0.868345
0.993194 0.952117 0.907668
