luts/Technicolor.cube
TITLE "Generated by Resolve"
LUT_3D_SIZE 5
0.114427 0.108461 0.103212
0.281514 0.0958114 0.0908522
0.491402 0.0745403 0.0701762
0.737148 0.0463111 0.0429389
1 0.0121309 0.0103761
0.0823224 0.2542 0.0727245
0.257115 0.248631 0.0672923
0.474037 0.234119 0.053254
0.72639 0.21236 0.0323949
1 0.18436 0.00590524
0.0338445 0.438407 0.0275425
0.215686 0.438727 0.0277104
0.438849 0.430014 0.0193484
0.697047 0.41387 0.00407416
0.986221 0.391333 0
0 0.65568 0
0.160494 0.660853 0
0.389487 0.657282 0
0.653056 0.646189 0
0.947387 0.628626 0
0 0.902144 0
0.09337 0.911818 0
0.328054 0.912856 0
0.596796 0.906432 0
0.89601 0.893492 0
0.109422 0.103593 0.272862
0.277394 0.0917372 0.261051
0.488106 0.0712444 0.240635
0.734615 0.0437781 0.213321
1 0.0103761 0.180117
0.0799115 0.25185 0.244236
0.255406 0.246952 0.239353
0.473014 0.233082 0.225605
0.726009 0.211978 0.2047
1 0.184649 0.177722
0.0337072 0.438254 0.199893
0.216098 0.439139 0.200732
0.439841 0.431006 0.192676
0.698604 0.415457 0.177356
0.988373 0.393545 0.155795
0 0.657618 0.143404
0.162936 0.663264 0.148852
0.392416 0.660212 0.145815
0.656519 0.649683 0.13547
0.951354 0.632685 0.118837
0 0.905928 0.0762798
0.0977188 0.916075 0.0859541
0.332784 0.917601 0.0873426
0.601938 0.911665 0.0815137
0.901579 0.899184 0.069398
0.100298 0.0947127 0.495277
0.269184 0.0836194 0.484077
0.480705 0.063859 0.464103
0.727977 0.0371099 0.437064
1 0.0043946 0.403967
0.0733043 0.245441 0.468772
0.249561 0.241138 0.464469
0.467842 0.227909 0.451164
0.721477 0.207416 0.430549
1 0.180682 0.403693
0.0292363 0.433936 0.42591
0.212299 0.43537 0.427344
0.436622 0.427771 0.419745
0.695964 0.412787 0.404715
0.986267 0.391409 0.383307
0 0.655222 0.370352
0.160998 0.661341 0.376486
0.390997 0.658793 0.373922
0.655589 0.648768 0.363912
0.950927 0.632258 0.347433
0 0.905287 0.303517
0.0975204 0.915877 0.314015
0.333043 0.917861 0.315984
0.602655 0.912383 0.310521
0.902724 0.900374 0.298573
0.0876783 0.082475 0.762661
0.257527 0.0720989 0.752087
0.469871 0.0530404 0.732631
0.717876 0.026978 0.705989
0.99733 0 0.673152
0.0631418 0.235584 0.738399
0.240223 0.231876 0.734676
0.45919 0.219242 0.721843
0.713481 0.199344 0.70161
0.998978 0.173205 0.675029
0.021149 0.426169 0.69723
0.204959 0.428092 0.699245
0.429908 0.421042 0.692103
0.689799 0.406577 0.677455
0.980682 0.385733 0.656336
0 0.649317 0.642985
0.155474 0.655879 0.649668
0.386023 0.653803 0.647608
0.651133 0.644266 0.637964
0.946975 0.628244 0.62179
0 0.901061 0.577005
0.0936904 0.912093 0.588174
0.329702 0.914519 0.590646
0.599771 0.909483 0.585595
0.900313 0.897932 0.573968
0.0719463 0.0672465 1
0.242786 0.0575418 1
0.455955 0.0391699 1
0.704723 0.0137789 1
0.984817 0 0.982635
0.0498207 0.22269 1
0.227771 0.219547 1
0.447456 0.207492 1
0.702403 0.188174 1
0.988525 0.1626 0.986725
0.00982681 0.41532 1
0.194491 0.417731 1
0.420081 0.411185 1
0.680568 0.397238 0.990555
0.971984 0.376913 0.969772
0 0.640314 0.9561
0.146777 0.647288 0.963317
0.377905 0.645685 0.96173
0.643565 0.636606 0.952499
0.93991 0.621073 0.93666
0 0.893675 0.891218
0.0866255 0.90515 0.902983
0.323201 0.908003 0.905959
0.593759 0.90341 0.90132
0.894759 0.892302 0.890028
