luts/Technicolor.cube
TITLE "Generated by Resolve"
LUT_3D_SIZE 9
0.114427 0.108461 0.103212
0.191989 0.103365 0.0982223
0.281514 0.0958114 0.0908522
0.381628 0.0861219 0.0814221
0.491402 0.0745403 0.0701762
0.610101 0.0612192 0.0572976
0.737148 0.0463111 0.0429389
0.872053 0.0299229 0.0272526
1 0.0121309 0.0103761
0.100679 0.176043 0.0901198
0.180301 0.172839 0.0869764
0.271763 0.167117 0.0814221
0.373754 0.159213 0.0737469
0.485313 0.149371 0.0642252
0.605737 0.137758 0.0530098
0.734478 0.124514 0.0402838
0.871046 0.109728 0.0261845
1 0.0935225 0.0108492
0.0823224 0.2542 0.0727245
0.163851 0.252689 0.0712291
0.257115 0.248631 0.0672923
0.360815 0.242359 0.0612192
0.474037 0.234119 0.053254
0.596078 0.224063 0.043595
0.72639 0.21236 0.0323949
0.864485 0.199084 0.0197757
1 0.18436 0.00590524
0.0599222 0.341909 0.0516976
0.143297 0.341924 0.051667
0.23827 0.339406 0.0492103
0.343603 0.334646 0.0446021
0.458381 0.327886 0.038117
0.581949 0.319295 0.0298924
0.713726 0.309026 0.0201267
0.853269 0.297169 0.00892653
1 0.283833 0
0.0338445 0.438407 0.0275425
0.119066 0.439826 0.0288243
0.215686 0.438727 0.0277104
0.322576 0.43537 0.0244755
0.438849 0.430014 0.0193484
0.563867 0.422797 0.0124971
0.697047 0.41387 0.00407416
0.837964 0.403357 0
0.986221 0.391333 0
0.00427253 0.54313 0.000747692
0.0914473 0.545815 0.0031281
0.189685 0.546044 0.00325017
0.298085 0.544015 0.00128176
0.415808 0.539956 0
0.542214 0.534051 0
0.676738 0.526406 0
0.818967 0.517159 0
0.96849 0.506371 0
0 0.65568 0
0.0605936 0.659388 0
0.160494 0.660853 0
0.270375 0.66009 0
0.389487 0.657282 0
0.51722 0.652598 0
0.653056 0.646189 0
0.796567 0.638163 0
0.947387 0.628626 0
0 0.775464 0
0.0267338 0.78027 0
0.128313 0.782864 0
0.239658 0.783276 0
0.360159 0.781659 0
0.489219 0.77818 0
0.626352 0.772961 0
0.771115 0.766125 0
0.923171 0.757763 0
0 0.902144 0
0 0.908217 0
0.09337 0.911818 0
0.206195 0.913344 0
0.328054 0.912856 0
0.458412 0.910521 0
0.596796 0.906432 0
0.742779 0.900725 0
0.89601 0.893492 0
0.11249 0.106584 0.180743
0.19028 0.101701 0.175921
0.280018 0.0943465 0.168658
0.380346 0.0848554 0.159289
0.490318 0.0734569 0.148058
0.609216 0.0603494 0.135149
0.736461 0.0456245 0.120699
0.871565 0.0294347 0.104814
1 0.011841 0.087602
0.099443 0.174823 0.16817
0.179263 0.171801 0.165179
0.270909 0.166262 0.159716
0.373083 0.158556 0.152117
0.484825 0.148882 0.142611
0.605432 0.137453 0.131395
0.73434 0.124376 0.118593
0.871092 0.109789 0.104326
1 0.0937514 0.0887007
0.0816968 0.25359 0.151141
0.163409 0.252247 0.149798
0.25684 0.248356 0.145968
0.360708 0.242267 0.139971
0.474098 0.23418 0.132036
0.596307 0.224292 0.122362
0.726772 0.212757 0.111086
0.865049 0.199664 0.0983139
1 0.185107 0.0841688
0.0598917 0.341863 0.130327
0.14342 0.342046 0.13048
0.238544 0.339681 0.12813
0.34403 0.335073 0.123613
0.458961 0.328466 0.117159
0.582681 0.320043 0.108919
0.714611 0.309926 0.0990616
0.854322 0.298238 0.0876936
1 0.285069 0.0749218
0.0343786 0.438911 0.106218
0.119738 0.440482 0.107698
0.216495 0.439521 0.106737
0.323507 0.436316 0.103593
0.439933 0.431098 0.0984817
0.565087 0.424033 0.0916152
0.698421 0.415274 0.0830854
0.83949 0.404913 0.0730602
0.987915 0.393057 0.0616007
0.00537118 0.544152 0.0791638
0.0926528 0.54699 0.0818341
0.191012 0.547341 0.0821393
0.299535 0.545449 0.0802777
0.41738 0.541543 0.076463
0.543923 0.535775 0.0708629
0.678599 0.528298 0.0636149
0.820981 0.519203 0.0548409
0.970687 0.508614 0.0446326
0 0.657298 0.0496223
0.0623789 0.661112 0.0532082
0.162356 0.662699 0.0546578
0.272343 0.662058 0.0539864
0.391592 0.659388 0.0513771
0.519463 0.654856 0.0469978
0.655436 0.6486 0.0409552
0.799084 0.640711 0.033402
0.950027 0.631312 0.0243992
0 0.777569 0.0175631
0.0290379 0.782498 0.0220951
0.130709 0.785214 0.0245975
0.242145 0.785748 0.0250401
0.362753 0.784268 0.0235599
0.491936 0.780911 0.020325
0.629175 0.77583 0.0154421
0.77406 0.769116 0.0090486
0.926207 0.760861 0.00122072
0 0.904631 0
0 0.910826 0
0.0961776 0.91458 0
0.209094 0.916228 0
0.33106 0.915877 0
0.461524 0.913649 0
0.6 0.909682 0
0.746075 0.904082 0
0.899382 0.896941 0
0.109422 0.103593 0.272862
0.187442 0.098909 0.268193
0.277394 0.0917372 0.261051
0.377935 0.0824445 0.251789
0.488106 0.0712444 0.240635
0.607187 0.0583047 0.227771
0.734615 0.0437781 0.213321
0.869917 0.0277714 0.197406
1 0.0103761 0.180117
0.0970474 0.172488 0.260838
0.177066 0.16965 0.258
0.26891 0.164279 0.252659
0.371267 0.156741 0.245167
0.483177 0.14725 0.235737
0.603967 0.135973 0.224552
0.733059 0.123079 0.211765
0.869978 0.108659 0.197467
1 0.0928054 0.181796
0.0799115 0.25185 0.244236
0.161807 0.250675 0.243061
0.255406 0.246952 0.239353
0.359457 0.241001 0.233463
0.473014 0.233082 0.225605
0.595376 0.223362 0.215976
0.726009 0.211978 0.2047
0.864424 0.199039 0.191928
1 0.184649 0.177722
0.0586709 0.340688 0.223774
0.142367 0.341009 0.224079
0.237644 0.338796 0.221866
0.343282 0.33434 0.217456
0.458381 0.327886 0.211063
0.582254 0.3196 0.202884
0.714336 0.309636 0.193042
0.854185 0.2981 0.181659
1 0.285084 0.168841
0.0337072 0.438254 0.199893
0.119203 0.439963 0.201556
0.216098 0.439139 0.200732
0.323278 0.436072 0.197696
0.439841 0.431006 0.192676
0.565133 0.424079 0.185855
0.698604 0.415457 0.177356
0.839811 0.405249 0.1673
0.988373 0.393545 0.155795
0.00520333 0.543999 0.172961
0.0926223 0.54696 0.17583
0.191119 0.547448 0.176287
0.299763 0.545693 0.174548
0.417762 0.541909 0.170825
0.544427 0.536294 0.16527
0.679225 0.528939 0.158053
0.821744 0.519997 0.149264
0.971588 0.509529 0.13901
0 0.657618 0.143404
0.0628367 0.66157 0.147219
0.162936 0.663264 0.148852
0.273045 0.66276 0.148318
0.392416 0.660212 0.145815
0.520409 0.655818 0.141482
0.656519 0.649683 0.13547
0.80029 0.641947 0.127886
0.951354 0.632685 0.118837
0 0.778378 0.111101
0.0299992 0.783413 0.115938
0.131762 0.786252 0.118669
0.243305 0.786908 0.11928
0.364034 0.78555 0.117922
0.493324 0.782315 0.114748
0.630686 0.777356 0.10988
0.775677 0.770764 0.103456
0.927962 0.762661 0.095552
0 0.905928 0.0762798
0 0.912215 0.0822766
0.0977188 0.916075 0.0859541
0.210727 0.917845 0.0876173
0.332784 0.917601 0.0873426
0.463355 0.915496 0.0852674
0.601938 0.911665 0.0815137
0.748135 0.906188 0.0762036
0.901579 0.899184 0.069398
0.105333 0.0996109 0.378058
0.183581 0.0951095 0.373556
0.273762 0.0881361 0.366552
0.374502 0.0790265 0.357412
0.484871 0.0680095 0.346349
0.60415 0.0552682 0.333547
0.731762 0.0409094 0.319142
0.867231 0.0250858 0.303258
1 0.0078584 0.285969
0.0936141 0.169146 0.366598
0.173846 0.166476 0.363928
0.265888 0.161288 0.358724
0.368429 0.153918 0.351339
0.480537 0.144594 0.342
0.601495 0.133486 0.330892
0.730755 0.12076 0.318151
0.867842 0.106493 0.303883
1 0.0908064 0.288212
0.0770886 0.249104 0.350484
0.159167 0.248081 0.349447
0.252964 0.244511 0.345892
0.357168 0.238727 0.340108
0.470893 0.230961 0.332341
0.593423 0.221393 0.322789
0.724208 0.210163 0.311574
0.862791 0.197375 0.298817
1 0.183139 0.284611
0.0563973 0.338491 0.330404
0.140276 0.338964 0.330877
0.235721 0.336889 0.328801
0.341527 0.33257 0.324498
0.456764 0.326268 0.318212
0.580789 0.318135 0.310094
0.713024 0.308324 0.300313
0.85301 0.296925 0.28896
1 0.284047 0.276158
0.0319524 0.436561 0.306828
0.117632 0.438407 0.308659
0.214679 0.43772 0.307973
0.321996 0.434806 0.305058
0.438712 0.429862 0.300145
0.564141 0.423087 0.2934
0.697749 0.414603 0.284947
0.839094 0.404532 0.274937
0.987793 0.39295 0.263447
0.00396735 0.542794 0.28014
0.0915389 0.545892 0.283192
0.190173 0.546502 0.283803
0.298955 0.544884 0.282185
0.417075 0.541238 0.278553
0.543877 0.535744 0.273091
0.678813 0.528527 0.265934
0.821454 0.519707 0.257176
0.971435 0.509392 0.246937
0 0.656886 0.250736
0.0622263 0.66096 0.254749
0.162448 0.662791 0.25655
0.272694 0.662394 0.256153
0.392187 0.659983 0.253742
0.520302 0.655711 0.2495
0.656519 0.649714 0.243565
0.800427 0.642084 0.236011
0.951629 0.632959 0.226978
0 0.778088 0.218509
0.0298314 0.783246 0.22356
0.131716 0.786206 0.226474
0.243397 0.786984 0.227222
0.364233 0.785748 0.225971
0.493645 0.782635 0.222889
0.631113 0.777798 0.218112
0.776226 0.771328 0.211719
0.928618 0.763348 0.20383
0 0.906096 0.183627
0 0.91249 0.189868
0.0981155 0.916457 0.193759
0.211231 0.918349 0.19559
0.33341 0.918227 0.195453
0.464088 0.916243 0.193469
0.602777 0.91252 0.189792
0.749081 0.907164 0.184512
0.902632 0.900282 0.177722
0.100298 0.0947127 0.495277
0.17879 0.0904097 0.490929
0.269184 0.0836194 0.484077
0.370138 0.0746929 0.475059
0.480705 0.063859 0.464103
0.600183 0.0512856 0.451392
0.727977 0.0371099 0.437064
0.86363 0.0214542 0.421225
1 0.0043946 0.403967
0.0892348 0.164889 0.484398
0.16968 0.162387 0.48188
0.261936 0.157366 0.476829
0.36466 0.150164 0.469551
0.476951 0.141009 0.460319
0.598077 0.130068 0.449302
0.727504 0.117494 0.436637
0.864759 0.103395 0.422431
1 0.0878614 0.40679
0.0733043 0.245441 0.468772
0.155596 0.244556 0.467903
0.249561 0.241138 0.464469
0.353948 0.235508 0.458808
0.467842 0.227909 0.451164
0.590539 0.218494 0.441688
0.721477 0.207416 0.430549
0.860212 0.194781 0.417853
1 0.180682 0.403693
0.0531624 0.335348 0.449119
0.13724 0.335973 0.449744
0.232853 0.334035 0.447807
0.338811 0.32987 0.443626
0.454215 0.323705 0.437446
0.578393 0.315724 0.429419
0.710765 0.30605 0.419715
0.850904 0.294789 0.408423
0.998428 0.282063 0.395651
0.0292363 0.433936 0.42591
0.115084 0.43592 0.427893
0.212299 0.43537 0.427344
0.319768 0.432578 0.424552
0.436622 0.427771 0.419745
0.562203 0.421134 0.413092
0.695964 0.412787 0.404715
0.837446 0.402853 0.394766
0.986267 0.391409 0.383307
0.00172427 0.540673 0.399512
0.0894789 0.543877 0.402731
0.188266 0.54461 0.403479
0.2972 0.54313 0.401984
0.415457 0.539605 0.398474
0.542382 0.534249 0.393103
0.677455 0.527153 0.386007
0.820233 0.518471 0.377325
0.970336 0.508278 0.367132
0 0.655222 0.370352
0.0606241 0.659388 0.374533
0.160998 0.661341 0.376486
0.271366 0.661082 0.376211
0.390997 0.658793 0.373922
0.519234 0.654643 0.369772
0.655589 0.648768 0.363912
0.799603 0.641276 0.35642
0.950927 0.632258 0.347433
0 0.776852 0.338293
0.028687 0.782132 0.343526
0.130709 0.785199 0.346593
0.242496 0.786099 0.347478
0.363455 0.78497 0.346365
0.492988 0.781994 0.343374
0.630579 0.777264 0.338674
0.775814 0.770932 0.332341
0.928328 0.763058 0.324498
0 0.905287 0.303517
0 0.911788 0.309957
0.0975204 0.915877 0.314015
0.210758 0.917876 0.315999
0.333043 0.917861 0.315984
0.463844 0.915999 0.314107
0.602655 0.912383 0.310521
0.749065 0.907149 0.305318
0.902724 0.900374 0.298573
0.0943923 0.0889906 0.623682
0.173144 0.0848554 0.619501
0.263752 0.0782635 0.612802
0.36492 0.0695048 0.603922
0.475685 0.058854 0.593088
0.595346 0.0464485 0.580484
0.723339 0.0324407 0.566232
0.859159 0.0169528 0.550469
1 7.62951e-05 0.533257
0.0839857 0.159792 0.613413
0.16466 0.157458 0.611048
0.257115 0.15259 0.606134
0.360037 0.145556 0.598993
0.472496 0.136553 0.589883
0.59382 0.12578 0.578958
0.723415 0.113359 0.566369
0.860838 0.0994278 0.552239
1 0.0840467 0.53666
0.0686351 0.240909 0.598306
0.151141 0.240177 0.597574
0.245304 0.236912 0.594293
0.349859 0.231434 0.588754
0.46392 0.223972 0.581216
0.586786 0.21471 0.571832
0.717891 0.203784 0.560784
0.856779 0.191302 0.54815
1 0.177356 0.534051
0.0490425 0.331365 0.579095
0.133318 0.332113 0.579858
0.229114 0.330327 0.578073
0.335225 0.326299 0.574014
0.450797 0.320272 0.567941
0.575113 0.312428 0.560006
0.707652 0.302892 0.550378
0.847929 0.291783 0.539162
0.995605 0.279194 0.526452
0.0256199 0.430457 0.556268
0.111666 0.432563 0.558404
0.209049 0.432135 0.557992
0.31667 0.42948 0.555322
0.433677 0.424811 0.550622
0.559396 0.418311 0.54406
0.693294 0.410086 0.535775
0.834913 0.40029 0.525902
0.983886 0.388983 0.514504
0 0.537667 0.530221
0.0865339 0.540978 0.533578
0.185473 0.541848 0.534463
0.294545 0.54049 0.533089
0.412955 0.537102 0.529686
0.540017 0.531853 0.524422
0.675227 0.524895 0.517418
0.818128 0.51635 0.508797
0.968353 0.506279 0.498665
0 0.652674 0.501335
0.0581369 0.656962 0.505653
0.158648 0.659022 0.507744
0.269154 0.658885 0.507607
0.388922 0.656718 0.50544
0.517296 0.652689 0.501396
0.653773 0.646937 0.495613
0.797925 0.639567 0.488197
0.949355 0.630671 0.479271
0 0.774731 0.46949
0.026627 0.780118 0.474907
0.128786 0.783307 0.478111
0.240711 0.784314 0.479133
0.361807 0.783307 0.478126
0.491463 0.780438 0.475257
0.629175 0.775845 0.470634
0.774517 0.769619 0.464393
0.927153 0.761868 0.456611
0 0.903593 0.434897
0 0.910201 0.44152
0.096025 0.914397 0.445731
0.209384 0.916503 0.447852
0.331792 0.916609 0.447959
0.462699 0.914855 0.446204
0.601633 0.91136 0.442695
0.74815 0.906233 0.437568
0.90193 0.89958 0.4309
0.0876783 0.082475 0.762661
0.166674 0.0785229 0.758648
0.257527 0.0720989 0.752087
0.358892 0.0635233 0.743343
0.469871 0.0530404 0.732631
0.589715 0.0408026 0.720134
0.717876 0.026978 0.705989
0.853895 0.0116579 0.690303
0.99733 0 0.673152
0.0779126 0.153903 0.752987
0.158816 0.15172 0.750774
0.251469 0.147021 0.746014
0.354589 0.140139 0.73901
0.467247 0.131289 0.730007
0.588739 0.120684 0.719188
0.718502 0.108415 0.706706
0.856092 0.0946365 0.692653
1 0.079408 0.677134
0.0631418 0.235584 0.738399
0.145861 0.235004 0.737835
0.240223 0.231876 0.734676
0.344961 0.226551 0.729274
0.45919 0.219242 0.721843
0.582208 0.210117 0.712581
0.713481 0.199344 0.70161
0.852522 0.186999 0.689067
0.998978 0.173205 0.675029
0.0440833 0.326574 0.719646
0.128557 0.327443 0.720562
0.224537 0.325795 0.718914
0.330831 0.32192 0.714977
0.446555 0.31603 0.70901
0.571038 0.308324 0.701198
0.703716 0.298924 0.691661
0.844144 0.287953 0.680522
0.991958 0.275502 0.667887
0.021149 0.426169 0.69723
0.107408 0.428382 0.699519
0.204959 0.428092 0.699245
0.312749 0.425574 0.696696
0.429908 0.421042 0.692103
0.555764 0.414664 0.685649
0.689799 0.406577 0.677455
0.831571 0.396902 0.667659
0.980682 0.385733 0.656336
0 0.533852 0.67155
0.0827344 0.53727 0.675044
0.181857 0.538262 0.676066
0.291081 0.537026 0.674815
0.409628 0.533761 0.671534
0.536828 0.528649 0.666362
0.672175 0.521813 0.659449
0.815213 0.51339 0.650919
0.965576 0.503441 0.640848
0 0.649317 0.642985
0.0547951 0.653696 0.64744
0.155474 0.655879 0.649668
0.266117 0.655848 0.649668
0.386023 0.653803 0.647608
0.514519 0.649897 0.643656
0.651133 0.644266 0.637964
0.795407 0.637018 0.630655
0.946975 0.628244 0.62179
0 0.771801 0.611383
0.0237125 0.777295 0.616968
0.12604 0.780591 0.62031
0.238102 0.78172 0.621454
0.359319 0.780819 0.620569
0.489097 0.778073 0.617807
0.626932 0.773587 0.613275
0.772412 0.767468 0.607126
0.925155 0.759838 0.59942
0 0.901061 0.577005
0 0.90779 0.583825
0.0936904 0.912093 0.588174
0.207172 0.914305 0.590417
0.329702 0.914519 0.590646
0.460731 0.912871 0.588998
0.599771 0.909483 0.585595
0.746426 0.904479 0.58056
0.900313 0.897932 0.573968
0.0801862 0.0752117 0.91165
0.159442 0.0714275 0.907805
0.250523 0.0651713 0.901396
0.352102 0.0567788 0.89279
0.463279 0.0464637 0.882216
0.583322 0.0344091 0.869825
0.711666 0.020737 0.855787
0.847852 0.0055848 0.840192
0.991455 0 0.823102
0.071046 0.14725 0.902586
0.152209 0.14522 0.900542
0.245075 0.140673 0.895903
0.348379 0.133959 0.889036
0.461219 0.125277 0.880156
0.582895 0.114809 0.869459
0.71284 0.102708 0.857069
0.850584 0.0890669 0.843107
0.995758 0.0740063 0.82768
0.0568551 0.229496 0.888533
0.139803 0.229053 0.888106
0.234363 0.226078 0.8851
0.339284 0.220905 0.87982
0.453696 0.213733 0.872511
0.576883 0.204761 0.863355
0.708309 0.194125 0.852491
0.847517 0.181918 0.840024
0.99411 0.168261 0.826078
0.0383307 0.321004 0.870253
0.123033 0.322011 0.871321
0.219196 0.3205 0.869795
0.325658 0.316747 0.865995
0.44155 0.311009 0.860151
0.566186 0.303441 0.85243
0.699016 0.294179 0.842985
0.839597 0.283345 0.831937
0.987549 0.271015 0.819379
0.0158694 0.421103 0.848264
0.102373 0.423438 0.850675
0.200107 0.423285 0.850538
0.308049 0.42089 0.848127
0.425361 0.41648 0.843656
0.551369 0.410224 0.837293
0.685557 0.402274 0.829206
0.827451 0.392737 0.819486
0.976699 0.381689 0.80824
0 0.529274 0.822965
0.0781567 0.532799 0.826581
0.177447 0.533898 0.827741
0.286824 0.532784 0.826627
0.405524 0.529641 0.823453
0.53286 0.524651 0.818387
0.668345 0.517952 0.811566
0.811521 0.509636 0.803128
0.962005 0.499825 0.793133
0 0.645182 0.79472
0.0506447 0.649653 0.799313
0.151507 0.651957 0.801678
0.262303 0.652049 0.801801
0.38233 0.650111 0.799847
0.510979 0.646326 0.796017
0.647715 0.640818 0.790433
0.792111 0.633677 0.783185
0.943801 0.625025 0.774411
0 0.768063 0.763394
0.0199893 0.773693 0.769146
0.122484 0.777081 0.772625
0.234684 0.778317 0.773892
0.356039 0.777539 0.773129
0.485954 0.774899 0.770474
0.623911 0.770535 0.766049
0.769512 0.764538 0.759976
0.922377 0.757015 0.752346
0 0.897734 0.729274
0 0.904601 0.736278
0.090547 0.908995 0.740749
0.204166 0.911315 0.74313
0.326818 0.911635 0.743481
0.457969 0.910094 0.741939
0.597131 0.906828 0.738643
0.743893 0.90193 0.733684
0.897902 0.895491 0.727169
0.0719463 0.0672465 1
0.151476 0.0636301 1
0.242786 0.0575418 1
0.344594 0.0493172 1
0.455955 0.0391699 1
0.576196 0.0272831 1
0.704723 0.0137789 1
0.841077 0 0.999664
0.984817 0 0.982635
0.063447 0.139895 1
0.144854 0.138003 1
0.237934 0.133623 1
0.341451 0.127047 1
0.454475 0.118517 1
0.576318 0.108217 1
0.706432 0.0962539 1
0.844358 0.0827802 1
0.989685 0.0678569 0.987823
0.0498207 0.22269 1
0.133013 0.222385 1
0.227771 0.219547 1
0.332876 0.214511 1
0.447456 0.207492 1
0.570825 0.198672 1
0.702403 0.188174 1
0.841764 0.17612 1
0.988525 0.1626 0.986725
0.0317998 0.314733 1
0.116747 0.315862 1
0.213107 0.314473 1
0.319753 0.310857 1
0.435798 0.305257 1
0.560601 0.29781 1
0.693584 0.288685 1
0.834318 0.277989 0.992966
0.982406 0.265797 0.980484
0.00982681 0.41532 1
0.0965744 0.417762 1
0.194491 0.417731 1
0.302602 0.415457 1
0.420081 0.411185 1
0.546242 0.405066 0.99855
0.680568 0.397238 0.990555
0.822599 0.387823 0.980926
0.971984 0.376913 0.969772
0 0.523995 0.984009
0.0728313 0.527581 0.987732
0.17229 0.528801 0.989013
0.281834 0.52781 0.988022
0.400671 0.524788 0.98497
0.528161 0.519921 0.980011
0.663783 0.513344 0.973297
0.80708 0.50515 0.96495
0.957702 0.495445 0.955047
0 0.640314 0.9561
0.0457465 0.644892 0.960815
0.146777 0.647288 0.963317
0.25774 0.647501 0.963546
0.377905 0.645685 0.96173
0.506691 0.642008 0.957992
0.643565 0.636606 0.952499
0.788083 0.629602 0.945357
0.93991 0.621073 0.93666
0 0.763607 0.925063
0.0154879 0.769345 0.930968
0.118181 0.772839 0.934569
0.230533 0.774182 0.935973
0.352026 0.77351 0.935317
0.482063 0.770993 0.932769
0.620142 0.766735 0.928435
0.765866 0.760845 0.922454
0.918853 0.753445 0.914916
0 0.893675 0.891218
0 0.900679 0.89839
0.0866255 0.90515 0.902983
0.200412 0.907576 0.905486
0.323201 0.908003 0.905959
0.454475 0.906584 0.904524
0.593759 0.90341 0.90132
0.740642 0.898634 0.896468
0.894759 0.892302 0.890028
