luts/Technicolor.cube
TITLE "Generated by Resolve"
LUT_3D_SIZE 33
0.114427 0.108461 0.103212
0.132586 0.107439 0.102205
0.151598 0.106249 0.101045
0.171405 0.104891 0.0997177
0.191989 0.103365 0.0982223
0.213306 0.101701 0.0965896
0.235355 0.0998703 0.0948196
0.258091 0.0979171 0.0929122
0.281514 0.0958114 0.0908522
0.305592 0.0935836 0.0886854
0.330312 0.0912184 0.0863813
0.355673 0.0887312 0.0839704
0.381628 0.0861219 0.0814221
0.408209 0.0834058 0.0787823
0.435355 0.0805524 0.0760204
0.463096 0.0776074 0.0731518
0.491402 0.0745403 0.0701762
0.520272 0.0713664 0.0671092
0.549676 0.0680858 0.0639353
0.579629 0.0647135 0.0606699
0.610101 0.0612192 0.0572976
0.641093 0.0576486 0.0538491
0.672602 0.0539712 0.0502937
0.704631 0.0501869 0.0466621
0.737148 0.0463111 0.0429389
0.770153 0.042359 0.0391394
0.803647 0.0383001 0.0352483
0.837613 0.034165 0.031281
0.872053 0.0299229 0.0272526
0.906966 0.0256046 0.0231327
0.942336 0.0211948 0.0189517
0.978149 0.0167086 0.0146944
1 0.0121309 0.0103761
0.111467 0.124285 0.100389
0.129778 0.1234 0.0995193
0.148913 0.122316 0.0984665
0.168856 0.12108 0.097261
0.189563 0.119692 0.0958877
0.211017 0.118135 0.094377
0.233188 0.116442 0.0927138
0.256046 0.114595 0.0909285
0.279591 0.112612 0.0889906
0.303792 0.110491 0.0869306
0.328634 0.108248 0.0847486
0.354101 0.105882 0.0824445
0.380194 0.103395 0.0800183
0.406882 0.100771 0.0774853
0.43415 0.0980545 0.0748302
0.462013 0.095201 0.0720836
0.490425 0.092256 0.0692149
0.519402 0.089189 0.0662547
0.548928 0.0860304 0.0631876
0.578988 0.0827497 0.060029
0.609567 0.0793774 0.0567788
0.640681 0.0758984 0.0534218
0.672297 0.0723278 0.0499733
0.704417 0.0686656 0.0464485
0.737041 0.0648966 0.0428321
0.770169 0.0610361 0.0391394
0.803769 0.057084 0.0353552
0.837842 0.0530404 0.0314946
0.872389 0.0489204 0.0275425
0.907408 0.0446937 0.0235294
0.942885 0.0403906 0.0194553
0.978805 0.0360113 0.0152895
1 0.0315251 0.0110628
0.108186 0.140841 0.097261
0.126619 0.140078 0.0964981
0.145892 0.139116 0.0955673
0.165957 0.138003 0.0944839
0.186801 0.136721 0.0932326
0.208377 0.135286 0.0918288
0.230671 0.1337 0.0902876
0.253651 0.131975 0.0885939
0.277317 0.130114 0.0867781
0.301625 0.128115 0.0848402
0.326589 0.125978 0.0827649
0.352178 0.12372 0.0805676
0.378378 0.12134 0.0782635
0.405188 0.118837 0.0758373
0.432578 0.116228 0.0732891
0.460533 0.113497 0.0706493
0.489067 0.110643 0.0678874
0.518151 0.107698 0.0650339
0.547784 0.104631 0.0620737
0.577951 0.101472 0.0590219
0.608652 0.0982071 0.0558633
0.639872 0.0948348 0.0526131
0.671595 0.0913558 0.0492866
0.703822 0.0878004 0.0458534
0.736553 0.0841382 0.0423438
0.769772 0.0803845 0.0387427
0.803479 0.0765393 0.0350652
0.837659 0.0726024 0.0312963
0.872312 0.068574 0.027451
0.907439 0.0644541 0.0235447
0.943008 0.0602426 0.0195468
0.979049 0.0559548 0.0154879
1 0.0515755 0.011368
0.104585 0.158099 0.0938277
0.123156 0.157443 0.0931868
0.14255 0.156619 0.0923629
0.162753 0.155612 0.0913863
0.183703 0.154452 0.0902571
0.205402 0.153124 0.0889601
0.227817 0.151659 0.0875257
0.250919 0.150042 0.0859541
0.274693 0.148287 0.0842451
0.299138 0.146395 0.082414
0.324208 0.144381 0.0804456
0.34992 0.142229 0.0783703
0.376226 0.139956 0.0761578
0.403143 0.13756 0.0738384
0.43064 0.135058 0.0714122
0.458717 0.132433 0.068864
0.487358 0.129686 0.0662242
0.516548 0.126848 0.0634623
0.546288 0.123888 0.0606088
0.576562 0.120836 0.0576638
0.60737 0.117662 0.054612
0.638697 0.114397 0.0514687
0.670527 0.11104 0.0482338
0.702861 0.107576 0.0449073
0.735698 0.104021 0.0414893
0.769009 0.100359 0.0379797
0.802823 0.0966049 0.0344091
0.83711 0.0927749 0.0307317
0.871855 0.088838 0.0269932
0.907073 0.0848249 0.0231785
0.942763 0.0807202 0.0192874
0.978897 0.076524 0.0153201
1 0.0722515 0.0112917
0.100679 0.176043 0.0901198
0.119371 0.175494 0.0895857
0.138903 0.174777 0.0888838
0.159228 0.173892 0.088014
0.180301 0.172839 0.0869764
0.202121 0.171633 0.0858015
0.224643 0.17026 0.0844739
0.247868 0.168765 0.0830091
0.271763 0.167117 0.0814221
0.296315 0.165331 0.0796826
0.321508 0.163424 0.077821
0.347326 0.161379 0.0758526
0.373754 0.159213 0.0737469
0.400778 0.156939 0.0715343
0.428382 0.154528 0.0691997
0.456565 0.15201 0.0667582
0.485313 0.149371 0.0642252
0.514611 0.146624 0.0615702
0.544457 0.143771 0.0588083
0.574838 0.140826 0.0559701
0.605737 0.137758 0.0530098
0.637171 0.1346 0.0499733
0.669108 0.131334 0.0468299
0.701534 0.127962 0.0436103
0.734478 0.124514 0.0402838
0.767895 0.120958 0.0368811
0.801801 0.117296 0.033402
0.836194 0.113558 0.0298314
0.871046 0.109728 0.0261845
0.906355 0.105806 0.0224613
0.942138 0.101793 0.0186618
0.978363 0.0977035 0.014786
1 0.0935225 0.0108492
0.0964981 0.194629 0.0861372
0.115312 0.194202 0.0857252
0.134966 0.193591 0.0851148
0.155398 0.192813 0.0843519
0.176608 0.191867 0.0834363
0.198535 0.190768 0.0823682
0.22118 0.189517 0.0811475
0.244526 0.188113 0.0797894
0.268528 0.186587 0.078294
0.293187 0.184909 0.0766613
0.318486 0.183093 0.0749065
0.344411 0.18117 0.0730297
0.370947 0.17911 0.0710307
0.398077 0.176928 0.068925
0.425803 0.174624 0.0666972
0.454093 0.172198 0.0643626
0.482948 0.169665 0.0619059
0.512352 0.167025 0.0593576
0.54229 0.164279 0.0567025
0.572778 0.161425 0.0539559
0.603784 0.158465 0.0511025
0.635309 0.155398 0.0481575
0.667353 0.152224 0.0451209
0.699886 0.148959 0.0419928
0.732921 0.145602 0.0387732
0.766445 0.142138 0.035462
0.800443 0.138598 0.0320745
0.834928 0.134951 0.0285954
0.869886 0.131212 0.0250401
0.905303 0.127382 0.0214084
0.941176 0.123476 0.0177005
0.977493 0.119463 0.0139315
1 0.115373 0.010071
0.0920272 0.21387 0.0819104
0.110979 0.21355 0.08159
0.130755 0.213046 0.0811017
0.151308 0.212375 0.0804456
0.172625 0.211536 0.0796216
0.194675 0.210544 0.078645
0.217426 0.2094 0.0775311
0.240879 0.208103 0.0762798
0.265003 0.206668 0.074876
0.289769 0.205097 0.0733654
0.31519 0.203387 0.0717021
0.341222 0.201556 0.0699321
0.367864 0.199603 0.0680247
0.395102 0.197513 0.0660258
0.422919 0.195315 0.0638895
0.451316 0.192996 0.0616464
0.480262 0.19057 0.0593118
0.509773 0.188022 0.0568551
0.539818 0.185382 0.0542916
0.570413 0.18262 0.0516365
0.601511 0.179751 0.0488899
0.633143 0.176791 0.0460365
0.665278 0.173724 0.0430915
0.697917 0.17055 0.0400549
0.731044 0.167285 0.0369421
0.76466 0.163928 0.0337224
0.798764 0.160464 0.0304265
0.833341 0.156909 0.027039
0.868391 0.153277 0.0235904
0.903899 0.149538 0.0200504
0.939864 0.145724 0.016434
0.976287 0.141817 0.0127413
1 0.137819 0.00898756
0.0872969 0.233722 0.0774395
0.106371 0.233509 0.0772259
0.126253 0.233112 0.0768292
0.146929 0.232547 0.0762646
0.168368 0.231815 0.0755474
0.190524 0.230915 0.0746777
0.213397 0.229877 0.0736553
0.236957 0.228687 0.0725109
0.261189 0.227359 0.0712139
0.286076 0.225879 0.0697795
0.311589 0.224277 0.0682383
0.337728 0.222553 0.0665599
0.364477 0.220691 0.0647593
0.391821 0.218708 0.0628367
0.419745 0.216602 0.0608072
0.448234 0.214389 0.0586709
0.477302 0.212055 0.0564126
0.506905 0.209613 0.0540627
0.537057 0.207065 0.051606
0.567742 0.204395 0.0490425
0.598947 0.201633 0.0463874
0.630671 0.198749 0.0436255
0.662898 0.195789 0.0407721
0.695628 0.192706 0.0378424
0.728862 0.189532 0.0348058
0.762585 0.186267 0.031693
0.79678 0.18291 0.0284886
0.831449 0.179446 0.0251926
0.86659 0.175906 0.0218204
0.90219 0.172259 0.0183719
0.938247 0.168536 0.0148623
0.974762 0.164721 0.0112612
1 0.160815 0.00758373
0.0823224 0.2542 0.0727245
0.101503 0.254078 0.0726024
0.121508 0.253788 0.0723125
0.142306 0.253315 0.0718547
0.163851 0.252689 0.0712291
0.18613 0.251896 0.0704662
0.20911 0.25095 0.0695354
0.232776 0.249866 0.0684825
0.257115 0.248631 0.0672923
0.282109 0.247257 0.0659495
0.307729 0.245762 0.0644999
0.333974 0.244129 0.0629129
0.360815 0.242359 0.0612192
0.388266 0.240482 0.0594034
0.416281 0.238483 0.0574655
0.444892 0.236362 0.0554208
0.474037 0.234119 0.053254
0.503746 0.231769 0.0509957
0.534005 0.229313 0.0486305
0.564782 0.226749 0.0461738
0.596078 0.224063 0.043595
0.627909 0.221286 0.04094
0.660227 0.218418 0.0381781
0.693065 0.215442 0.0353399
0.72639 0.21236 0.0323949
0.760189 0.209186 0.0293736
0.794491 0.205905 0.0262608
0.829252 0.202548 0.0230564
0.864485 0.199084 0.0197757
0.900175 0.195544 0.0164187
0.936339 0.191897 0.0129854
0.972946 0.188174 0.00947585
1 0.18436 0.00590524
0.0770733 0.275257 0.0677958
0.0963912 0.275242 0.0677653
0.116518 0.275044 0.0675669
0.137423 0.274678 0.0672007
0.159075 0.274144 0.0666819
0.18146 0.273457 0.0659953
0.204547 0.272618 0.0651713
0.228336 0.271626 0.06421
0.252781 0.270481 0.0631113
0.277867 0.269215 0.0618753
0.303593 0.267811 0.0605173
0.329946 0.26627 0.0590372
0.356893 0.264607 0.0574197
0.384436 0.262821 0.0556954
0.412558 0.260914 0.0538491
0.44126 0.258885 0.0519112
0.470512 0.256748 0.049836
0.500328 0.25449 0.0476692
0.530663 0.252125 0.0453956
0.561547 0.249653 0.0430304
0.59295 0.247074 0.0405585
0.624857 0.244388 0.0379797
0.657282 0.241596 0.0353094
0.690211 0.238712 0.0325628
0.723629 0.235721 0.0297093
0.757534 0.232639 0.0267796
0.791913 0.229465 0.023743
0.826764 0.226184 0.0206455
0.862089 0.222812 0.0174563
0.897871 0.219364 0.0141909
0.934127 0.215808 0.0108339
0.97081 0.212177 0.00741588
1 0.208438 0.00393683
0.0715953 0.29691 0.0626383
0.0910201 0.296986 0.0626993
0.111269 0.296895 0.0625925
0.13228 0.29662 0.0623178
0.154055 0.296193 0.0618906
0.176547 0.295598 0.0613107
0.199756 0.29485 0.0605783
0.223636 0.29395 0.0597086
0.248188 0.292912 0.0587015
0.273381 0.291737 0.057557
0.299214 0.290425 0.0562905
0.325658 0.288975 0.054902
0.352712 0.287404 0.0533913
0.380346 0.28571 0.0517586
0.408576 0.283909 0.0500038
0.437369 0.281971 0.0481422
0.466728 0.279927 0.0461738
0.496635 0.27776 0.0440986
0.527077 0.275486 0.0419165
0.558038 0.273106 0.0396277
0.589532 0.270619 0.0372473
0.621546 0.268025 0.0347601
0.654063 0.265324 0.0321965
0.687083 0.262531 0.0295262
0.720592 0.259632 0.0267643
0.754589 0.256641 0.0239109
0.789059 0.253544 0.0209812
0.824002 0.250355 0.0179599
0.859419 0.247074 0.0148623
0.895293 0.243717 0.0116884
0.931624 0.240253 0.00842298
0.968414 0.236698 0.00509651
1 0.233051 0.00169375
0.0658732 0.319127 0.0572671
0.08542 0.31931 0.0574197
0.105776 0.319295 0.0574044
0.126909 0.319127 0.0572213
0.148791 0.318776 0.0568856
0.171389 0.318288 0.0563973
0.194705 0.317632 0.0557565
0.218692 0.316823 0.0549783
0.243336 0.315892 0.0540627
0.268635 0.314809 0.0530098
0.294575 0.313588 0.0518349
0.321126 0.31223 0.0505379
0.348272 0.310765 0.0491035
0.376013 0.309163 0.0475624
0.404334 0.307439 0.0459144
0.433234 0.305592 0.0441444
0.462684 0.303639 0.0422522
0.492683 0.301564 0.0402686
0.523217 0.299382 0.0381781
0.554284 0.297093 0.0359808
0.58587 0.294697 0.0336919
0.617975 0.292195 0.0312963
0.650584 0.289586 0.028809
0.68368 0.28687 0.0262303
0.717281 0.284062 0.0235599
0.751369 0.281163 0.020798
0.785931 0.278157 0.0179599
0.820966 0.275059 0.0150301
0.856474 0.27187 0.0120089
0.892439 0.268589 0.00892653
0.928862 0.265202 0.00575265
0.965728 0.261738 0.00251774
1 0.258183 0
0.0599222 0.341909 0.0516976
0.0795911 0.342168 0.0519417
0.100053 0.34226 0.052018
0.121309 0.342184 0.0519265
0.143297 0.341924 0.051667
0.166003 0.341527 0.0512703
0.189425 0.340963 0.050721
0.213504 0.340261 0.0500343
0.23827 0.339406 0.0492103
0.263661 0.338415 0.048249
0.289693 0.337285 0.0471656
0.31635 0.336034 0.0459449
0.343603 0.334646 0.0446021
0.371435 0.333135 0.0431525
0.399863 0.331502 0.0415808
0.42884 0.329747 0.0399023
0.458381 0.327886 0.038117
0.488472 0.325902 0.0362097
0.519112 0.323812 0.0342107
0.550271 0.321614 0.032105
0.581949 0.319295 0.0298924
0.614145 0.316884 0.0275883
0.646845 0.314366 0.0251926
0.680034 0.311742 0.0227054
0.713726 0.309026 0.0201267
0.747906 0.306203 0.0174411
0.782559 0.303288 0.0146944
0.81767 0.300282 0.011841
0.853269 0.297169 0.00892653
0.889326 0.293965 0.0059205
0.925826 0.290684 0.00283818
0.962783 0.287297 0
1 0.283833 0
0.053727 0.365225 0.0459297
0.073518 0.365591 0.0462654
0.0941176 0.365774 0.0464179
0.115465 0.365774 0.0464179
0.137575 0.365621 0.0462501
0.160388 0.365301 0.0459297
0.183902 0.364828 0.0454719
0.208103 0.364218 0.0448768
0.232959 0.363455 0.0441291
0.258457 0.362554 0.0432593
0.284581 0.361517 0.0422675
0.31133 0.360357 0.0411383
0.338674 0.35906 0.0398871
0.366613 0.357641 0.038529
0.395132 0.3561 0.0370336
0.424216 0.354437 0.0354467
0.453849 0.352651 0.0337377
0.484031 0.350759 0.0319219
0.514763 0.34876 0.0300145
0.546014 0.346639 0.0280003
0.577783 0.344427 0.0258793
0.610071 0.342092 0.0236515
0.642847 0.339666 0.0213474
0.676143 0.337118 0.0189364
0.709911 0.334493 0.0164492
0.744183 0.331762 0.0138552
0.778912 0.328923 0.0111849
0.81413 0.325994 0.00842298
0.849805 0.322972 0.0055848
0.885939 0.31986 0.00267033
0.92253 0.316655 0
0.959579 0.313359 0
0.99707 0.309972 0
0.0473182 0.38909 0.0399786
0.0672313 0.389532 0.0403906
0.0879377 0.389807 0.0406348
0.109407 0.389899 0.0407111
0.131624 0.389838 0.0406348
0.154543 0.389609 0.0404059
0.178164 0.389227 0.0400244
0.202457 0.388708 0.0395056
0.22742 0.388037 0.0388495
0.253025 0.387228 0.0380713
0.279255 0.386282 0.0371557
0.306096 0.385199 0.0361181
0.333532 0.383993 0.0349584
0.361563 0.382666 0.0336767
0.390173 0.381201 0.0322728
0.419348 0.379629 0.0307622
0.449073 0.377935 0.0291447
0.479362 0.376135 0.0274205
0.51017 0.374212 0.0255894
0.541512 0.372183 0.0236667
0.573373 0.370047 0.021622
0.605753 0.367803 0.019501
0.638621 0.365454 0.0172732
0.671992 0.363012 0.0149538
0.705867 0.360464 0.0125429
0.740215 0.357809 0.0100404
0.775036 0.355062 0.0074464
0.81033 0.352224 0.00477607
0.846098 0.349279 0.00202945
0.882322 0.346258 0
0.919005 0.34313 0
0.95613 0.33991 0
0.993698 0.336614 0
0.0406958 0.413489 0.0338445
0.0607309 0.414023 0.0343328
0.0815595 0.414374 0.0346532
0.103136 0.414557 0.0348211
0.125444 0.414572 0.0348211
0.148486 0.414435 0.0346685
0.172198 0.414145 0.0343786
0.196597 0.413703 0.0339513
0.221668 0.413123 0.0333715
0.247364 0.412406 0.0326696
0.273686 0.411551 0.0318456
0.300618 0.410559 0.0308843
0.328161 0.40943 0.0298161
0.356283 0.408179 0.0286107
0.384985 0.406821 0.0273136
0.414252 0.405325 0.0258793
0.444083 0.403723 0.0243534
0.474449 0.401999 0.0227054
0.505348 0.400168 0.0209659
0.536782 0.39823 0.0191043
0.568734 0.39617 0.0171664
0.60119 0.394018 0.0151217
0.634165 0.39176 0.0129702
0.667628 0.389395 0.0107424
0.701579 0.386923 0.00840772
0.736004 0.38436 0.0059968
0.770916 0.381689 0.00349432
0.806302 0.378943 0.000900282
0.842145 0.376074 0
0.878462 0.373129 0
0.915221 0.370092 0
0.952422 0.366964 0
0.990082 0.363729 0
0.0338445 0.438407 0.0275425
0.0540017 0.439017 0.0281071
0.0749523 0.43946 0.0285039
0.0966354 0.439719 0.0287327
0.119066 0.439826 0.0288243
0.142199 0.43978 0.028748
0.166033 0.439582 0.0285496
0.190524 0.439216 0.0281987
0.215686 0.438727 0.0277104
0.241489 0.438087 0.0270848
0.267903 0.437308 0.0263371
0.294942 0.436408 0.0254673
0.322576 0.43537 0.0244755
0.35079 0.434211 0.0233616
0.379583 0.432929 0.0221408
0.408942 0.431525 0.020798
0.438849 0.430014 0.0193484
0.469306 0.428367 0.017792
0.500313 0.426627 0.0161288
0.531823 0.424765 0.0143587
0.563867 0.422797 0.0124971
0.596414 0.420722 0.0105287
0.629465 0.41854 0.00846876
0.66302 0.416266 0.00631724
0.697047 0.41387 0.00407416
0.731563 0.411399 0.00173953
0.766567 0.408804 0
0.802029 0.406134 0
0.837964 0.403357 0
0.874357 0.400488 0
0.911192 0.397528 0
0.948486 0.394476 0
0.986221 0.391333 0
0.0267796 0.463828 0.0210574
0.0470741 0.46453 0.0216983
0.0681315 0.465049 0.0221714
0.0899367 0.4654 0.0224918
0.112474 0.465599 0.0226444
0.135714 0.465629 0.0226596
0.15964 0.465507 0.0225223
0.184237 0.465232 0.0222629
0.209491 0.46482 0.0218509
0.235386 0.464271 0.0213169
0.261906 0.463584 0.0206455
0.289036 0.46276 0.019852
0.316762 0.461814 0.0189364
0.345083 0.460731 0.0179141
0.373968 0.459541 0.0167697
0.403403 0.458213 0.0155032
0.433417 0.456779 0.0141451
0.463966 0.455222 0.012665
0.495033 0.453559 0.0110781
0.52665 0.451789 0.00939956
0.55877 0.449897 0.00761425
0.591409 0.447913 0.00573739
0.624552 0.445808 0.00376898
0.658183 0.44361 0.00169375
0.692302 0.441306 0
0.726909 0.438911 0
0.76199 0.436408 0
0.797528 0.433814 0
0.833555 0.431113 0
0.870024 0.428321 0
0.906935 0.425437 0
0.94432 0.422477 0
0.982132 0.419409 0
0.019501 0.489769 0.014435
0.0399176 0.490532 0.0151369
0.0610971 0.491142 0.015671
0.0830243 0.491569 0.0160678
0.105669 0.491844 0.0162966
0.129015 0.491966 0.0163882
0.153048 0.49192 0.0163424
0.177752 0.491737 0.016144
0.203098 0.491417 0.0158236
0.229084 0.490944 0.0153506
0.255695 0.490333 0.0147707
0.282933 0.489601 0.0140536
0.31075 0.488731 0.0132296
0.339147 0.487739 0.0122835
0.368124 0.486625 0.0112154
0.397665 0.48539 0.0100404
0.427756 0.484031 0.00874342
0.458396 0.482567 0.00735485
0.489555 0.48098 0.00585946
0.521248 0.479286 0.00425727
0.55346 0.477485 0.00254826
0.586191 0.475563 0.000762951
0.61941 0.473548 0
0.653117 0.471427 0
0.687327 0.469215 0
0.722011 0.466896 0
0.757183 0.464469 0
0.792813 0.461952 0
0.828901 0.459342 0
0.865461 0.456626 0
0.902464 0.453819 0
0.93991 0.450919 0
0.977798 0.447929 0
0.0119936 0.516197 0.00766003
0.0325628 0.517037 0.00840772
0.0538643 0.517723 0.00901808
0.0758984 0.518242 0.00949111
0.0986648 0.518593 0.00979629
0.122103 0.518791 0.00996414
0.146242 0.518837 0.0099794
0.171038 0.51873 0.00985733
0.19649 0.518486 0.00961318
0.222583 0.518105 0.00923171
0.249287 0.517571 0.00872816
0.2766 0.516915 0.00808728
0.304524 0.516136 0.00733959
0.333013 0.515221 0.00646983
0.362081 0.514199 0.00547799
0.391699 0.513039 0.00437934
0.421881 0.511757 0.00317388
0.452613 0.510369 0.0018616
0.483864 0.508873 0.000442512
0.515648 0.507256 0
0.547936 0.505531 0
0.580743 0.5037 0
0.614054 0.501762 0
0.647852 0.499718 0
0.682139 0.497581 0
0.716915 0.495338 0
0.752163 0.493004 0
0.787869 0.490562 0
0.824048 0.488014 0
0.86067 0.48539 0
0.897749 0.482658 0
0.935271 0.479835 0
0.973251 0.476921 0
0.00427253 0.54313 0.000747692
0.0249943 0.54403 0.00155642
0.0464332 0.544793 0.00222782
0.0685893 0.545388 0.00276188
0.0914473 0.545815 0.0031281
0.115007 0.546105 0.00337224
0.139239 0.546227 0.0034638
0.164141 0.546197 0.00341802
0.189685 0.546044 0.00325017
0.215869 0.545739 0.00294499
0.242679 0.545296 0.00250248
0.270085 0.544717 0.00195315
0.298085 0.544015 0.00128176
0.326665 0.543175 0.000488289
0.355825 0.542229 0
0.38555 0.541146 0
0.415808 0.539956 0
0.446616 0.538643 0
0.477958 0.537224 0
0.509819 0.535698 0
0.542214 0.534051 0
0.575097 0.532296 0
0.608484 0.530434 0
0.642374 0.528481 0
0.676738 0.526406 0
0.711589 0.524239 0
0.746914 0.521981 0
0.782712 0.519615 0
0.818967 0.517159 0
0.855665 0.514595 0
0.892821 0.51194 0
0.930434 0.509194 0
0.96849 0.506371 0
0 0.570535 0
0.0172122 0.571511 0
0.0387884 0.572335 0
0.0610666 0.573007 0
0.0840314 0.573526 0
0.107698 0.573877 0
0.132036 0.57409 0
0.157046 0.574136 0
0.182681 0.57406 0
0.208972 0.573831 0
0.235859 0.573465 0
0.263355 0.572976 0
0.291447 0.572351 0
0.320134 0.571603 0
0.349371 0.570733 0
0.379171 0.569726 0
0.409537 0.568612 0
0.440421 0.567391 0
0.471855 0.566033 0
0.503807 0.564584 0
0.536263 0.563012 0
0.569238 0.561349 0
0.602716 0.559564 0
0.636683 0.557687 0
0.671122 0.555688 0
0.706065 0.553597 0
0.741466 0.551415 0
0.777325 0.549126 0
0.813657 0.546731 0
0.850446 0.544259 0
0.887694 0.54168 0
0.925383 0.539025 0
0.963516 0.536263 0
0 0.598428 0
0.00921645 0.599466 0
0.03093 0.600366 0
0.0533303 0.601099 0
0.0764324 0.601694 0
0.100206 0.602121 0
0.124636 0.602411 0
0.149737 0.602548 0
0.175479 0.602533 0
0.201862 0.602396 0
0.228855 0.602106 0
0.256443 0.601694 0
0.284627 0.601144 0
0.31339 0.600473 0
0.342718 0.59968 0
0.37261 0.598764 0
0.403052 0.597726 0
0.434028 0.596582 0
0.465537 0.595315 0
0.497581 0.593927 0
0.530129 0.592447 0
0.56318 0.590845 0
0.596735 0.589136 0
0.630777 0.587335 0
0.665309 0.585412 0
0.700313 0.583398 0
0.73579 0.581277 0
0.77174 0.579065 0
0.808164 0.576761 0
0.845029 0.574365 0
0.882353 0.571878 0
0.920134 0.569284 0
0.958343 0.566613 0
0 0.626841 0
0.000991836 0.627878 0
0.0228733 0.62884 0
0.0454108 0.629664 0
0.0686198 0.63032 0
0.0925002 0.630838 0
0.117052 0.631189 0
0.142245 0.631403 0
0.168093 0.631479 0
0.194553 0.631403 0
0.221637 0.631205 0
0.249317 0.630869 0
0.277592 0.630396 0
0.306447 0.629801 0
0.335866 0.629084 0
0.36585 0.628244 0
0.396368 0.627283 0
0.427436 0.626215 0
0.459037 0.625025 0
0.491142 0.623713 0
0.523781 0.622293 0
0.556909 0.620783 0
0.590539 0.61915 0
0.624659 0.617411 0
0.659281 0.615579 0
0.694362 0.613642 0
0.729931 0.611597 0
0.765972 0.609476 0
0.802457 0.607248 0
0.839414 0.604929 0
0.876829 0.602502 0
0.914672 0.6 0
0.952972 0.597406 0
0 0.65568 0
0 0.656748 0
0.0146029 0.657771 0
0.0372625 0.658656 0
0.0605936 0.659388 0
0.084596 0.659983 0
0.109239 0.66041 0
0.134554 0.660716 0
0.160494 0.660853 0
0.18706 0.660868 0
0.214237 0.660746 0
0.242008 0.660487 0
0.270375 0.66009 0
0.299306 0.659571 0
0.328817 0.65893 0
0.358877 0.658167 0
0.389487 0.657282 0
0.42063 0.656275 0
0.452308 0.655161 0
0.484504 0.653925 0
0.51722 0.652598 0
0.550439 0.651148 0
0.584161 0.649592 0
0.618372 0.647944 0
0.653056 0.646189 0
0.688243 0.644327 0
0.723888 0.642374 0
0.759991 0.640314 0
0.796567 0.638163 0
0.8336 0.63592 0
0.871092 0.633585 0
0.909026 0.631144 0
0.947387 0.628626 0
0 0.684977 0
0 0.686122 0
0.00613413 0.687175 0
0.0289464 0.688121 0
0.0523995 0.68893 0
0.0765087 0.689586 0
0.101259 0.690089 0
0.126665 0.690455 0
0.152697 0.690684 0
0.179355 0.690761 0
0.206622 0.690715 0
0.234501 0.690532 0
0.262943 0.690211 0
0.291981 0.689769 0
0.321569 0.689204 0
0.35172 0.688518 0
0.382422 0.687709 0
0.413657 0.686778 0
0.445411 0.68574 0
0.477699 0.684596 0
0.510491 0.683345 0
0.543801 0.681971 0
0.5776 0.680491 0
0.611887 0.67892 0
0.646662 0.677241 0
0.68191 0.675456 0
0.717647 0.673564 0
0.753841 0.671595 0
0.790494 0.66952 0
0.827604 0.667338 0
0.865171 0.66508 0
0.903166 0.66273 0
0.941619 0.660273 0
0 0.714702 0
0 0.716014 0
0 0.717052 0
0.0204471 0.718059 0
0.0440223 0.718929 0
0.0682383 0.719646 0
0.0931106 0.720226 0
0.118608 0.720668 0
0.144747 0.720958 0
0.171496 0.721126 0
0.198856 0.721141 0
0.22681 0.721035 0
0.25536 0.72079 0
0.284474 0.720424 0
0.314153 0.719936 0
0.344396 0.719326 0
0.375174 0.718593 0
0.4065 0.717739 0
0.438346 0.716777 0
0.47071 0.715709 0
0.503578 0.714519 0
0.536965 0.713222 0
0.570855 0.711833 0
0.605219 0.710323 0
0.64007 0.708721 0
0.67541 0.707012 0
0.711223 0.705211 0
0.747494 0.703304 0
0.784222 0.701289 0
0.821408 0.699199 0
0.859052 0.697002 0
0.897124 0.694728 0
0.935653 0.692348 0
0 0.744869 0
0 0.746303 0
0 0.747387 0
0.0117494 0.74844 0
0.035462 0.749371 0
0.0598001 0.750164 0
0.0847791 0.75082 0
0.110384 0.751324 0
0.136614 0.75169 0
