luts/Thermal.cube
#Created by: Adobe Photoshop Export Color Lookup Plugin
TITLE "THERMAL"
#LUT size
LUT_3D_SIZE 33
#data domain
DOMAIN_MIN 0.0 0.0 0.0
DOMAIN_MAX 1.0 1.0 1.0
#LUT data points
0.016663 0.016693 0.223541
0.024445 0.017883 0.239838
0.038635 0.019653 0.264252
0.055756 0.021423 0.291382
0.074280 0.023071 0.321381
0.092712 0.024506 0.351868
0.111298 0.025482 0.382812
0.130005 0.026062 0.414276
0.147461 0.025726 0.444275
0.165436 0.019592 0.480621
0.183197 0.007385 0.520477
0.201233 0.000000 0.561066
0.219940 0.000000 0.599609
0.238068 0.000000 0.630432
0.257233 0.000000 0.647980
0.274750 0.008789 0.661469
0.292542 0.048584 0.660919
0.311249 0.086731 0.649902
0.329834 0.115662 0.632294
0.349304 0.139404 0.609222
0.368652 0.157928 0.583405
0.388428 0.172455 0.555511
0.408997 0.183868 0.525879
0.429352 0.192078 0.497223
0.450470 0.197968 0.469086
0.471130 0.201904 0.444092
0.492706 0.204193 0.419647
0.516357 0.204132 0.391754
0.540344 0.201630 0.362427
0.565216 0.196808 0.330841
0.589203 0.189941 0.299255
0.612274 0.181580 0.267426
0.634521 0.172089 0.235199
0.038208 0.019623 0.263611
0.055298 0.021393 0.290649
0.073334 0.023010 0.319794
0.092224 0.024445 0.351013
0.110809 0.025452 0.381958
0.129517 0.026062 0.413452
0.147003 0.025787 0.443451
0.164520 0.020081 0.478577
0.182739 0.007751 0.519379
0.200806 0.000000 0.560059
0.219452 0.000000 0.598694
0.237579 0.000000 0.629730
0.256287 0.000000 0.647217
0.274292 0.008392 0.661133
0.292084 0.047455 0.661102
0.310760 0.085846 0.650269
0.329346 0.114990 0.632843
0.348267 0.138367 0.610535
0.368134 0.157471 0.584076
0.387878 0.172119 0.556244
0.407959 0.183319 0.527435
0.428802 0.191864 0.497986
0.449402 0.197723 0.470490
0.470612 0.201813 0.444702
0.492096 0.204163 0.420288
0.515076 0.204193 0.393219
0.539703 0.201721 0.363220
0.563995 0.197113 0.332550
0.588593 0.190155 0.300079
0.611694 0.181793 0.268250
0.633423 0.172577 0.236786
0.653687 0.163239 0.205536
0.671082 0.155579 0.177032
0.072845 0.022949 0.319000
0.091278 0.024384 0.349426
0.110321 0.025421 0.381165
0.128540 0.026031 0.411865
0.146545 0.025848 0.442627
0.164062 0.020325 0.477631
0.181793 0.008514 0.517242
0.200317 0.000000 0.559021
0.218475 0.000000 0.596832
0.237122 0.000000 0.628998
0.255829 0.000000 0.646820
0.273376 0.007568 0.660492
0.291626 0.046265 0.661255
0.309845 0.084137 0.650970
0.328857 0.114319 0.633362
0.347778 0.137817 0.611176
0.367096 0.156616 0.585510
0.387360 0.171722 0.556976
0.407440 0.183044 0.528198
0.428284 0.191681 0.498688
0.448822 0.197601 0.471161
0.469543 0.201660 0.445953
0.491516 0.204132 0.420990
0.514465 0.204224 0.393951
0.539062 0.201813 0.364044
0.563354 0.197266 0.333344
0.587372 0.190552 0.301758
0.611145 0.182007 0.269104
0.632874 0.172852 0.237610
0.653198 0.163483 0.206329
0.670685 0.155762 0.177765
0.685547 0.150848 0.152191
0.696686 0.153320 0.131012
0.109833 0.025421 0.380371
0.128052 0.026031 0.411072
0.145660 0.025940 0.440948
0.163574 0.020538 0.476624
0.181335 0.008881 0.516174
0.199829 0.000000 0.557922
0.217987 0.000000 0.595886
0.236206 0.000000 0.627533
0.255371 0.000000 0.646454
0.272949 0.007172 0.660156
0.291138 0.045074 0.661407
0.309357 0.083282 0.651367
0.327820 0.112946 0.634430
0.347260 0.137268 0.611755
0.366577 0.156158 0.586243
0.386841 0.171387 0.557709
0.406891 0.182800 0.528961
0.427246 0.191284 0.500214
0.448273 0.197479 0.471863
0.468994 0.201569 0.446594
0.490936 0.204102 0.421661
0.513855 0.204254 0.394714
0.537750 0.201996 0.365601
0.562714 0.197388 0.334137
0.586731 0.190765 0.302612
0.610535 0.182251 0.269958
0.632294 0.173096 0.238434
0.652191 0.163940 0.207916
0.670258 0.155945 0.178467
0.685211 0.150909 0.152863
0.696411 0.153229 0.131500
0.705841 0.157013 0.115753
0.714264 0.161804 0.105255
0.145233 0.026001 0.440125
0.162659 0.020996 0.474609
0.180878 0.009247 0.515076
0.198853 0.000000 0.555847
0.217529 0.000000 0.594971
0.235718 0.000000 0.626862
0.254395 0.000000 0.645691
0.272491 0.006775 0.659790
0.290222 0.042725 0.661713
0.308868 0.082397 0.651703
0.327332 0.112244 0.634918
0.346222 0.136078 0.613037
0.366058 0.155701 0.586945
0.385742 0.170715 0.559235
0.406372 0.182526 0.529694
0.426697 0.191101 0.500946
0.447205 0.197235 0.473267
0.468414 0.201477 0.447205
0.489777 0.204010 0.423035
0.513245 0.204285 0.395477
0.537109 0.202087 0.366394
0.561401 0.197662 0.335785
0.586121 0.190948 0.303406
0.609314 0.182709 0.271576
0.631744 0.173340 0.239258
0.651703 0.164185 0.208710
0.669403 0.156311 0.179932
0.684845 0.151001 0.153473
0.695892 0.153046 0.132446
0.705627 0.156891 0.116119
0.714050 0.161652 0.105499
0.721527 0.167450 0.099976
0.726868 0.177948 0.099457
0.180420 0.009644 0.514008
0.198395 0.000000 0.554779
0.216583 0.000000 0.593079
0.235229 0.000000 0.626129
0.253906 0.000000 0.645294
0.272034 0.006378 0.659454
0.289734 0.041534 0.661835
0.307861 0.080597 0.652466
0.326843 0.111511 0.635406
0.345734 0.135529 0.613678
0.365540 0.155243 0.587646
0.385223 0.170380 0.559998
0.405273 0.182007 0.531250
0.426147 0.190918 0.501709
0.446686 0.197113 0.473999
0.467865 0.201385 0.447815
0.489197 0.203979 0.423706
0.512024 0.204315 0.396912
0.536499 0.202179 0.367188
0.560760 0.197815 0.336639
0.585480 0.191162 0.304260
0.608734 0.182953 0.272430
0.630676 0.173828 0.240875
0.651215 0.164429 0.209442
0.668976 0.156494 0.180634
0.684479 0.151093 0.154114
0.695618 0.152985 0.132965
0.705139 0.156677 0.116821
0.713837 0.161530 0.105713
0.721375 0.167206 0.100067
0.726746 0.177704 0.099426
0.731049 0.188812 0.102478
0.734772 0.200256 0.107758
0.216125 0.000000 0.592133
0.234772 0.000000 0.625366
0.253387 0.000000 0.644897
0.271179 0.005585 0.658783
0.289276 0.040375 0.661957
0.307373 0.079712 0.652802
0.326355 0.110840 0.635925
0.345245 0.134979 0.614319
0.364532 0.154327 0.589020
0.384735 0.170013 0.560699
0.404724 0.181732 0.532013
0.425568 0.190704 0.502411
0.446136 0.196991 0.474670
0.466797 0.201202 0.449097
0.488617 0.203949 0.424347
0.511383 0.204346 0.397644
0.535858 0.202271 0.367981
0.560150 0.197968 0.337463
0.584198 0.191559 0.305969
0.608124 0.183197 0.273254
0.630096 0.174042 0.241699
0.650696 0.164642 0.210236
0.668549 0.156677 0.181366
0.683777 0.151276 0.155334
0.695343 0.152893 0.133453
0.704926 0.156586 0.117188
0.713623 0.161377 0.105927
0.721222 0.166962 0.100128
0.726471 0.177124 0.099365
0.730927 0.188507 0.102356
0.734680 0.199951 0.107605
0.738037 0.211426 0.113953
0.741516 0.222717 0.120270
0.252899 0.000000 0.644470
0.270752 0.005157 0.658447
0.288269 0.037903 0.662170
0.306915 0.078796 0.653137
0.325378 0.109406 0.636963
0.344757 0.134430 0.614929
0.364044 0.153900 0.589722
0.383698 0.169342 0.562225
0.404236 0.181488 0.532776
0.424500 0.190308 0.503967
0.445587 0.196838 0.475372
0.466248 0.201141 0.449738
0.487427 0.203857 0.425690
0.510742 0.204346 0.398376
0.534576 0.202423 0.369507
0.559509 0.198090 0.338226
0.583618 0.191772 0.306763
0.606964 0.183685 0.274963
0.629547 0.174286 0.242554
0.649719 0.165100 0.211853
0.668121 0.156830 0.182068
0.683380 0.151367 0.155975
0.694794 0.152740 0.134460
0.704712 0.156464 0.117554
0.713196 0.161102 0.106384
0.721069 0.166718 0.100220
0.726349 0.176819 0.099335
0.730743 0.187927 0.102112
0.734589 0.199677 0.107452
0.737976 0.211121 0.113800
0.741425 0.222412 0.120117
0.745056 0.232727 0.125244
0.749207 0.242188 0.128204
0.287811 0.036713 0.662292
0.306458 0.077850 0.653473
0.324890 0.108673 0.637482
0.343750 0.133301 0.616150
0.363525 0.153442 0.590454
0.383179 0.168976 0.562988
0.403717 0.181244 0.533508
0.423981 0.190125 0.504700
0.444489 0.196564 0.476807
0.465698 0.201050 0.450378
0.486847 0.203796 0.426361
0.510132 0.204376 0.399139
0.533936 0.202515 0.370300
0.558197 0.198364 0.339905
0.582977 0.191956 0.307587
0.606354 0.183929 0.275787
0.628998 0.174530 0.243347
0.649231 0.165314 0.212646
0.667206 0.157227 0.183533
0.683014 0.151459 0.156647
0.694519 0.152649 0.134949
0.704468 0.156342 0.117920
0.712982 0.160980 0.106598
0.720703 0.166382 0.100403
0.726196 0.176544 0.099304
0.730621 0.187622 0.102020
0.734497 0.199371 0.107330
0.737885 0.210785 0.113647
0.741241 0.221832 0.119812
0.744965 0.232483 0.125153
0.749084 0.241913 0.128174
0.754211 0.250458 0.128052
0.759796 0.257507 0.125214
0.324402 0.107941 0.637970
0.343231 0.132660 0.616760
0.362976 0.152985 0.591156
0.382629 0.168610 0.563721
0.402649 0.180695 0.535034
0.423462 0.189941 0.505463
0.443939 0.196442 0.477539
0.465149 0.200958 0.451019
0.486298 0.203766 0.427032
0.508942 0.204407 0.400574
0.533295 0.202606 0.371094
0.557556 0.198517 0.340729
0.581696 0.192322 0.309326
0.605774 0.184143 0.276611
0.627838 0.175049 0.244965
0.648712 0.165558 0.213409
0.666748 0.157410 0.184296
0.682251 0.151672 0.157928
0.694244 0.152557 0.135437
0.703979 0.156097 0.118683
0.712799 0.160828 0.106842
0.720520 0.166229 0.100494
0.725952 0.175964 0.099243
0.730530 0.187286 0.101898
0.734253 0.198730 0.107025
0.737793 0.210480 0.113464
0.741150 0.221558 0.119690
0.744751 0.231995 0.124878
0.748962 0.241699 0.128113
0.753937 0.250031 0.128174
0.759674 0.257324 0.125305
0.765289 0.263641 0.121735
0.770996 0.269348 0.117706
0.361969 0.152008 0.592499
0.382111 0.168243 0.564453
0.402069 0.180420 0.535797
0.422394 0.189514 0.506927
0.443390 0.196289 0.478241
0.464050 0.200745 0.452271
0.485718 0.203705 0.427704
0.508331 0.204407 0.401306
0.532074 0.202759 0.372681
0.556915 0.198639 0.341553
0.581085 0.192535 0.310150
0.605133 0.184387 0.277496
0.627289 0.175262 0.245789
0.647675 0.166016 0.215027
0.666321 0.157593 0.185059
0.681885 0.151764 0.158539
0.693970 0.152496 0.135925
0.703735 0.156006 0.119049
0.712372 0.160583 0.107300
0.720337 0.166077 0.100586
0.725830 0.175659 0.099243
0.730377 0.186981 0.101807
0.734161 0.198425 0.106873
0.737610 0.209900 0.113129
0.741058 0.221283 0.119537
0.744659 0.231720 0.124756
0.748840 0.241455 0.128082
0.753754 0.249817 0.128204
0.759369 0.256989 0.125488
0.765137 0.263489 0.121857
0.770844 0.269196 0.117828
0.776611 0.274780 0.113190
0.782318 0.280029 0.108337
0.401550 0.180145 0.536591
0.421814 0.189362 0.507690
0.442871 0.196136 0.478943
0.463501 0.200653 0.452911
0.484558 0.203613 0.428986
0.507690 0.204437 0.402008
0.531433 0.202820 0.373413
0.556305 0.198792 0.342316
0.580444 0.192719 0.310944
0.603943 0.184845 0.279175
0.626740 0.175507 0.246674
0.647156 0.166260 0.215820
0.665894 0.157776 0.185760
0.681549 0.151886 0.159180
0.693420 0.152344 0.136993
0.703491 0.155914 0.119385
0.712158 0.160431 0.107513
0.720123 0.165955 0.100708
0.725708 0.175385 0.099213
0.730164 0.186371 0.101593
0.734070 0.198120 0.106720
0.737518 0.209595 0.112946
0.740967 0.221008 0.119385
0.744568 0.231476 0.124634
0.748627 0.240967 0.127960
0.753601 0.249603 0.128265
0.759216 0.256805 0.125549
0.764984 0.263336 0.121948
0.770691 0.269043 0.117920
0.776337 0.274506 0.113464
0.782166 0.279907 0.108459
0.787781 0.285309 0.103424
0.793579 0.291107 0.098175
0.441803 0.195862 0.480377
0.462952 0.200562 0.453613
0.483948 0.203552 0.429626
0.506470 0.204437 0.403503
0.530762 0.202881 0.374207
0.555023 0.199036 0.343964
0.579865 0.192902 0.311768
0.603363 0.185059 0.279968
0.625610 0.176025 0.248291
0.646637 0.166504 0.216614
0.665009 0.158173 0.187256
0.681152 0.151978 0.159821
0.693176 0.152222 0.137543
0.702972 0.155701 0.120148
0.711945 0.160309 0.107758
0.719757 0.165649 0.100922
0.725586 0.175140 0.099182
0.730072 0.186096 0.101440
0.733887 0.197540 0.106415
0.737427 0.209290 0.112762
0.740784 0.220459 0.119080
0.744446 0.231201 0.124512
0.748505 0.240723 0.127930
0.753326 0.249207 0.128326
0.759094 0.256622 0.125641
0.764709 0.263000 0.122131
0.770538 0.268921 0.118042
0.776184 0.274353 0.113586
0.781860 0.279633 0.108734
0.787628 0.285156 0.103546
0.793274 0.290802 0.098450
0.798981 0.297089 0.093201
0.804474 0.303864 0.088531
0.483398 0.203491 0.430328
0.505859 0.204468 0.404236
0.530121 0.202972 0.375000
0.554352 0.199158 0.344788
0.578583 0.193268 0.313477
0.602753 0.185303 0.280792
0.625061 0.176270 0.249115
0.646179 0.166748 0.217377
0.664551 0.158325 0.188019
0.680420 0.152222 0.161194
0.692902 0.152161 0.138062
0.702728 0.155579 0.120544
0.711731 0.160156 0.108002
0.719543 0.165497 0.101044
0.725311 0.174561 0.099182
0.729950 0.185791 0.101349
0.733795 0.197266 0.106262
0.737335 0.208984 0.112610
0.740723 0.220184 0.118927
0.744263 0.230652 0.124268
0.748383 0.240479 0.127869
0.753174 0.248993 0.128357
0.758942 0.256439 0.125732
0.764557 0.262848 0.122253
0.770233 0.268616 0.118286
0.776031 0.274200 0.113708
0.781738 0.279480 0.108856
0.787476 0.284973 0.103668
0.793121 0.290649 0.098572
0.798706 0.296722 0.093475
0.804321 0.303680 0.088654
0.809784 0.311371 0.084564
0.815216 0.320557 0.081512
0.528900 0.203125 0.376556
0.553711 0.199341 0.345612
0.577911 0.193420 0.314301
0.602142 0.185516 0.281677
0.624451 0.176514 0.249939
0.645142 0.167206 0.219025
0.664093 0.158539 0.188782
0.680023 0.152374 0.161865
0.692627 0.152069 0.138580
0.702484 0.155487 0.120911
0.711304 0.159882 0.108521
0.719360 0.165344 0.101166
0.725189 0.174286 0.099182
0.729828 0.185547 0.101257
0.733704 0.196960 0.106110
0.737183 0.208435 0.112274
0.740631 0.219879 0.118774
0.744171 0.230347 0.124146
0.748260 0.240234 0.127808
0.753052 0.248810 0.128418
0.758636 0.256104 0.125885
0.764404 0.262695 0.122345
0.770081 0.268463 0.118378
0.775726 0.273926 0.113953
0.781586 0.279358 0.108978
0.787201 0.284698 0.103912
0.792999 0.290497 0.098694
0.798553 0.296570 0.093597
0.804047 0.303284 0.088867
0.809662 0.311157 0.084656
0.814941 0.320038 0.081635
0.820221 0.330719 0.080261
0.825195 0.343170 0.081451
0.577301 0.193604 0.315094
0.600891 0.185944 0.283325
0.623901 0.176788 0.250793
0.644623 0.167450 0.219818
0.663147 0.158936 0.190216
0.679596 0.152496 0.162506
0.692078 0.151947 0.139587
0.702240 0.155365 0.121338
0.711090 0.159760 0.108765
0.718964 0.165039 0.101410
0.725067 0.174011 0.099152
0.729614 0.184937 0.101044
0.733612 0.196655 0.105957
0.737091 0.208130 0.112091
0.740448 0.219299 0.118469
0.744080 0.230072 0.124023
0.748047 0.239807 0.127686
0.752899 0.248596 0.128448
0.758484 0.255920 0.125977
0.764099 0.262360 0.122528
0.769928 0.268311 0.118500
0.775574 0.273804 0.114044
0.781433 0.279236 0.109131
0.787079 0.284546 0.104065
0.792664 0.290192 0.098969
0.798401 0.296387 0.093750
0.803894 0.303101 0.088989
0.809509 0.310944 0.084747
0.814789 0.319794 0.081696
0.819946 0.330139 0.080292
0.825073 0.342834 0.081390
0.829712 0.357452 0.085419
0.834106 0.374634 0.092499
0.622772 0.177277 0.252441
0.644073 0.167694 0.220612
0.662689 0.159119 0.190979
0.679230 0.152618 0.163177
0.691772 0.151855 0.140137
0.701752 0.155151 0.122162
0.710846 0.159607 0.109039
0.718781 0.164917 0.101562
0.724915 0.173767 0.099152
0.729523 0.184631 0.100952
0.733398 0.196045 0.105652
0.737000 0.207825 0.111908
0.740356 0.219025 0.118286
0.743988 0.229828 0.123901
0.747955 0.239563 0.127625
0.752625 0.248169 0.128479
0.758331 0.255768 0.126038
0.763947 0.262207 0.122620
0.769806 0.268158 0.118622
0.775421 0.273651 0.114166
0.781097 0.278961 0.109406
0.786926 0.284424 0.104187
0.792511 0.290039 0.099091
0.798279 0.296234 0.093903
0.803741 0.302917 0.089111
0.809235 0.310547 0.084961
0.814667 0.319519 0.081757
0.819824 0.329865 0.080292
0.824921 0.342468 0.081299
0.829590 0.357086 0.085266
0.833923 0.373688 0.092072
0.837982 0.392609 0.101440
0.841644 0.412384 0.112244
0.662231 0.159332 0.191742
0.678436 0.152863 0.164520
0.691498 0.151794 0.140717
0.701508 0.155060 0.122559
0.710388 0.159363 0.109619
0.718536 0.164764 0.101715
0.724640 0.173218 0.099152
0.729401 0.184326 0.100861
0.733307 0.195740 0.105499
0.736816 0.207245 0.111572
0.740265 0.218689 0.118134
0.743805 0.229279 0.123657
0.747864 0.239319 0.127563
0.752502 0.247986 0.128510
0.758057 0.255402 0.126221
0.763794 0.262054 0.122742
0.769470 0.267853 0.118835
0.775299 0.273529 0.114288
0.780945 0.278839 0.109558
0.786621 0.284119 0.104462
0.792358 0.289886 0.099243
0.797974 0.295898 0.094177
0.803619 0.302734 0.089233
0.809082 0.310333 0.085052
0.814392 0.319031 0.081879
0.819672 0.329590 0.080322
0.824677 0.341797 0.081177
0.829468 0.356659 0.085144
0.833801 0.373230 0.091888
0.837799 0.391632 0.100891
0.841553 0.411865 0.111969
0.844879 0.432281 0.123535
0.848053 0.453369 0.135590
0.690918 0.151672 0.141815
0.701263 0.154968 0.122986
0.710175 0.159241 0.109894
0.718353 0.164612 0.101837
0.724548 0.172943 0.099182
0.729187 0.183746 0.100708
0.733215 0.195435 0.105316
0.736725 0.206909 0.111420
0.740204 0.218414 0.117950
0.743713 0.229034 0.123505
0.747620 0.238831 0.127411
0.752350 0.247772 0.128540
0.757904 0.255249 0.126282
0.763672 0.261902 0.122833
0.769318 0.267700 0.118958
0.775024 0.273193 0.114532
0.780792 0.278687 0.109680
0.786469 0.283997 0.104584
0.792206 0.289734 0.099365
0.797821 0.295715 0.094299
0.803314 0.302399 0.089478
0.808929 0.310120 0.085144
0.814270 0.318787 0.081940
0.819550 0.329285 0.080322
0.824554 0.341431 0.081116
0.829224 0.355835 0.084869
0.833710 0.372803 0.091705
0.837708 0.391144 0.100647
0.841461 0.411346 0.111664
0.844788 0.431732 0.123230
0.847900 0.452271 0.135010
0.850952 0.472778 0.146423
0.853943 0.491547 0.156372
0.709961 0.159119 0.110168
0.717957 0.164337 0.102112
0.724426 0.172668 0.099182
0.729065 0.183411 0.100616
0.733124 0.195099 0.105164
0.736633 0.206604 0.111267
0.740021 0.217834 0.117645
0.743622 0.228760 0.123383
0.747528 0.238586 0.127350
0.752228 0.247559 0.128540
0.757721 0.255066 0.126373
0.763397 0.261536 0.123016
0.769165 0.267578 0.119049
0.774872 0.273071 0.114624
0.780640 0.278534 0.109802
0.786346 0.283844 0.104736
0.791931 0.289459 0.099609
0.797668 0.295563 0.094421
0.803192 0.302185 0.089600
0.808807 0.309906 0.085236
0.814117 0.318542 0.082062
0.819275 0.328705 0.080353
0.824432 0.341095 0.081085
0.829132 0.355408 0.084717
0.833588 0.372345 0.091492
0.837585 0.390625 0.100372
0.841248 0.410278 0.111084
0.844696 0.431213 0.122925
0.847809 0.451721 0.134735
0.850861 0.472229 0.146179
0.853851 0.491058 0.156128
0.857025 0.508728 0.164764
0.860382 0.527710 0.173889
0.724152 0.172150 0.099213
0.728943 0.183105 0.100525
0.732941 0.194519 0.104889
0.736542 0.206329 0.111115
0.739929 0.217529 0.117462
0.743408 0.228241 0.123138
0.747406 0.238342 0.127289
0.751953 0.247131 0.128571
0.757568 0.254883 0.126434
0.763245 0.261383 0.123077
0.768860 0.267303 0.119232
0.774719 0.272919 0.114746
0.780334 0.278259 0.110077
0.786194 0.283722 0.104858
0.791779 0.289307 0.099731
0.797394 0.295227 0.094696
0.803040 0.302002 0.089722
0.808472 0.309509 0.085449
0.813995 0.318329 0.082123
0.819153 0.328400 0.080383
0.824127 0.340393 0.080963
0.829010 0.355011 0.084595
0.833374 0.371429 0.091064
0.837494 0.390106 0.100098
0.841156 0.409729 0.110809
0.844543 0.430145 0.122314
0.847748 0.451202 0.134430
0.850708 0.471191 0.145630
0.853790 0.490601 0.155884
0.856934 0.508270 0.164551
0.860199 0.526672 0.173462
0.863556 0.546356 0.182892
0.866699 0.565643 0.192200
0.732819 0.194214 0.104736
0.736359 0.205719 0.110779
0.739868 0.217255 0.117310
0.743317 0.227966 0.123016
0.747284 0.238068 0.127197
0.751862 0.246918 0.128571
0.757263 0.254517 0.126587
0.763092 0.261200 0.123169
0.768707 0.267151 0.119354
0.774567 0.272766 0.114899
0.780212 0.278137 0.110199
0.785889 0.283417 0.105133
0.791626 0.289154 0.099884
0.797241 0.295044 0.094849
0.802887 0.301819 0.089874
0.808350 0.309296 0.085541
0.813721 0.317841 0.082245
0.819000 0.328125 0.080383
0.824005 0.340057 0.080902
0.828888 0.354584 0.084442
0.833252 0.370941 0.090881
0.837280 0.389099 0.099609
0.841064 0.409180 0.110504
0.844452 0.429565 0.122009
0.847656 0.450684 0.134125
0.850616 0.470703 0.145355
0.853607 0.489655 0.155365
0.856842 0.507751 0.164337
0.860107 0.526184 0.173218
0.863464 0.545837 0.182648
0.866608 0.565125 0.191956
0.869568 0.584015 0.201019
0.872345 0.602386 0.209839
0.739777 0.216980 0.117096
0.743225 0.227722 0.122894
0.747070 0.237579 0.127045
0.751740 0.246704 0.128601
0.757141 0.254303 0.126678
0.762939 0.261047 0.123291
0.768555 0.266998 0.119446
0.774261 0.272491 0.115143
0.780060 0.277985 0.110321
0.785736 0.283295 0.105286
0.791473 0.288971 0.100006
0.797089 0.294922 0.094971
0.802643 0.301453 0.090118
0.808197 0.309082 0.085632
0.813568 0.317596 0.082336
0.818756 0.327515 0.080444
0.823883 0.339691 0.080872
0.828644 0.353790 0.084198
0.833160 0.370483 0.090668
0.837189 0.388641 0.099365
0.840881 0.408173 0.109924
0.844360 0.429016 0.121704
0.847473 0.449615 0.133514
0.850555 0.470215 0.145050
0.853546 0.489166 0.155121
0.856689 0.506805 0.163849
0.860046 0.525696 0.172974
0.863312 0.544861 0.182129
0.866516 0.564636 0.191711
0.869476 0.583557 0.200806
0.872223 0.601471 0.209412
0.874573 0.618317 0.217529
0.876526 0.632538 0.224365
0.746979 0.237335 0.126953
0.751465 0.246246 0.128601
0.756989 0.254120 0.126770
0.762634 0.260712 0.123474
0.768433 0.266846 0.119568
0.774109 0.272339 0.115234
0.779755 0.277710 0.110596
0.785583 0.283173 0.105408
0.791199 0.288666 0.100281
0.796936 0.294769 0.095123
0.802490 0.301300 0.090240
0.807922 0.308655 0.085846
0.813446 0.317352 0.082397
0.818604 0.327240 0.080475
0.823761 0.339355 0.080811
0.828522 0.353424 0.084076
0.832916 0.369568 0.090271
0.837097 0.388153 0.099121
0.840790 0.407623 0.109619
0.844269 0.428497 0.121399
0.847382 0.449036 0.133209
0.850403 0.469177 0.144440
0.853485 0.488708 0.154877
0.856598 0.506348 0.163635
0.859955 0.525208 0.172729
0.863190 0.544342 0.181885
0.866364 0.563660 0.191193
0.869415 0.583069 0.200562
0.872131 0.601013 0.209198
0.874512 0.617920 0.217316
0.876495 0.632172 0.224213
0.877960 0.643677 0.229706
0.878387 0.647034 0.231384
0.756836 0.253937 0.126831
0.762482 0.260559 0.123566
0.768127 0.266541 0.119751
0.773956 0.272186 0.115356
0.779602 0.277557 0.110718
0.785431 0.283051 0.105591
0.791046 0.288513 0.100403
0.796631 0.294434 0.095367
0.802338 0.301117 0.090363
0.807770 0.308411 0.085999
0.813293 0.317108 0.082458
0.818481 0.326935 0.080475
0.823486 0.338654 0.080719
0.828400 0.353027 0.083984
0.832825 0.369141 0.090057
0.836975 0.387634 0.098877
0.840698 0.407104 0.109283
0.844116 0.427429 0.120758
0.847321 0.448517 0.132874
0.850311 0.468628 0.144165
0.853424 0.488190 0.154633
0.856506 0.505890 0.163422
0.859772 0.524231 0.172241
0.863098 0.543823 0.181641
0.866272 0.563141 0.190948
0.869354 0.582581 0.200317
0.872070 0.600555 0.208984
0.874390 0.617065 0.216949
0.876434 0.631836 0.224060
0.877930 0.643402 0.229584
0.878387 0.647034 0.231384
0.878387 0.647034 0.231384
0.878387 0.647034 0.231384
0.767975 0.266418 0.119873
0.773682 0.271912 0.115601
0.779449 0.277435 0.110840
0.785156 0.282745 0.105865
0.790924 0.288361 0.100555
0.796478 0.294281 0.095490
0.802063 0.300720 0.090607
0.807617 0.308197 0.086090
0.813019 0.316650 0.082611
0.818359 0.326660 0.080505
0.823364 0.338318 0.080688
0.828156 0.352234 0.083740
0.832703 0.368713 0.089874
0.836792 0.386627 0.098389
0.840607 0.406586 0.108978
0.844025 0.426880 0.120453
0.847137 0.447418 0.132233
0.850250 0.468109 0.143890
0.853241 0.487213 0.154144
0.856445 0.505432 0.163177
0.859680 0.523743 0.171997
0.862946 0.542786 0.181183
0.866211 0.562653 0.190704
0.869202 0.581573 0.199860
0.872009 0.600098 0.208771
0.874359 0.616669 0.216766
0.876343 0.631165 0.223724
0.877899 0.643158 0.229462
0.878387 0.647034 0.231384
0.878387 0.647034 0.231384
0.878387 0.647034 0.231384
0.878387 0.647034 0.231384
0.878387 0.647034 0.231384
0.779297 0.277252 0.110962
0.784973 0.282623 0.105988
0.790619 0.288055 0.100830
0.796326 0.294098 0.095612
0.801910 0.300537 0.090729
0.807495 0.308014 0.086182
0.812866 0.316406 0.082703
0.818115 0.326141 0.080566
0.823242 0.337982 0.080627
0.828003 0.351837 0.083618
0.832581 0.368256 0.089661
0.836670 0.386139 0.098114
0.840424 0.405518 0.108398
0.843933 0.426361 0.120148
0.847076 0.446899 0.131927
0.850159 0.467590 0.143585
0.853180 0.486725 0.153900
0.856262 0.504517 0.162720
0.859589 0.523224 0.171753
0.862854 0.542297 0.180939
0.866119 0.562103 0.190460
0.869141 0.581085 0.199615
0.871887 0.599213 0.208344
0.874298 0.616241 0.216583
