luts/Thermal.cube
#Created by: Adobe Photoshop Export Color Lookup Plugin
TITLE "THERMAL"
#LUT size
LUT_3D_SIZE 9
#data domain
DOMAIN_MIN 0.0 0.0 0.0
DOMAIN_MAX 1.0 1.0 1.0
#LUT data points
0.016663 0.016693 0.223541
0.074280 0.023071 0.321381
0.147461 0.025726 0.444275
0.219940 0.000000 0.599609
0.292542 0.048584 0.660919
0.368652 0.157928 0.583405
0.450470 0.197968 0.469086
0.540344 0.201630 0.362427
0.634521 0.172089 0.235199
0.145233 0.026001 0.440125
0.217529 0.000000 0.594971
0.290222 0.042725 0.661713
0.366058 0.155701 0.586945
0.447205 0.197235 0.473267
0.537109 0.202087 0.366394
0.631744 0.173340 0.239258
0.695892 0.153046 0.132446
0.726868 0.177948 0.099457
0.287811 0.036713 0.662292
0.363525 0.153442 0.590454
0.444489 0.196564 0.476807
0.533936 0.202515 0.370300
0.628998 0.174530 0.243347
0.694519 0.152649 0.134949
0.726196 0.176544 0.099304
0.741241 0.221832 0.119812
0.759796 0.257507 0.125214
0.441803 0.195862 0.480377
0.530762 0.202881 0.374207
0.625610 0.176025 0.248291
0.693176 0.152222 0.137543
0.725586 0.175140 0.099182
0.740784 0.220459 0.119080
0.759094 0.256622 0.125641
0.781860 0.279633 0.108734
0.804474 0.303864 0.088531
0.622772 0.177277 0.252441
0.691772 0.151855 0.140137
0.724915 0.173767 0.099152
0.740356 0.219025 0.118286
0.758331 0.255768 0.126038
0.781097 0.278961 0.109406
0.803741 0.302917 0.089111
0.824921 0.342468 0.081299
0.841644 0.412384 0.112244
0.724152 0.172150 0.099213
0.739929 0.217529 0.117462
0.757568 0.254883 0.126434
0.780334 0.278259 0.110077
0.803040 0.302002 0.089722
0.824127 0.340393 0.080963
0.841156 0.409729 0.110809
0.853790 0.490601 0.155884
0.866699 0.565643 0.192200
0.756836 0.253937 0.126831
0.779602 0.277557 0.110718
0.802338 0.301117 0.090363
0.823486 0.338654 0.080719
0.840698 0.407104 0.109283
0.853424 0.488190 0.154633
0.866272 0.563141 0.190948
0.876434 0.631836 0.224060
0.878387 0.647034 0.231384
0.801605 0.300171 0.090973
0.822845 0.337036 0.080536
0.840240 0.404449 0.107819
0.852936 0.485291 0.153137
0.865875 0.560577 0.189758
0.876221 0.630127 0.223236
0.878387 0.647034 0.231384
0.878387 0.647034 0.231384
0.878387 0.647034 0.231384
0.839722 0.401855 0.106445
0.852539 0.482819 0.151794
0.865448 0.558044 0.188568
0.875977 0.628296 0.222321
0.878387 0.647034 0.231384
0.878387 0.647034 0.231384
0.878387 0.647034 0.231384
0.878387 0.647034 0.231384
0.899353 0.700531 0.349976
0.030243 0.018677 0.250580
0.101471 0.025024 0.366486
0.173828 0.014496 0.499115
0.246979 0.000000 0.639587
0.320007 0.101227 0.642273
0.397858 0.178131 0.541870
0.481140 0.203278 0.432861
0.576050 0.193970 0.316803
0.662689 0.159119 0.190979
0.171021 0.016357 0.492889
0.244446 0.000000 0.637512
0.317566 0.097321 0.644531
0.395264 0.176605 0.545654
0.478333 0.202911 0.436066
0.572876 0.194855 0.320953
0.660400 0.160187 0.194763
0.709717 0.158997 0.110474
0.732941 0.194519 0.104889
0.315125 0.093353 0.646637
0.392578 0.175049 0.549438
0.475525 0.202545 0.439209
0.569672 0.195709 0.325104
0.658051 0.161285 0.198578
0.708405 0.158264 0.112213
0.732452 0.193024 0.104187
0.746857 0.237091 0.126923
0.768127 0.266541 0.119751
0.472778 0.202179 0.442291
0.566528 0.196503 0.329254
0.655609 0.162354 0.202423
0.707275 0.157715 0.113800
0.731964 0.191498 0.103546
0.746338 0.235870 0.126465
0.767395 0.265808 0.120300
0.790344 0.287750 0.101105
0.812439 0.315674 0.082916
0.653198 0.163483 0.206329
0.706085 0.157135 0.115417
0.731445 0.189972 0.102966
0.745667 0.234283 0.125885
0.766663 0.264984 0.120789
0.789581 0.287048 0.101807
0.811737 0.314484 0.083344
0.831665 0.364716 0.088165
0.846405 0.442596 0.129486
0.730927 0.188507 0.102356
0.745148 0.233002 0.125366
0.765930 0.264252 0.121338
0.788818 0.286316 0.102478
0.811035 0.313385 0.083771
0.831085 0.362518 0.087341
0.846008 0.439850 0.127899
0.858459 0.516876 0.168701
0.871002 0.593597 0.205627
0.765137 0.263489 0.121857
0.787933 0.285461 0.103302
0.810364 0.312256 0.084198
0.830505 0.360413 0.086517
0.845612 0.437164 0.126373
0.858002 0.514435 0.167511
0.870575 0.590759 0.204315
0.878387 0.647034 0.231384
0.878387 0.647034 0.231384
0.809662 0.311157 0.084656
0.829956 0.358276 0.085724
0.845215 0.434479 0.124786
0.857574 0.512054 0.166351
0.870239 0.588348 0.203156
0.878326 0.646576 0.231171
0.878387 0.647034 0.231384
0.878387 0.647034 0.231384
0.878387 0.647034 0.231384
0.844788 0.431732 0.123230
0.857208 0.509674 0.165222
0.869873 0.585968 0.201935
0.878174 0.645447 0.230591
0.878387 0.647034 0.231384
0.878387 0.647034 0.231384
0.878387 0.647034 0.231384
0.879822 0.650604 0.240234
0.913818 0.738312 0.423645
0.054840 0.021332 0.289917
0.128540 0.026031 0.411865
0.200317 0.000000 0.559021
0.273376 0.007568 0.660492
0.347778 0.137817 0.611176
0.428284 0.191681 0.498688
0.514465 0.204224 0.393951
0.611145 0.182007 0.269104
0.685547 0.150848 0.152191
0.197906 0.000000 0.553711
0.271179 0.005585 0.658783
0.345245 0.134979 0.614319
0.425568 0.190704 0.502411
0.511383 0.204346 0.397644
0.608124 0.183197 0.273254
0.683777 0.151276 0.155334
0.721222 0.166962 0.100128
0.738037 0.211426 0.113953
0.342743 0.132080 0.617401
0.422394 0.189514 0.506927
0.508331 0.204407 0.401306
0.605133 0.184387 0.277496
0.681885 0.151764 0.158539
0.720337 0.166077 0.100586
0.737610 0.209900 0.113129
0.753754 0.249817 0.128204
0.776611 0.274780 0.113190
0.505280 0.204468 0.404907
0.602142 0.185516 0.281677
0.680023 0.152374 0.161865
0.719360 0.165344 0.101166
0.737183 0.208435 0.112274
0.753052 0.248810 0.128418
0.775726 0.273926 0.113953
0.798553 0.296570 0.093597
0.820221 0.330719 0.080261
0.678070 0.152985 0.165192
0.718353 0.164612 0.101837
0.736725 0.206909 0.111420
0.752350 0.247772 0.128540
0.775024 0.273193 0.114532
0.797821 0.295715 0.094299
0.819550 0.329285 0.080322
0.837708 0.391144 0.100647
0.850952 0.472778 0.146423
0.736298 0.205414 0.110596
0.751740 0.246704 0.128601
0.774261 0.272491 0.115143
0.797089 0.294922 0.094971
0.818756 0.327515 0.080444
0.837189 0.388641 0.099365
0.850555 0.470215 0.145050
0.863312 0.544861 0.182129
0.874573 0.618317 0.217529
0.773529 0.271759 0.115723
0.796326 0.294098 0.095612
0.818115 0.326141 0.080566
0.836670 0.386139 0.098114
0.850159 0.467590 0.143585
0.862854 0.542297 0.180939
0.874298 0.616241 0.216583
0.878387 0.647034 0.231384
0.878387 0.647034 0.231384
0.817413 0.324768 0.080750
0.836151 0.383728 0.096802
0.849701 0.464447 0.141876
0.862427 0.539764 0.179749
0.873993 0.614197 0.215576
0.878387 0.647034 0.231384
0.878387 0.647034 0.231384
0.878387 0.647034 0.231384
0.878387 0.647034 0.231384
0.849335 0.461853 0.140381
0.862000 0.537231 0.178497
0.873688 0.612061 0.214508
0.878387 0.647034 0.231384
0.878387 0.647034 0.231384
0.878387 0.647034 0.231384
0.878387 0.647034 0.231384
0.889862 0.676239 0.299225
0.928589 0.777618 0.496338
0.081512 0.023682 0.333313
0.154785 0.024078 0.458435
0.227112 0.000000 0.612701
0.300171 0.065552 0.657410
0.376434 0.164093 0.572540
0.458618 0.199738 0.458862
0.550537 0.199951 0.349609
0.642548 0.168457 0.223022
0.701263 0.154968 0.122986
0.224670 0.000000 0.608459
0.297821 0.060547 0.658630
0.373810 0.162109 0.576202
0.455872 0.199158 0.462219
0.546692 0.200653 0.354462
0.639862 0.169678 0.227051
0.700043 0.154449 0.125122
0.728607 0.182220 0.100311
0.743225 0.227722 0.122894
0.371216 0.159973 0.579834
0.453186 0.198578 0.465637
0.543518 0.201172 0.358459
0.637238 0.170837 0.231110
0.698730 0.154022 0.127289
0.728058 0.180817 0.099945
0.742767 0.226318 0.122192
0.762054 0.260071 0.123840
0.784973 0.282623 0.105988
0.540344 0.201630 0.362427
0.634521 0.172089 0.235199
0.697205 0.153473 0.130096
0.727478 0.179352 0.099670
0.742279 0.224915 0.121490
0.761292 0.259247 0.124298
0.784210 0.281891 0.106659
0.806641 0.306793 0.086853
0.827393 0.349854 0.083038
0.695892 0.153046 0.132446
0.726868 0.177948 0.099457
0.741791 0.223541 0.120728
0.760529 0.258392 0.124756
0.783478 0.281158 0.107300
0.805939 0.305847 0.087402
0.826782 0.347992 0.082550
0.842957 0.420380 0.116760
0.855408 0.499908 0.160522
0.741241 0.221832 0.119812
0.759796 0.257507 0.125214
0.782776 0.280457 0.107941
0.805237 0.304871 0.087952
0.826172 0.346069 0.082092
0.842499 0.417694 0.115234
0.855011 0.497650 0.159393
0.867981 0.573669 0.196075
0.877258 0.638367 0.227203
0.782013 0.279755 0.108582
0.804474 0.303864 0.088531
0.825562 0.344269 0.081665
0.842041 0.415070 0.113770
0.854584 0.495300 0.158234
0.867523 0.570679 0.194611
0.877075 0.636810 0.226410
0.878387 0.647034 0.231384
0.878387 0.647034 0.231384
0.824921 0.342468 0.081299
0.841644 0.412384 0.112244
0.854187 0.492981 0.157104
0.867096 0.568176 0.193390
0.876892 0.635193 0.225647
0.878387 0.647034 0.231384
0.878387 0.647034 0.231384
0.878387 0.647034 0.231384
0.878387 0.647034 0.231384
0.853790 0.490601 0.155884
0.866699 0.565643 0.192200
0.876678 0.633575 0.224823
0.878387 0.647034 0.231384
0.878387 0.647034 0.231384
0.878387 0.647034 0.231384
0.878387 0.647034 0.231384
0.903107 0.710236 0.369446
0.942108 0.814117 0.561951
0.108826 0.025391 0.378693
0.180878 0.009247 0.515076
0.254395 0.000000 0.645691
0.327332 0.112244 0.634918
0.406372 0.182526 0.529694
0.489777 0.204010 0.423035
0.586121 0.190948 0.303406
0.669403 0.156311 0.179932
0.714050 0.161652 0.105499
0.251953 0.000000 0.643646
0.324890 0.108673 0.637482
0.403717 0.181244 0.533508
0.486847 0.203796 0.426361
0.582977 0.191956 0.307587
0.667206 0.157227 0.183533
0.712982 0.160980 0.106598
0.734497 0.199371 0.107330
0.749084 0.241913 0.128174
0.400513 0.179535 0.538086
0.483948 0.203552 0.429626
0.579865 0.192902 0.311768
0.665009 0.158173 0.187256
0.711945 0.160309 0.107758
0.733887 0.197540 0.106415
0.748505 0.240723 0.127930
0.770538 0.268921 0.118042
0.793274 0.290802 0.098450
0.576660 0.193787 0.315948
0.662689 0.159119 0.190979
0.710846 0.159607 0.109039
0.733398 0.196045 0.105652
0.747955 0.239563 0.127625
0.769806 0.268158 0.118622
0.792511 0.290039 0.099091
0.814667 0.319519 0.081757
0.833923 0.373688 0.092072
0.709717 0.158997 0.110474
0.732941 0.194519 0.104889
0.747406 0.238342 0.127289
0.768860 0.267303 0.119232
0.791779 0.289307 0.099731
0.813995 0.318329 0.082123
0.833374 0.371429 0.091064
0.847748 0.451202 0.134430
0.860199 0.526672 0.173462
0.746857 0.237091 0.126923
0.768127 0.266541 0.119751
0.791046 0.288513 0.100403
0.813293 0.317108 0.082458
0.832825 0.369141 0.090057
0.847321 0.448517 0.132874
0.859772 0.524231 0.172241
0.872070 0.600555 0.208984
0.878387 0.647034 0.231384
0.790344 0.287750 0.101105
0.812439 0.315674 0.082916
0.832245 0.366882 0.089081
0.846893 0.445831 0.131317
0.859314 0.521729 0.171021
0.871735 0.598267 0.207916
0.878387 0.647034 0.231384
0.878387 0.647034 0.231384
0.878387 0.647034 0.231384
0.831665 0.364716 0.088165
0.846497 0.443146 0.129822
0.858887 0.519287 0.169891
0.871399 0.595917 0.206757
0.878387 0.647034 0.231384
0.878387 0.647034 0.231384
0.878387 0.647034 0.231384
0.878387 0.647034 0.231384
0.883026 0.658722 0.259766
0.858459 0.516876 0.168701
0.871002 0.593597 0.205627
0.878387 0.647034 0.231384
0.878387 0.647034 0.231384
0.878387 0.647034 0.231384
0.878387 0.647034 0.231384
0.882172 0.656677 0.254883
0.917816 0.748840 0.443451
0.954895 0.849518 0.624542
0.136017 0.026154 0.424469
0.207489 0.000000 0.574493
0.280701 0.019531 0.663055
0.355347 0.145752 0.601349
0.436371 0.194275 0.487610
0.524475 0.203552 0.381897
0.619873 0.178467 0.256561
0.690338 0.151520 0.142883
0.724152 0.172150 0.099213
0.278381 0.014343 0.662964
0.352814 0.143158 0.604675
0.433685 0.193451 0.491302
0.520721 0.203857 0.386444
0.616974 0.179688 0.260742
0.688934 0.151215 0.145752
0.723450 0.170776 0.099335
0.739502 0.216125 0.116638
0.756683 0.253723 0.126892
0.431000 0.192596 0.494965
0.517578 0.204071 0.390228
0.614075 0.180878 0.264893
0.687439 0.150909 0.148621
0.722717 0.169525 0.099518
0.739044 0.214630 0.115784
0.755951 0.252777 0.127258
0.778900 0.276855 0.111328
0.801605 0.300171 0.090973
0.611145 0.182007 0.269104
0.685547 0.150848 0.152191
0.721954 0.168243 0.099762
0.738617 0.213135 0.114960
0.755249 0.251862 0.127594
0.778137 0.276154 0.111938
0.800720 0.299133 0.091766
0.822235 0.335388 0.080383
0.839722 0.401855 0.106445
0.721222 0.166962 0.100128
0.738129 0.211731 0.114136
0.754517 0.250854 0.127930
0.777405 0.275452 0.112579
0.799988 0.298279 0.092346
0.821564 0.333832 0.080322
0.839233 0.399292 0.104980
0.852142 0.480316 0.150513
0.865082 0.555542 0.187317
0.753754 0.249817 0.128204
0.776611 0.274780 0.113190
0.799255 0.297424 0.092957
0.820923 0.332275 0.080261
0.838654 0.396210 0.103363
0.851746 0.477844 0.149200
0.864655 0.552948 0.186096
0.875427 0.624207 0.220398
0.878387 0.647034 0.231384
0.798553 0.296570 0.093597
0.820221 0.330719 0.080261
0.838165 0.393616 0.101990
0.851318 0.475281 0.147797
0.864227 0.550415 0.184906
0.875153 0.622314 0.219452
0.878387 0.647034 0.231384
0.878387 0.647034 0.231384
0.878387 0.647034 0.231384
0.837708 0.391144 0.100647
0.850952 0.472778 0.146423
0.863739 0.547394 0.183380
0.874847 0.620300 0.218475
0.878387 0.647034 0.231384
0.878387 0.647034 0.231384
0.878387 0.647034 0.231384
0.878387 0.647034 0.231384
0.894287 0.687592 0.323425
0.863312 0.544861 0.182129
0.874573 0.618317 0.217529
0.878387 0.647034 0.231384
0.878387 0.647034 0.231384
0.878387 0.647034 0.231384
0.878387 0.647034 0.231384
0.893158 0.684662 0.317291
0.932404 0.787811 0.514832
0.967651 0.885742 0.688171
0.161743 0.021423 0.472687
0.234253 0.000000 0.624603
0.307373 0.079712 0.652802
0.384735 0.170013 0.560699
0.466797 0.201202 0.449097
0.560150 0.197968 0.337463
0.650238 0.164856 0.211060
0.704926 0.156586 0.117188
0.730927 0.188507 0.102356
0.305023 0.075165 0.654419
0.382111 0.168243 0.564453
0.464050 0.200745 0.452271
0.556915 0.198639 0.341553
0.647675 0.166016 0.215027
0.703735 0.156006 0.119049
0.730377 0.186981 0.101807
0.744659 0.231720 0.124756
0.765137 0.263489 0.121857
0.461334 0.200256 0.455536
0.553711 0.199341 0.345612
0.645142 0.167206 0.219025
0.702484 0.155487 0.120911
0.729736 0.185242 0.101166
0.744171 0.230347 0.124146
0.764404 0.262695 0.122345
0.787201 0.284698 0.103912
0.809662 0.311157 0.084656
0.642548 0.168457 0.223022
0.701263 0.154968 0.122986
0.729187 0.183746 0.100708
0.743713 0.229034 0.123505
0.763672 0.261902 0.122833
0.786469 0.283997 0.104584
0.808929 0.310120 0.085144
0.829224 0.355835 0.084869
0.844788 0.431732 0.123230
0.728607 0.182220 0.100311
0.743225 0.227722 0.122894
0.762787 0.260895 0.123383
0.785736 0.283295 0.105286
0.808197 0.309082 0.085632
0.828644 0.353790 0.084198
0.844360 0.429016 0.121704
0.856689 0.506805 0.163849
0.869476 0.583557 0.200806
0.762054 0.260071 0.123840
0.784973 0.282623 0.105988
0.807495 0.308014 0.086182
0.828003 0.351837 0.083618
0.843933 0.426361 0.120148
0.856262 0.504517 0.162720
0.869141 0.581085 0.199615
0.877869 0.642883 0.229340
0.878387 0.647034 0.231384
0.806641 0.306793 0.086853
0.827393 0.349854 0.083038
0.843475 0.423645 0.118652
0.855865 0.502197 0.161652
0.868774 0.578644 0.198425
0.877655 0.641266 0.228577
0.878387 0.647034 0.231384
0.878387 0.647034 0.231384
0.878387 0.647034 0.231384
0.843048 0.420929 0.117065
0.855408 0.499908 0.160522
0.868378 0.576172 0.197266
0.877472 0.639801 0.227905
0.878387 0.647034 0.231384
0.878387 0.647034 0.231384
0.878387 0.647034 0.231384
0.878387 0.647034 0.231384
0.908264 0.723724 0.395813
0.867981 0.573669 0.196075
0.877258 0.638367 0.227203
0.878387 0.647034 0.231384
0.878387 0.647034 0.231384
0.878387 0.647034 0.231384
0.878387 0.647034 0.231384
0.906982 0.720337 0.389160
0.945618 0.823730 0.579102
0.980011 0.921478 0.750610
0.187988 0.003540 0.531250
0.262024 0.000000 0.651764
0.334747 0.122253 0.626801
0.414368 0.186249 0.518280
0.499207 0.204407 0.412048
0.595428 0.187927 0.290894
0.676086 0.153687 0.168610
0.717133 0.163727 0.102722
0.736298 0.205414 0.110596
0.332306 0.119049 0.629608
0.411682 0.185120 0.522064
0.495636 0.204315 0.416199
0.592316 0.188965 0.295044
0.674011 0.154419 0.172089
0.716156 0.163025 0.103516
0.735840 0.203918 0.109772
0.750946 0.245331 0.128571
0.773529 0.271759 0.115723
0.492706 0.204193 0.419647
0.589203 0.189941 0.299255
0.671967 0.155243 0.175568
0.715118 0.162323 0.104431
0.735413 0.202362 0.108887
0.750336 0.244202 0.128510
0.772736 0.271088 0.116302
0.795593 0.293304 0.096222
0.817413 0.324768 0.080750
0.669403 0.156311 0.179932
0.714050 0.161652 0.105499
0.734955 0.200867 0.108093
0.749695 0.243103 0.128357
0.772003 0.270386 0.116882
0.794739 0.292328 0.097015
0.816742 0.323395 0.080963
0.835602 0.381256 0.095673
0.849335 0.461853 0.140381
0.734497 0.199371 0.107330
0.749084 0.241913 0.128174
0.771301 0.269653 0.117462
0.794006 0.291565 0.097748
0.816040 0.322113 0.081207
0.835083 0.378906 0.094513
0.848938 0.459198 0.138885
0.861572 0.534698 0.177338
0.873322 0.609497 0.213257
0.770538 0.268921 0.118042
0.793274 0.290802 0.098450
0.815338 0.320831 0.081451
0.834442 0.376068 0.093140
0.848541 0.456512 0.137451
0.861145 0.532227 0.176086
0.873047 0.607330 0.212250
0.878387 0.647034 0.231384
0.878387 0.647034 0.231384
0.814667 0.319519 0.081757
0.833923 0.373688 0.092072
0.848145 0.453888 0.135895
0.860718 0.529663 0.174866
0.872742 0.605072 0.211182
0.878387 0.647034 0.231384
0.878387 0.647034 0.231384
0.878387 0.647034 0.231384
0.878387 0.647034 0.231384
0.847748 0.451202 0.134430
0.860199 0.526672 0.173462
0.872406 0.602844 0.210083
0.878387 0.647034 0.231384
0.878387 0.647034 0.231384
0.878387 0.647034 0.231384
0.878387 0.647034 0.231384
0.885681 0.665527 0.275452
0.923431 0.763672 0.470856
0.872070 0.600555 0.208984
0.878387 0.647034 0.231384
0.878387 0.647034 0.231384
0.878387 0.647034 0.231384
0.878387 0.647034 0.231384
0.884766 0.663177 0.270111
0.922089 0.760132 0.464386
0.958313 0.859131 0.641571
0.991333 0.955078 0.809265
0.215149 0.000000 0.590240
0.287811 0.036713 0.662292
0.363525 0.153442 0.590454
0.444489 0.196564 0.476807
0.533936 0.202515 0.370300
0.628418 0.174805 0.244141
0.694519 0.152649 0.134949
0.726196 0.176544 0.099304
0.741241 0.221832 0.119812
0.360962 0.151093 0.593903
0.441803 0.195862 0.480377
0.530762 0.202881 0.374207
0.625610 0.176025 0.248291
0.693176 0.152222 0.137543
0.725586 0.175140 0.099182
0.740784 0.220459 0.119080
0.759094 0.256622 0.125641
0.781860 0.279633 0.108734
0.527649 0.203247 0.378052
0.622772 0.177277 0.252441
0.691772 0.151855 0.140137
0.724792 0.173492 0.099152
0.740356 0.219025 0.118286
0.758331 0.255768 0.126038
0.781097 0.278961 0.109406
0.803741 0.302917 0.089111
0.824799 0.342102 0.081238
0.690338 0.151520 0.142883
0.724152 0.172150 0.099213
0.739929 0.217529 0.117462
0.757568 0.254883 0.126434
0.780334 0.278259 0.110077
0.803040 0.302002 0.089722
0.824127 0.340393 0.080963
0.841156 0.409729 0.110809
0.853790 0.490601 0.155884
0.739502 0.216125 0.116638
0.756683 0.253723 0.126892
0.779602 0.277557 0.110718
0.802338 0.301117 0.090363
0.823486 0.338654 0.080719
0.840698 0.407104 0.109283
0.853333 0.487701 0.154358
0.866272 0.563141 0.190948
0.876434 0.631836 0.224060
0.778900 0.276855 0.111328
0.801605 0.300171 0.090973
0.822845 0.337036 0.080536
0.840240 0.404449 0.107819
0.852936 0.485291 0.153137
0.865875 0.560577 0.189758
0.876221 0.630127 0.223236
0.878387 0.647034 0.231384
0.878387 0.647034 0.231384
0.822235 0.335388 0.080383
0.839722 0.401855 0.106445
0.852539 0.482819 0.151794
0.865448 0.558044 0.188568
0.875916 0.627930 0.222168
0.878387 0.647034 0.231384
0.878387 0.647034 0.231384
0.878387 0.647034 0.231384
0.878387 0.647034 0.231384
0.852142 0.480316 0.150513
0.865082 0.555542 0.187317
0.875671 0.626129 0.221283
0.878387 0.647034 0.231384
0.878387 0.647034 0.231384
0.878387 0.647034 0.231384
0.878387 0.647034 0.231384
0.897858 0.696747 0.342285
0.937531 0.801666 0.539703
0.875427 0.624207 0.220398
0.878387 0.647034 0.231384
0.878387 0.647034 0.231384
0.878387 0.647034 0.231384
0.878387 0.647034 0.231384
0.896637 0.693604 0.335968
0.936310 0.798431 0.533875
0.971039 0.895477 0.705109
1.000000 0.981232 0.854858
