luts/Thermal.cube
#Created by: Adobe Photoshop Export Color Lookup Plugin
TITLE "THERMAL"
#LUT size
LUT_3D_SIZE 5
#data domain
DOMAIN_MIN 0.0 0.0 0.0
DOMAIN_MAX 1.0 1.0 1.0
#LUT data points
0.016663 0.016693 0.223541
0.147461 0.025726 0.444275
0.292542 0.048584 0.660919
0.450470 0.197968 0.469086
0.634521 0.172089 0.235199
0.287811 0.036713 0.662292
0.444489 0.196564 0.476807
0.628998 0.174530 0.243347
0.726196 0.176544 0.099304
0.759796 0.257507 0.125214
0.622772 0.177277 0.252441
0.724915 0.173767 0.099152
0.758331 0.255768 0.126038
0.803741 0.302917 0.089111
0.841644 0.412384 0.112244
0.756836 0.253937 0.126831
0.802338 0.301117 0.090363
0.840698 0.407104 0.109283
0.866272 0.563141 0.190948
0.878387 0.647034 0.231384
0.839722 0.401855 0.106445
0.865448 0.558044 0.188568
0.878387 0.647034 0.231384
0.878387 0.647034 0.231384
0.899353 0.700531 0.349976
0.054840 0.021332 0.289917
0.200317 0.000000 0.559021
0.347778 0.137817 0.611176
0.514465 0.204224 0.393951
0.685547 0.150848 0.152191
0.342743 0.132080 0.617401
0.508331 0.204407 0.401306
0.681885 0.151764 0.158539
0.737610 0.209900 0.113129
0.776611 0.274780 0.113190
0.678070 0.152985 0.165192
0.736725 0.206909 0.111420
0.775024 0.273193 0.114532
0.819550 0.329285 0.080322
0.850952 0.472778 0.146423
0.773529 0.271759 0.115723
0.818115 0.326141 0.080566
0.850159 0.467590 0.143585
0.874298 0.616241 0.216583
0.878387 0.647034 0.231384
0.849335 0.461853 0.140381
0.873688 0.612061 0.214508
0.878387 0.647034 0.231384
0.878387 0.647034 0.231384
0.928589 0.777618 0.496338
0.108826 0.025391 0.378693
0.254395 0.000000 0.645691
0.406372 0.182526 0.529694
0.586121 0.190948 0.303406
0.714050 0.161652 0.105499
0.400513 0.179535 0.538086
0.579865 0.192902 0.311768
0.711945 0.160309 0.107758
0.748505 0.240723 0.127930
0.793274 0.290802 0.098450
0.709717 0.158997 0.110474
0.747406 0.238342 0.127289
0.791779 0.289307 0.099731
0.833374 0.371429 0.091064
0.860199 0.526672 0.173462
0.790344 0.287750 0.101105
0.832245 0.366882 0.089081
0.859314 0.521729 0.171021
0.878387 0.647034 0.231384
0.878387 0.647034 0.231384
0.858459 0.516876 0.168701
0.878387 0.647034 0.231384
0.878387 0.647034 0.231384
0.882172 0.656677 0.254883
0.954895 0.849518 0.624542
0.161743 0.021423 0.472687
0.307373 0.079712 0.652802
0.466797 0.201202 0.449097
0.650238 0.164856 0.211060
0.730927 0.188507 0.102356
0.461334 0.200256 0.455536
0.645142 0.167206 0.219025
0.729736 0.185242 0.101166
0.764404 0.262695 0.122345
0.809662 0.311157 0.084656
0.728607 0.182220 0.100311
0.762787 0.260895 0.123383
0.808197 0.309082 0.085632
0.844360 0.429016 0.121704
0.869476 0.583557 0.200806
0.806641 0.306793 0.086853
0.843475 0.423645 0.118652
0.868774 0.578644 0.198425
0.878387 0.647034 0.231384
0.878387 0.647034 0.231384
0.867981 0.573669 0.196075
0.878387 0.647034 0.231384
0.878387 0.647034 0.231384
0.906982 0.720337 0.389160
0.980011 0.921478 0.750610
0.215149 0.000000 0.590240
0.363525 0.153442 0.590454
0.533936 0.202515 0.370300
0.694519 0.152649 0.134949
0.741241 0.221832 0.119812
0.527649 0.203247 0.378052
0.691772 0.151855 0.140137
0.740356 0.219025 0.118286
0.781097 0.278961 0.109406
0.824799 0.342102 0.081238
0.739502 0.216125 0.116638
0.779602 0.277557 0.110718
0.823486 0.338654 0.080719
0.853333 0.487701 0.154358
0.876434 0.631836 0.224060
0.822235 0.335388 0.080383
0.852539 0.482819 0.151794
0.875916 0.627930 0.222168
0.878387 0.647034 0.231384
0.878387 0.647034 0.231384
0.875427 0.624207 0.220398
0.878387 0.647034 0.231384
0.878387 0.647034 0.231384
0.936310 0.798431 0.533875
1.000000 0.981232 0.854858
