luts/Violet Midlight.cube
TITLE "Generated by Resolve"
LUT_3D_SIZE 33
0 0 0
0.0259556 0 0.00158694
0.0529793 0 0.0043183
0.0800183 0 0.00645457
0.107439 0 0.00949111
0.134951 0 0.0108949
0.163378 0 0.0129244
0.192737 0 0.0148165
0.223056 0 0.0166476
0.254978 0 0.0203555
0.287175 0 0.0222477
0.319905 0 0.0240482
0.352972 0 0.0258335
0.385397 0 0.0248264
0.418296 0 0.0264439
0.451301 0 0.0281682
0.485267 0 0.0332952
0.51754 0 0.0314031
0.550591 0 0.0330663
0.583398 0 0.0348058
0.616007 0 0.03682
0.649073 0 0.0435035
0.680339 0 0.0458076
0.709621 0 0.0430304
0.740764 0 0.0507515
0.768704 0 0.0479438
0.797436 0 0.0507362
0.82707 0 0.0595407
0.853468 0 0.0564736
0.881224 0 0.0595712
0.909072 0 0.0628672
0.937255 0 0.0664378
0.967041 0 0.0770581
0 0.0202945 0.00613413
0.0138247 0.0199283 0
0.0448005 0.0162966 0
0.0730297 0.0128939 0
0.100694 0.00958267 0
0.128618 0.00619516 0
0.157183 0.00260929 0
0.186801 0 0.0015259
0.217182 0 0.00344854
0.248539 0 0.00527962
0.280735 0 0.00706493
0.313512 0 0.00881972
0.346639 0 0.0105745
0.379995 0 0.0125124
0.412985 0 0.0142977
0.446021 0 0.0161288
0.479301 0 0.0180056
0.512673 0 0.0199435
0.546014 0 0.0220188
0.579232 0 0.0242466
0.611917 0 0.0264286
0.644114 0 0.0287785
0.675685 0 0.0312963
0.706615 0 0.0339818
0.736904 0 0.0368505
0.766598 0 0.0399481
0.795636 0 0.0431373
0.824323 0 0.0465248
0.852781 0 0.0501106
0.881071 0 0.0538033
0.909499 0 0.0577554
0.938216 0 0.0619516
0.966934 0 0.0663157
0 0.0410163 0.0125887
0 0.042237 0
0.0276188 0.0398871 0
0.0592508 0.0358129 0
0.0893568 0.0317845 0
0.118685 0.0279088 0
0.148302 0.0241093 0
0.178393 0.0200351 0
0.209247 0.0157321 0
0.24239 0.0106203 0
0.273518 0.0065156 0
0.306569 0.00167849 0
0.340108 0 0
0.373571 0 0
0.406851 0 0.000259403
0.440208 0 0.00238041
0.473762 0 0.00451667
0.507439 0 0.00674449
0.541238 0 0.00923171
0.574701 0 0.0117189
0.607828 0 0.0143282
0.640421 0 0.0170596
0.672374 0 0.0199588
0.703929 0 0.02327
0.734722 0 0.0266423
0.764858 0 0.0301823
0.794385 0 0.0338293
0.82356 0 0.0377203
0.852644 0 0.0419471
0.881865 0 0.0465705
0.910933 0 0.0511482
0.940154 0 0.0558328
0.969467 0 0.0607919
0 0.0612345 0.0184939
0 0.0628977 0
0.0104219 0.062211 0
0.0407874 0.0592355 0
0.0730144 0.0550698 0
0.104921 0.0508736 0
0.136202 0.04654 0
0.16875 0.0417487 0
0.204425 0.0357824 0
0.243381 0.0285496 0
0.26537 0.0285191 0
0.299077 0.0238041 0
0.332982 0.0190738 0
0.366903 0.0144045 0
0.400626 0.00993362 0
0.43444 0.00560006 0
0.468696 0.00155642 0
0.502861 0 0
0.536934 0 0
0.570871 0 3.0518e-05
0.604517 0 0.00314336
0.637736 0 0.00646983
0.670466 0 0.010132
0.702342 0 0.0137484
0.733654 0 0.0176089
0.764477 0 0.0218204
0.794797 0 0.0262913
0.82472 0 0.0309148
0.854551 0 0.0358587
0.884245 0 0.0409552
0.914168 0 0.0463874
0.944366 0 0.0520333
0.974487 0 0.0578164
0 0.0813153 0.0240787
0 0.083238 0.00239567
0 0.0835889 0
0.0229648 0.0821241 0
0.0543069 0.0790112 0
0.0873426 0.074815 0
0.123659 0.069337 0
0.162051 0.062974 0
0.20325 0.0554665 0
0.24715 0.0469673 0
0.255879 0.0517891 0
0.290455 0.0471046 0
0.325216 0.0425574 0
0.35993 0.0381628 0
0.394339 0.0339513 0
0.428946 0.030045 0
0.463661 0.026154 0
0.498512 0.022446 0
0.533318 0.0189364 0
0.56788 0.01561 0
0.60209 0.0125734 0
0.636149 0.010193 0
0.669474 0.00810254 0.00131228
0.702174 0.00640879 0.00572213
0.734203 0.00503548 0.0102693
0.765637 0.00410468 0.0150607
0.796948 0.00395209 0.0204776
0.827771 0.00404364 0.0260014
0.858396 0.00442512 0.0317388
0.888853 0.0049897 0.0375677
0.919387 0.00578317 0.043595
0.950271 0.00686656 0.0499275
0.981491 0.00849927 0.0567788
0 0.101762 0.0296941
0 0.103914 0.00798047
0 0.105013 0
0.0065919 0.104677 0
0.0360266 0.102739 0
0.0684215 0.0995346 0
0.102724 0.0953841 0
0.14638 0.0881666 0
0.197711 0.0783398 0
0.244877 0.069276 0
0.244984 0.0769665 0
0.280827 0.0723735 0
0.316686 0.0679637 0
0.352544 0.0639353 0
0.388052 0.0601968 0
0.423423 0.0565499 0
0.458915 0.0529946 0
0.494514 0.0496529 0
0.530144 0.0466621 0
0.565835 0.0441901 0
0.601007 0.0418708 0
0.635584 0.039826 0
0.669627 0.0382696 0
0.703212 0.0372931 0
0.736263 0.0368353 0.00450141
0.768917 0.0369879 0.0104677
0.800717 0.037232 0.0163424
0.832212 0.0378882 0.0224765
0.863569 0.0389258 0.0289311
0.894896 0.0402838 0.0355993
0.926192 0.0417487 0.042359
0.957916 0.0436103 0.0495155
0.98941 0.0454719 0.0566415
0 0.122942 0.035523
0 0.125521 0.0140993
0 0.127123 0
0 0.127581 0
0.0189517 0.126802 0
0.0500343 0.124788 0
0.0840314 0.121752 0
0.120134 0.117906 0
0.158511 0.113039 0
0.221363 0.100313 0
0.232395 0.104372 0
0.269978 0.100038 0
0.307439 0.0959945 0
0.344518 0.0921798 0
0.381109 0.0886702 0
0.417685 0.0855116 0
0.454414 0.0825818 0
0.491066 0.0798047 0
0.527779 0.0774395 0
0.564263 0.0754101 0
0.600488 0.0737926 0
0.636225 0.0726329 0
0.671244 0.071809 0
0.705577 0.071397 0
0.739651 0.0717632 0.000137331
0.772915 0.0723735 0.00663767
0.805615 0.0733654 0.0133516
0.837827 0.0746014 0.0201419
0.869764 0.076112 0.0271153
0.901961 0.078233 0.0346227
0.934051 0.0803693 0.0421302
0.966232 0.0825971 0.0496986
0.998291 0.0849317 0.0573434
0 0.145281 0.0419165
0 0.148058 0.0205844
0 0.150225 0
0 0.151568 0
0.00325017 0.151858 0
0.0329442 0.151064 0
0.066041 0.149279 0
0.101823 0.146426 0
0.139635 0.142824 0
0.178759 0.138643 0
0.218219 0.134386 0
0.257923 0.130541 0
0.297139 0.126833 0
0.335882 0.123415 0
0.373938 0.120302 0
0.411795 0.117525 0
0.449928 0.115236 0
0.488151 0.113344 0
0.526055 0.111604 0
0.563577 0.110094 0
0.600687 0.108965 0
0.637369 0.108354 0
0.673594 0.108431 0
0.70901 0.108797 0
0.743557 0.109392 0
0.777478 0.11043 0.00350958
0.810895 0.111955 0.0108186
0.843931 0.113848 0.0183719
0.876875 0.116197 0.0262608
0.909407 0.118517 0.0340429
0.941939 0.120974 0.0419318
0.974685 0.123613 0.0500038
1 0.126467 0.0581979
0 0.168963 0.0490425
0 0.172137 0.0280461
0 0.174838 0.00738537
0 0.176959 0
0 0.178531 0
0.0176547 0.178912 0
0.049485 0.178195 0
0.084535 0.176516 0
0.122316 0.174075 0
0.162203 0.171038 0
0.203525 0.167651 0
0.2448 0.164004 0
0.285832 0.160662 0
0.326528 0.157763 0
0.366522 0.155352 0
0.40618 0.153307 0
0.445777 0.151507 0
0.4851 0.149889 0
0.524269 0.148684 0
0.563088 0.147845 0
0.601312 0.14728 0
0.639033 0.147234 0
0.676036 0.147662 0
0.712245 0.14847 0
0.747738 0.149691 0
0.782406 0.151217 0.00105287
0.816434 0.153079 0.00883497
0.850355 0.155642 0.0171359
0.883696 0.158175 0.0252995
0.916854 0.160922 0.0335851
0.949905 0.163729 0.041886
0.983032 0.166598 0.050248
1 0.169879 0.0590066
0 0.194339 0.0572213
0 0.198093 0.0367742
0 0.201434 0.0165103
0 0.204471 0
0 0.20676 0
0.00392157 0.208362 0
0.0349737 0.209094 0
0.0692607 0.208774 0
0.106554 0.207553 0
0.14667 0.205844 0
0.188556 0.203494 0
0.231479 0.200839 0
0.274449 0.198108 0
0.316808 0.195621 0
0.358801 0.193866 0
0.400092 0.192264 0
0.441199 0.190875 0
0.48191 0.18967 0
0.522255 0.188769 0
0.56228 0.188373 0
0.601938 0.188571 0
0.64062 0.188891 0
0.67837 0.189563 0
0.715312 0.190646 0
0.751522 0.192203 0
0.787182 0.194339 0
0.82211 0.196796 0.00741588
0.85626 0.199298 0.0157473
0.890043 0.202014 0.0241855
0.923629 0.204944 0.0327459
0.957153 0.208011 0.0413825
0.990906 0.211307 0.0502632
1 0.214588 0.0590524
0 0.221683 0.0668498
0 0.226215 0.0471351
0 0.230411 0.0275578
0 0.23418 0.00854505
0 0.237385 0
0 0.240009 0
0.0226596 0.242008 0
0.0567025 0.243519 0
0.0935683 0.243824 0
0.133196 0.243198 0
0.175082 0.241901 0
0.218524 0.240253 0
0.26276 0.238422 0
0.307179 0.236851 0
0.350408 0.235218 0
0.393179 0.233921 0
0.435889 0.232883 0
0.478172 0.232166 0
0.519966 0.231754 0
0.561303 0.2318 0
0.60174 0.231983 0
0.641428 0.232624 0
0.680217 0.233707 0
0.718013 0.235096 0
0.755016 0.236957 0
0.791302 0.239292 0
0.826612 0.241764 0.00553903
0.861341 0.244495 0.0141756
0.895582 0.247349 0.0228275
0.929503 0.250324 0.0315251
0.963623 0.253712 0.0405585
0.997375 0.256748 0.0492561
1 0.259861 0.0579538
0 0.251667 0.0787671
0 0.256672 0.0594949
0 0.261509 0.0404212
0 0.266239 0.0220493
0 0.270634 0.00428779
0 0.274449 0
0.0135348 0.27779 0
0.0465858 0.280201 0
0.0828717 0.281834 0
0.122118 0.282612 0
0.163806 0.282536 0
0.207218 0.281834 0
0.252094 0.281132 0
0.297154 0.280079 0
0.341924 0.279072 0
0.386191 0.278172 0
0.430137 0.277394 0
0.474113 0.277211 0
0.517205 0.277058 0
0.559594 0.27718 0
0.601099 0.277562 0
0.641657 0.278309 0
0.681254 0.279515 0
0.720165 0.281392 0
0.757778 0.283299 0
0.7944 0.285481 0
0.830152 0.287922 0.00367742
0.865217 0.290593 0.0122988
0.89987 0.293492 0.0210575
0.93431 0.296651 0.029984
0.968338 0.299611 0.0386816
1 0.302541 0.0473487
1 0.305501 0.0559548
0 0.284001 0.0928206
0 0.289891 0.0744335
0 0.295552 0.0560616
0 0.300969 0.0381476
0 0.306371 0.0209354
0 0.31133 0.0041352
0.00688182 0.315572 0
0.039353 0.31902 0
0.0748608 0.321691 0
0.113451 0.323583 0
0.155001 0.325017 0
0.198337 0.325521 0
0.242908 0.325414 0
0.288151 0.325048 0
0.333562 0.324651 0
0.378988 0.324269 0
0.424643 0.324193 0
0.469398 0.323888 0
0.513527 0.323827 0
0.557046 0.32401 0
0.599603 0.324544 0
0.641093 0.325383 0
0.681758 0.326894 0
0.720943 0.328374 0
0.75906 0.330159 0
0.796155 0.332265 0
0.832303 0.3346 0.00170901
0.867796 0.337209 0.0102998
0.902907 0.340154 0.0191043
0.937316 0.342885 0.0276341
0.971511 0.345647 0.0361791
1 0.348394 0.0447242
1 0.351186 0.0532235
0 0.318776 0.109285
0 0.325368 0.0915694
0 0.331868 0.073991
0 0.338262 0.0568704
0 0.344289 0.0399329
0 0.349874 0.0231632
0.00256352 0.355016 0.00672923
0.0347448 0.359548 0
0.0697185 0.363272 0
0.10779 0.366354 0
0.14844 0.368536 0
0.191257 0.36997 0
0.23566 0.370855 0
0.280888 0.371283 0
0.326329 0.371466 0
0.372503 0.371832 0
0.418509 0.371771 0
0.464363 0.371664 0
0.509514 0.371679 0
0.553796 0.371878 0
0.597421 0.372625 0
0.639735 0.373342 0
0.68072 0.374365 0
0.72047 0.375723 0
0.759106 0.377371 0
0.796613 0.379263 0
0.833448 0.38172 0.000183108
0.869154 0.384054 0.0084535
0.90425 0.386526 0.0167544
0.938888 0.389029 0.0250706
0.973144 0.391455 0.0332952
1 0.39382 0.0414435
1 0.396506 0.0498817
0 0.355901 0.128237
0 0.362997 0.110994
0 0.370352 0.0942092
0 0.377325 0.0775311
0 0.384024 0.0609903
0 0.390295 0.0444953
0.000701915 0.396094 0.0280461
0.032639 0.401511 0.0120241
0.0673075 0.406317 0
0.10457 0.410117 0
0.144427 0.413077 0
0.186511 0.415259 0
0.23032 0.416846 0
0.275456 0.418219 0
0.320882 0.419135 0
0.366613 0.419608 0
0.412757 0.419791 0
0.458961 0.419791 0
0.504829 0.419776 0
0.550134 0.420172 0
0.594186 0.420539 0
0.636988 0.421088 0
0.678599 0.421881 0
0.718837 0.42298 0
0.7579 0.424414 0
0.796155 0.426429 0
0.832929 0.428275 0
0.868788 0.430213 0.00639353
0.903944 0.432227 0.0141909
0.938659 0.434348 0.0220645
0.973159 0.436576 0.0300298
1 0.439155 0.0384222
1 0.44155 0.0465553
0 0.395026 0.149172
0 0.403006 0.13283
0 0.410559 0.116167
0 0.41796 0.099794
0 0.425223 0.0836194
0 0.432181 0.0674449
0.000900282 0.438773 0.0512551
0.0324712 0.444816 0.0350347
0.0663462 0.450019 0.0190433
0.102892 0.45449 0.00376898
0.142046 0.458183 0
0.183368 0.461082 0
0.226596 0.463447 0
0.270939 0.465202 0
0.31574 0.466407 0
0.36112 0.467216 0
0.40708 0.467658 0
0.453239 0.467842 0
0.499596 0.468208 0
0.545068 0.468193 0
0.589593 0.468299 0
0.632959 0.468666 0
0.674952 0.469276 0
0.715785 0.470314 0
0.755261 0.471351 0
0.793362 0.472572 0
0.830381 0.474083 0
0.866621 0.475853 0.00416571
0.902251 0.477836 0.0117647
0.937774 0.480262 0.0198367
0.972763 0.482506 0.0277409
1 0.484733 0.0356909
1 0.487129 0.0437781
0 0.436027 0.171878
0 0.444266 0.155779
0 0.452369 0.139651
0 0.460243 0.123629
0 0.467842 0.107637
0 0.475502 0.0918898
0.00215152 0.482429 0.0755779
0.0331579 0.488807 0.0590982
0.0665141 0.494484 0.0425879
0.102266 0.499397 0.0265354
0.140597 0.503624 0.0114595
0.181216 0.50721 0
0.223346 0.509834 0
0.266743 0.511864 0
0.310842 0.51342 0
0.355627 0.514504 0
0.401297 0.515297 0
0.447333 0.515785 0
0.493187 0.515908 0
0.538689 0.515862 0
0.583352 0.515724 0
0.626963 0.515679 0
0.669444 0.516106 0
0.710552 0.516762 0
0.750347 0.517647 0
0.788983 0.518868 0
0.826734 0.520333 0
0.863508 0.522087 0.00270085
0.899931 0.524315 0.0103151
0.935729 0.526513 0.0179599
0.971252 0.528817 0.0257725
1 0.531182 0.0337224
1 0.533639 0.0418097
0 0.47834 0.19588
0 0.486824 0.180011
0 0.495201 0.164111
0 0.503426 0.148394
0 0.511711 0.132921
0 0.519295 0.116854
0.00396735 0.526406 0.100404
0.0344549 0.532998 0.0835889
0.0671702 0.538949 0.0666056
0.102251 0.544259 0.0499428
0.139864 0.549004 0.0341039
0.179278 0.552697 0.0191501
0.220401 0.555627 0.00578317
0.262852 0.557946 0
0.306111 0.559792 0
0.350347 0.561257 0
0.395407 0.562234 0
0.440635 0.562524 0
0.485954 0.562539 0
0.531075 0.562417 0
0.575814 0.562264 0
0.620005 0.562646 0
0.662898 0.562905 0
0.704509 0.56347 0
0.744884 0.56434 0
0.784115 0.56556 0
0.822492 0.56733 0
0.860044 0.56936 0.00271611
0.896956 0.571374 0.00994888
0.933242 0.573541 0.017319
0.969223 0.575784 0.0248569
1 0.578058 0.032517
1 0.580667 0.040589
0 0.521508 0.220813
0 0.530221 0.205173
0 0.538735 0.189395
0 0.547387 0.174014
0 0.555413 0.158175
0 0.563104 0.142031
0.00614939 0.570352 0.125414
0.0361486 0.577096 0.108324
0.0685283 0.583551 0.0912642
0.102785 0.588922 0.0737621
0.139223 0.593591 0.0567788
0.177691 0.597543 0.0407568
0.217853 0.600732 0.0260777
0.259266 0.603265 0.0131533
0.301747 0.605432 0.00241093
0.344854 0.60679 0
0.388952 0.607675 0
0.433707 0.608209 0
0.478767 0.608545 0
0.523919 0.608835 0
0.568841 0.609201 0
0.61297 0.609384 0
0.656016 0.609857 0
0.698207 0.610559 0
0.739284 0.611597 0
0.779309 0.613092 0
0.818235 0.614878 0
0.856107 0.616678 0.00401312
0.893263 0.618662 0.0106203
0.929885 0.620752 0.0174868
0.966369 0.622827 0.0247196
1 0.625147 0.0321965
1 0.627375 0.0396582
0 0.564965 0.24622
0 0.574014 0.230915
0 0.58262 0.215183
0 0.590951 0.199435
0 0.598993 0.18352
0 0.606683 0.167208
0.00852979 0.613931 0.150332
0.0383764 0.621042 0.133257
0.0697948 0.627237 0.11545
0.103304 0.6327 0.0973068
0.138781 0.637369 0.0794232
0.176135 0.641276 0.0622416
0.215183 0.644526 0.0462806
0.25594 0.647532 0.0323186
0.297368 0.64976 0.0199741
0.339864 0.651545 0.00947585
0.383474 0.652873 0.000686656
0.427787 0.653788 0
0.472618 0.654521 0
0.517784 0.655329 0
0.562463 0.655863 0
0.606638 0.656458 0
0.649943 0.657176 0
0.692302 0.658015 0
0.733989 0.659403 0
0.774273 0.66067 0
0.813413 0.662196 0.000961318
0.851621 0.66389 0.00653086
0.889082 0.665705 0.0124819
0.926055 0.667659 0.0187839
0.962692 0.669688 0.025391
0.998932 0.671443 0.0319524
1 0.673198 0.038819
0 0.608591 0.272068
0 0.617365 0.256474
0 0.625834 0.240604
0 0.634073 0.22472
0 0.642069 0.208667
0 0.649729 0.192187
0.0113985 0.657206 0.175341
0.0402228 0.663798 0.157443
0.0708782 0.66981 0.138994
0.103548 0.675212 0.120302
0.138354 0.680018 0.101717
0.175357 0.68455 0.0841993
0.213779 0.688212 0.0675212
0.253559 0.69131 0.0523384
0.294331 0.69395 0.0389563
0.336233 0.696132 0.0272831
0.379339 0.697917 0.0173037
0.423682 0.699702 0.00943008
0.468193 0.700832 0.00300603
0.51284 0.701747 0
0.55729 0.702525 0
0.601267 0.703288 0
0.644511 0.704173 0
0.687099 0.705425 0
0.728527 0.706462 0
0.768765 0.707668 0.0012665
0.808042 0.708934 0.0053254
0.846372 0.710338 0.00993362
0.884062 0.71194 0.0151064
0.921294 0.71371 0.020737
0.957794 0.71516 0.0263218
0.993973 0.716442 0.0319982
1 0.717708 0.0378271
0 0.651499 0.297581
0 0.660105 0.281819
0 0.668482 0.265812
0 0.676509 0.249699
0 0.684428 0.233478
0 0.69192 0.216724
0.0136873 0.69894 0.199252
0.0421759 0.705592 0.181155
0.0724956 0.711818 0.162585
0.104799 0.717494 0.143679
0.139452 0.722881 0.125002
0.175631 0.727459 0.106737
0.213443 0.731472 0.0894331
0.25272 0.735042 0.0735637
0.293019 0.738186 0.0594339
0.334417 0.740856 0.0468605
0.377325 0.743374 0.0361028
0.420752 0.745098 0.0266423
0.464759 0.746502 0.0188754
0.508995 0.747646 0.0128481
0.553094 0.748608 0.00846876
0.59675 0.749493 0.00569162
0.639963 0.750668 0.00468452
0.681926 0.751507 0.00459297
0.722988 0.752422 0.0056611
0.76318 0.753429 0.0077821
0.802197 0.754543 0.0106355
0.840772 0.755932 0.0144503
0.878233 0.756939 0.0183719
0.915068 0.757946 0.0226749
0.951522 0.758953 0.0272984
0.987671 0.759793 0.0320897
1 0.760555 0.0370336
0 0.693507 0.322667
0 0.701778 0.306554
0 0.709865 0.290257
0 0.717983 0.274174
0 0.725856 0.257862
0 0.733364 0.241047
0.0170138 0.740566 0.22359
0.0453193 0.747387 0.205447
0.0753643 0.75378 0.186755
0.107713 0.760082 0.168048
0.141787 0.76556 0.148913
0.177584 0.77052 0.130343
0.214954 0.774899 0.112566
0.253605 0.778775 0.0960403
0.293523 0.782467 0.0813306
0.334356 0.785473 0.0678721
0.376287 0.787915 0.0557259
0.419104 0.789868 0.0450752
0.462486 0.791409 0.0360113
0.506081 0.792615 0.0285801
0.549905 0.793866 0.0230564
0.593027 0.794705 0.0188296
0.635447 0.795483 0.0160983
0.676997 0.796201 0.0146487
0.717571 0.796872 0.0142977
0.757153 0.797528 0.0149233
0.796231 0.79852 0.0167849
0.834058 0.799298 0.0189975
0.871229 0.799939 0.0217441
0.90782 0.800381 0.0248417
0.943954 0.800702 0.0282444
0.979858 0.800977 0.0319371
1 0.80145 0.0361334
0 0.734478 0.347189
0 0.742901 0.331212
0 0.751324 0.315236
0 0.75935 0.299046
0 0.767193 0.282643
0 0.774823 0.265858
0.0215457 0.782238 0.248508
0.0500038 0.789517 0.23064
0.0801251 0.796399 0.212161
0.111864 0.802579 0.193011
0.145464 0.808255 0.173678
0.180819 0.813367 0.154574
0.217609 0.817945 0.136278
0.255894 0.822263 0.119356
0.295003 0.825956 0.1037
0.334997 0.829007 0.0892042
0.376135 0.831479 0.0759136
0.418112 0.833432 0.0639963
0.460761 0.834989 0.0536355
0.503944 0.836484 0.0451362
0.546777 0.837369 0.0379187
0.589136 0.837964 0.0321508
0.630823 0.838437 0.0278477
0.671748 0.838895 0.0249332
0.711818 0.839307 0.023209
0.751171 0.839963 0.0227512
0.789197 0.840177 0.022797
0.826444 0.840375 0.0235599
0.863249 0.840528 0.0250248
0.899397 0.840604 0.0269169
0.9355 0.840696 0.0294041
0.970977 0.840208 0.0318151
1 0.839689 0.0345006
0 0.775525 0.372244
0 0.784161 0.356497
0 0.792477 0.340398
0 0.800702 0.324392
0 0.808789 0.308171
0.000854505 0.816632 0.291524
0.0276036 0.824308 0.274327
0.0558785 0.831693 0.256413
0.0855573 0.838453 0.237613
0.11696 0.844739 0.21825
0.150118 0.850507 0.198611
0.184939 0.85568 0.179065
0.221408 0.860624 0.16051
0.258686 0.864668 0.14258
0.296864 0.868223 0.125933
0.336065 0.87126 0.110491
0.376394 0.873716 0.0961318
0.41767 0.875761 0.0831769
0.459464 0.877241 0.0715343
0.501442 0.878187 0.0612802
0.54345 0.878859 0.0525978
0.585077 0.879255 0.0454261
0.625986 0.879423 0.0396277
0.6663 0.879637 0.0353399
0.705638 0.879683 0.0321508
0.744091 0.879652 0.0299992
0.781552 0.87953 0.0287175
0.818189 0.879225 0.0280919
0.85417 0.878782 0.0280308
0.890135 0.878462 0.0288548
0.925383 0.877836 0.0298161
0.960494 0.87689 0.0310674
0.995041 0.875685 0.0325322
0 0.816938 0.398154
0 0.825528 0.382361
0 0.833967 0.366384
0 0.842252 0.350378
0 0.850385 0.334203
0.00805676 0.858549 0.317815
0.0345159 0.866102 0.300389
0.0623331 0.873289 0.282139
0.0916609 0.880018 0.263111
0.122576 0.886198 0.243381
0.155245 0.89192 0.223377
0.189578 0.897246 0.203586
0.225086 0.901762 0.183993
0.261601 0.905699 0.165316
0.298863 0.909056 0.147753
0.337072 0.911833 0.131197
0.376562 0.914229 0.115846
0.416938 0.916091 0.101686
0.457679 0.917235 0.0886397
0.498665 0.917861 0.0769513
0.539605 0.91809 0.0666972
0.580331 0.918135 0.0580301
0.620691 0.918227 0.0510414
0.660105 0.917983 0.0452277
0.698558 0.917449 0.0404364
0.736095 0.916823 0.0367132
0.772869 0.916213 0.0340124
0.808927 0.915526 0.0321202
0.844556 0.914885 0.0310216
0.879408 0.913695 0.0300908
0.914137 0.912276 0.0296635
0.948592 0.910796 0.0295872
0.982651 0.909117 0.0298924
0 0.858213 0.424369
0 0.866789 0.40856
0 0.875227 0.392569
0 0.883497 0.376547
0 0.891875 0.36054
0.0154116 0.899611 0.343664
0.0415045 0.906966 0.325978
0.0689097 0.913939 0.307393
0.0977798 0.920485 0.288029
0.128267 0.926589 0.267994
0.160449 0.932265 0.247639
0.193744 0.937041 0.226932
0.228367 0.941207 0.2065
0.264027 0.944915 0.187015
0.30045 0.948074 0.168597
0.338018 0.950896 0.151354
0.376272 0.952728 0.134615
0.415366 0.954009 0.118975
0.455131 0.954864 0.104662
0.495216 0.955245 0.0917067
0.535332 0.955276 0.0802014
0.575158 0.954986 0.0701457
0.614313 0.954345 0.0614176
0.652827 0.953628 0.0540932
0.690562 0.952743 0.0479896
0.727337 0.951659 0.0428626
0.763317 0.950545 0.0387732
0.798642 0.94934 0.0355077
0.833387 0.947967 0.0328527
0.867643 0.946349 0.0307012
0.901564 0.944396 0.0289006
0.935363 0.942138 0.0274205
0.968978 0.939941 0.0265812
0 0.899229 0.45066
0 0.907698 0.434745
0 0.916289 0.418891
0 0.924315 0.402594
0 0.932113 0.386007
0.0225223 0.939635 0.368872
0.0482338 0.946777 0.350881
0.0751202 0.953429 0.331884
0.103655 0.959899 0.312276
