luts/Violet Midlight.cube
TITLE "Generated by Resolve"
LUT_3D_SIZE 5
0 0 0
0.223056 0 0.0166476
0.485267 0 0.0332952
0.740764 0 0.0507515
0.967041 0 0.0770581
0 0.168963 0.0490425
0.122316 0.174075 0
0.445777 0.151507 0
0.747738 0.149691 0
1 0.169879 0.0590066
0 0.436027 0.171878
0.0665141 0.494484 0.0425879
0.401297 0.515297 0
0.750347 0.517647 0
1 0.533639 0.0418097
0 0.775525 0.372244
0.0855573 0.838453 0.237613
0.376394 0.873716 0.0961318
0.705638 0.879683 0.0321508
0.995041 0.875685 0.0325322
0 1 0.566644
0.108888 1 0.406409
0.343572 1 0.2121
0.61503 1 0.0698863
0.869291 1 0.000610361
0.116808 0 0.221408
0.205966 0 0.203967
0.444617 0 0.249348
0.702586 0 0.277775
0.932937 0 0.310155
0.0489662 0.117678 0.306081
0.161563 0.161563 0.161563
0.510445 0.129641 0.260349
0.747173 0.157702 0.262364
1 0.181155 0.329
0 0.399985 0.463264
0.156924 0.476585 0.332357
0.450599 0.51284 0.209751
0.791394 0.515419 0.246647
1 0.535012 0.313405
0.0184176 0.74197 0.66804
0.187701 0.815702 0.532372
0.43331 0.864576 0.360708
0.749462 0.871733 0.276249
1 0.863371 0.279423
0.060502 1 0.856977
0.204578 1 0.691417
0.400473 1 0.476768
0.650919 1 0.310048
0.902235 1 0.233845
0.255726 0 0.486107
0.319173 0 0.413382
0.445457 0 0.441062
0.662882 0 0.500298
0.887572 0 0.554116
0.212451 0.0629435 0.558648
0.308232 0.116152 0.434012
0.442054 0.163607 0.439658
0.71281 0.177325 0.531731
0.979995 0.200977 0.610727
0.196017 0.347356 0.76231
0.344121 0.426749 0.6533
0.503914 0.503914 0.503914
0.85452 0.495445 0.621027
1 0.540307 0.630854
0.212924 0.688792 0.9944
0.358663 0.766445 0.87538
0.527565 0.83592 0.696788
0.796399 0.856428 0.56405
1 0.844343 0.578256
0.237903 0.987549 1
0.355596 1 1
0.497124 1 0.80853
0.697124 1 0.604898
0.93959 1 0.512062
0.389502 0 0.741222
0.45182 0 0.651423
0.537484 0 0.627573
0.686976 0 0.680278
0.878096 0 0.751522
0.356619 0.0160983 0.809674
0.451865 0.0744945 0.698985
0.561212 0.140734 0.650919
0.734722 0.187655 0.730022
0.963409 0.221851 0.831785
0.376699 0.305715 1
0.517891 0.386648 0.910155
0.653712 0.468421 0.775051
0.799969 0.53135 0.797665
1 0.559716 0.892531
0.408865 0.639902 1
0.553323 0.715648 1
0.704189 0.783886 1
0.841184 0.841184 0.841184
1 0.817975 0.937163
0.424842 0.926787 1
0.534173 0.968475 1
0.649866 1 1
0.772183 1 0.914351
0.976425 1 0.781231
0.503487 0 0.957137
0.566094 0 0.860792
0.643534 0 0.808652
0.759335 0 0.837049
0.917311 0 0.908675
0.479133 0 1
0.57731 0.0442817 0.92636
0.687846 0.116869 0.861753
0.825315 0.181521 0.901869
1 0.231022 0.997101
0.520974 0.278889 1
0.655085 0.360967 1
0.783764 0.442817 1
0.903944 0.519692 0.979019
1 0.570947 1
0.568002 0.607187 1
0.708553 0.681788 1
0.85005 0.748333 1
0.962386 0.806714 1
1 0.836744 1
0.581292 0.879301 1
0.688426 0.917723 1
0.802823 0.949493 1
0.912093 0.979065 1
1 1 1
