luts/Violet Midlight.cube
TITLE "Generated by Resolve"
LUT_3D_SIZE 9
0 0 0
0.107439 0 0.00949111
0.223056 0 0.0166476
0.352972 0 0.0258335
0.485267 0 0.0332952
0.616007 0 0.03682
0.740764 0 0.0507515
0.853468 0 0.0564736
0.967041 0 0.0770581
0 0.0813153 0.0240787
0.0543069 0.0790112 0
0.20325 0.0554665 0
0.325216 0.0425574 0
0.463661 0.026154 0
0.60209 0.0125734 0
0.734203 0.00503548 0.0102693
0.858396 0.00442512 0.0317388
0.981491 0.00849927 0.0567788
0 0.168963 0.0490425
0 0.178531 0
0.122316 0.174075 0
0.285832 0.160662 0
0.445777 0.151507 0
0.601312 0.14728 0
0.747738 0.149691 0
0.883696 0.158175 0.0252995
1 0.169879 0.0590066
0 0.284001 0.0928206
0 0.306371 0.0209354
0.0748608 0.321691 0
0.242908 0.325414 0
0.424643 0.324193 0
0.599603 0.324544 0
0.75906 0.330159 0
0.902907 0.340154 0.0191043
1 0.351186 0.0532235
0 0.436027 0.171878
0 0.467842 0.107637
0.0665141 0.494484 0.0425879
0.223346 0.509834 0
0.401297 0.515297 0
0.583352 0.515724 0
0.750347 0.517647 0
0.899931 0.524315 0.0103151
1 0.533639 0.0418097
0 0.608591 0.272068
0 0.642069 0.208667
0.0708782 0.66981 0.138994
0.213779 0.688212 0.0675212
0.379339 0.697917 0.0173037
0.55729 0.702525 0
0.728527 0.706462 0
0.884062 0.71194 0.0151064
1 0.717708 0.0378271
0 0.775525 0.372244
0 0.808789 0.308171
0.0855573 0.838453 0.237613
0.221408 0.860624 0.16051
0.376394 0.873716 0.0961318
0.54345 0.878859 0.0525978
0.705638 0.879683 0.0321508
0.85417 0.878782 0.0280308
0.995041 0.875685 0.0325322
0 0.939467 0.476402
0.00462348 0.971191 0.410544
0.108217 0.997391 0.334874
0.232151 1 0.247654
0.372076 1 0.167605
0.52282 1 0.102922
0.670558 1 0.059556
0.807004 1 0.0336614
0.938262 0.995636 0.0183566
0 1 0.566644
0.0164797 1 0.492164
0.108888 1 0.406409
0.218997 1 0.306981
0.343572 1 0.2121
0.479393 1 0.130404
0.61503 1 0.0698863
0.743221 1 0.0289158
0.869291 1 0.000610361
0.0556039 0 0.105531
0.0995651 0 0.0986191
0.204273 0 0.12079
0.333974 0 0.133394
0.467094 0 0.142809
0.599588 0 0.15172
0.724117 0 0.16199
0.839139 0 0.174548
0.95201 0 0.189563
0.0229038 0.0556954 0.145632
0.0701457 0.0701457 0.0701457
0.209995 0.0486 0.0910353
0.373404 0.0181125 0.152346
0.456077 0.0256352 0.102068
0.593393 0.0139467 0.112734
0.725719 0.00776684 0.130159
0.851957 0.00769055 0.15758
0.975723 0.0126955 0.183688
0 0.145571 0.181704
0.0252384 0.164172 0.101488
0.141314 0.168368 0.0366217
0.355428 0.14049 0.0463111
0.454871 0.150607 0.0674144
0.606714 0.148684 0.0935378
0.751308 0.152865 0.122988
0.886366 0.162707 0.155138
1 0.175006 0.188602
0 0.265248 0.23125
0 0.293629 0.159686
0.103304 0.317037 0.0855268
0.266346 0.324147 0.042649
0.446967 0.32311 0.0524605
0.618204 0.325093 0.0819104
0.773678 0.331746 0.115587
0.914473 0.342397 0.150256
1 0.353765 0.184207
0 0.420996 0.314107
0 0.456794 0.249882
0.104036 0.488685 0.178653
0.249958 0.508446 0.110887
0.425406 0.514687 0.0798505
0.606897 0.514595 0.0847791
0.771679 0.516915 0.108125
0.918624 0.524285 0.138399
1 0.534432 0.171496
0 0.594369 0.415015
0.01149 0.630472 0.351202
0.112612 0.661585 0.277287
0.244373 0.684306 0.197559
0.404547 0.696834 0.139773
0.581491 0.702007 0.115084
0.752483 0.705577 0.119127
0.906508 0.710567 0.138247
1 0.715953 0.162676
0 0.76109 0.514885
0.0299992 0.796948 0.450919
0.130663 0.829633 0.377707
0.25565 0.854887 0.294011
0.403113 0.870527 0.221714
0.566476 0.876387 0.172229
0.727245 0.87657 0.149355
0.875013 0.874571 0.145235
1 0.870268 0.150454
0 0.925002 0.618921
0.0584726 0.957946 0.552117
0.153155 0.98584 0.473655
0.267033 1 0.380941
0.398566 1 0.293523
0.543908 1 0.221973
0.688746 1 0.173983
0.824292 0.99942 0.146548
0.955062 0.987579 0.131334
0 1 0.706294
0.0675517 1 0.63064
0.151949 1 0.542382
0.252934 1 0.438407
0.369375 1 0.337301
0.499519 1 0.249393
0.632136 1 0.184268
0.759411 1 0.141146
0.885252 1 0.112169
0.116808 0 0.221408
0.148669 0 0.189364
0.205966 0 0.203967
0.315373 0 0.230396
0.444617 0 0.249348
0.577066 0 0.263844
0.702586 0 0.277775
0.81883 0 0.292988
0.932937 0 0.310155
0.093492 0.0307927 0.254368
0.131167 0.0476692 0.18584
0.178286 0.0572519 0.177249
0.302068 0.0424964 0.207584
0.436866 0.0291447 0.221347
0.576959 0.0175937 0.238865
0.711192 0.0122377 0.259159
0.837659 0.013901 0.283375
0.96257 0.0197757 0.310506
0.0489662 0.117678 0.306081
0.102083 0.138003 0.236484
0.161563 0.161563 0.161563
0.354131 0.139406 0.197543
0.510445 0.129641 0.260349
0.602304 0.152926 0.229526
0.747173 0.157702 0.262364
0.880888 0.168948 0.290318
1 0.181155 0.329
0.00535592 0.240421 0.37203
0.0700999 0.272419 0.309468
0.147951 0.305882 0.234623
0.291157 0.321904 0.172152
0.519997 0.307195 0.181338
0.631693 0.325856 0.223911
0.782391 0.333898 0.258122
0.919722 0.344945 0.292042
1 0.356802 0.325429
0 0.399985 0.463264
0.0696269 0.439017 0.404242
0.156924 0.476585 0.332357
0.280797 0.504234 0.250324
0.450599 0.51284 0.209751
0.630518 0.5122 0.218784
0.791394 0.515419 0.246647
0.93463 0.523812 0.279149
1 0.535012 0.313405
0.00296025 0.57467 0.567041
0.0802625 0.612833 0.505776
0.167819 0.647868 0.431281
0.281971 0.676402 0.343435
0.431815 0.69395 0.274311
0.606683 0.70016 0.244968
0.777249 0.70312 0.251133
0.92874 0.70782 0.27306
1 0.712978 0.299397
0.0184176 0.74197 0.66804
0.0977951 0.779919 0.606027
0.187701 0.815702 0.532372
0.298192 0.845106 0.443061
0.43331 0.864576 0.360708
0.590463 0.871977 0.302434
0.749462 0.871733 0.276249
0.896361 0.868772 0.272648
1 0.863371 0.279423
0.0470283 0.905699 0.772107
0.124117 0.939742 0.705959
0.208789 0.969329 0.6262
0.309957 0.991806 0.528893
0.429419 1 0.433143
0.566781 1 0.352697
0.70808 1 0.298909
0.842481 0.990555 0.269413
0.972763 0.978012 0.254551
0.060502 1 0.856977
0.129305 1 0.781186
0.204578 1 0.691417
0.29482 1 0.584085
0.400473 1 0.476768
0.52253 1 0.381094
0.650919 1 0.310048
0.776654 1 0.263722
0.902235 1 0.233845
0.18558 0 0.352316
0.216251 0 0.310475
0.253758 0 0.299702
0.324132 0 0.320943
0.431006 0 0.349706
0.555047 0 0.373968
0.678096 0 0.394995
0.794141 0 0.415335
0.90898 0 0.436652
0.164813 0.00404364 0.380026
0.199924 0.0215305 0.316747
0.234653 0.0383001 0.280995
0.301274 0.0426642 0.299046
0.417975 0.0336461 0.332235
0.554345 0.0237736 0.36112
0.689204 0.0194858 0.38854
0.816907 0.0218357 0.417197
0.94316 0.0283207 0.447623
0.133806 0.0894331 0.431052
0.184207 0.111864 0.362219
0.233829 0.138918 0.295979
0.29781 0.160235 0.296635
0.436774 0.159014 0.341711
0.585245 0.160815 0.37145
0.730816 0.1664 0.404471
0.866514 0.176944 0.438422
0.998947 0.190082 0.473365
0.102541 0.21207 0.512413
0.167987 0.244724 0.455131
0.239338 0.280171 0.392111
0.317571 0.317571 0.317571
0.523583 0.307027 0.36112
0.686641 0.307424 0.434302
0.779156 0.337926 0.416266
0.91487 0.349248 0.449668
1 0.3617 0.47805
0.0941482 0.373327 0.61828
0.166125 0.413108 0.565942
0.241901 0.453223 0.503029
0.329503 0.491234 0.418265
0.477195 0.508675 0.355337
0.699702 0.495674 0.359304
0.805524 0.513329 0.405066
0.944121 0.523659 0.438972
1 0.535851 0.473167
0.0992905 0.548531 0.729503
0.170947 0.587167 0.672969
0.247456 0.625086 0.604059
0.338674 0.660792 0.515465
0.464286 0.687343 0.430091
0.633433 0.696147 0.390707
0.802365 0.698177 0.400626
0.949737 0.703136 0.426902
1 0.708446 0.455055
0.111437 0.71632 0.834363
0.185214 0.755489 0.776364
0.264958 0.793652 0.70605
0.357733 0.827817 0.615732
0.472084 0.853544 0.52282
0.616846 0.864729 0.450431
0.772793 0.864317 0.418601
0.918837 0.860273 0.41651
1 0.854124 0.426017
0.136477 0.879576 0.93962
0.207324 0.914199 0.875975
0.282094 0.945113 0.797696
0.368429 0.971023 0.699153
0.470069 0.988663 0.595728
0.593591 0.994446 0.502968
0.729061 0.989487 0.440375
0.862089 0.979416 0.408042
0.991974 0.966217 0.394186
0.144945 1 1
0.207431 1 0.948821
0.273564 1 0.85977
0.35111 1 0.751263
0.44213 1 0.638636
0.551415 1 0.533745
0.672602 1 0.454078
0.795697 1 0.402747
0.920775 1 0.371389
0.255726 0 0.486107
0.286305 0 0.440146
0.319173 0 0.413382
0.36788 0 0.415854
0.445457 0 0.441062
0.549737 0 0.471717
0.662882 0 0.500298
0.774289 0 0.526879
0.887572 0 0.554116
0.235752 0 0.510948
0.270359 0 0.450813
0.304952 0.0133364 0.406195
0.350988 0.0275425 0.398169
0.430686 0.0312047 0.427253
0.545663 0.0281224 0.465888
0.672602 0.0269322 0.503059
0.797543 0.0307012 0.538827
0.923415 0.0384527 0.575082
0.212451 0.0629435 0.558648
0.260243 0.0875105 0.493935
0.308232 0.116152 0.434012
0.358801 0.145769 0.405982
0.442054 0.163607 0.439658
0.572122 0.17026 0.488197
0.71281 0.177325 0.531731
0.847578 0.188052 0.571817
0.979995 0.200977 0.610727
0.195407 0.186481 0.645121
0.260243 0.220615 0.588174
0.32874 0.257877 0.52546
0.39556 0.29839 0.459205
0.471473 0.330587 0.470253
0.617044 0.338201 0.523842
0.761715 0.347448 0.558953
0.897826 0.358144 0.594598
1 0.369375 0.628443
0.196017 0.347356 0.76231
0.268498 0.38703 0.712062
0.344121 0.426749 0.6533
0.42388 0.46569 0.580316
0.503914 0.503914 0.503914
0.703639 0.493751 0.548287
0.85452 0.495445 0.621027
0.940246 0.527535 0.597894
1 0.540307 0.630854
0.202213 0.521172 0.882856
0.272633 0.559274 0.829847
0.346014 0.597375 0.767361
0.425315 0.63624 0.689464
0.513695 0.674098 0.60174
0.660349 0.691585 0.539483
0.864866 0.683024 0.543679
0.964385 0.699443 0.587488
1 0.705272 0.615961
0.212924 0.688792 0.9944
0.28455 0.72813 0.940612
0.358663 0.766445 0.87538
0.438773 0.803388 0.791455
0.527565 0.83592 0.696788
0.646311 0.855177 0.605966
0.796399 0.856428 0.56405
0.940627 0.851011 0.56495
1 0.844343 0.578256
0.234699 0.85095 1
0.301732 0.885176 1
0.370077 0.916396 0.967727
0.444129 0.94432 0.872877
0.525765 0.966644 0.767727
0.626734 0.978485 0.662623
0.750942 0.977325 0.586542
0.881773 0.96762 0.549569
1 0.953796 0.537804
0.237903 0.987549 1
0.296056 1 1
0.355596 1 1
0.42211 1 0.922255
0.497124 1 0.80853
0.588281 1 0.695842
0.697124 1 0.604898
0.815412 1 0.545846
0.93959 1 0.512062
0.325109 0 0.618601
0.355856 0 0.570581
0.387549 0 0.534997
0.427771 0 0.521065
0.485969 0 0.534173
0.568338 0 0.562737
0.665873 0 0.595117
0.76791 0 0.627176
0.875715 0 0.659861
0.305943 0 0.642222
0.340414 0 0.583993
0.375708 0 0.535882
0.416968 0.00622568 0.511238
0.476326 0.019379 0.524117
0.565194 0.0259861 0.560555
0.674693 0.0308995 0.603387
0.790311 0.0380713 0.645869
0.911208 0.0479591 0.688319
0.287556 0.0379034 0.687907
0.334188 0.06392 0.627192
0.382498 0.0940261 0.571389
0.432898 0.125994 0.533349
0.495476 0.154055 0.542428
0.590646 0.172473 0.587045
0.710811 0.185245 0.638102
0.836912 0.198734 0.686427
0.964858 0.212421 0.731456
0.281163 0.163592 0.775082
0.34432 0.199512 0.719799
0.409522 0.238468 0.660395
0.473396 0.279835 0.600153
0.534829 0.319631 0.581552
0.625406 0.344808 0.622995
0.750805 0.357626 0.674434
0.880583 0.368917 0.718944
1 0.380148 0.758923
0.291936 0.324254 0.897276
0.363684 0.364294 0.846616
0.437659 0.404349 0.78703
0.513573 0.444343 0.713375
0.581277 0.484901 0.644404
0.655451 0.515724 0.654246
0.789975 0.524758 0.706249
0.923644 0.536751 0.741512
1 0.548745 0.777707
0.302647 0.495445 1
0.373251 0.533257 0.971969
0.446983 0.571069 0.911315
0.526635 0.609903 0.838209
0.607324 0.648783 0.762463
0.686824 0.686824 0.686824
0.868879 0.680034 0.734325
1 0.682292 0.804196
1 0.706493 0.771435
0.315282 0.662135 1
0.386709 0.701106 1
0.459922 0.738857 1
0.536431 0.775219 0.951843
0.611978 0.809476 0.867033
0.691524 0.839475 0.772717
0.819577 0.848386 0.708095
0.989975 0.834058 0.70573
1 0.835859 0.732631
0.335439 0.822431 1
0.400641 0.855406 1
0.466377 0.885878 1
0.534493 0.913573 1
0.602472 0.937987 0.937484
0.676341 0.956832 0.830289
0.775586 0.963836 0.73608
0.901198 0.955795 0.689845
1 0.941238 0.681834
0.33431 0.95555 1
0.389776 0.978759 1
0.446113 0.999451 1
0.506172 1 1
0.568765 1 0.976776
0.639826 1 0.863188
0.727825 1 0.76109
0.83595 1 0.689754
0.958495 1 0.65182
0.389502 0 0.741222
0.420203 0 0.692058
0.45182 0 0.651423
0.488914 0 0.626673
0.537484 0 0.627573
0.604395 0 0.648936
0.686976 0 0.680278
0.778149 0 0.714778
0.878096 0 0.751522
0.371038 0 0.76434
0.405737 0 0.70753
0.44184 0 0.657954
0.482322 0 0.624506
0.533944 0.00404364 0.623346
0.606226 0.0184634 0.650797
0.698146 0.0300298 0.692393
0.801266 0.0421454 0.738003
0.913329 0.0552682 0.784817
0.356619 0.0160983 0.809674
0.403006 0.0433051 0.752178
0.451865 0.0744945 0.698985
0.503548 0.108171 0.657481
0.561212 0.140734 0.650919
0.636988 0.167376 0.681285
0.734722 0.187655 0.730022
0.845335 0.205692 0.781842
0.963409 0.221851 0.831785
0.357855 0.14461 0.897078
0.419791 0.181903 0.844083
0.48307 0.221714 0.787869
0.54641 0.263951 0.731395
0.606729 0.305226 0.702068
0.67631 0.338933 0.719814
0.770626 0.361135 0.767102
0.881605 0.376852 0.816999
1 0.390341 0.863905
0.376699 0.305715 1
0.44686 0.346258 0.969772
0.517891 0.386648 0.910155
0.589487 0.427527 0.838758
0.653712 0.468421 0.775051
0.713375 0.506157 0.756313
0.799969 0.53135 0.797665
0.915709 0.547097 0.84799
1 0.559716 0.892531
0.392325 0.474281 1
0.462638 0.512367 1
0.535897 0.550637 1
0.614252 0.590066 0.962661
0.691432 0.629938 0.886183
0.758968 0.670054 0.817182
0.828565 0.699687 0.827466
0.947616 0.70779 0.874571
1 0.713039 0.901976
0.408865 0.639902 1
0.480171 0.678416 1
0.553323 0.715648 1
0.629511 0.751019 1
0.704189 0.783886 1
0.77557 0.813809 0.918685
0.841184 0.841184 0.841184
0.989609 0.827604 0.882933
1 0.817975 0.937163
0.42887 0.797513 1
0.493355 0.829389 1
0.558282 0.858686 1
0.624903 0.884947 1
0.689219 0.908125 1
0.750729 0.92874 0.983505
0.813535 0.946059 0.886275
0.919432 0.945235 0.819577
1 0.925139 0.815167
0.424842 0.926787 1
0.479149 0.948775 1
0.534173 0.968475 1
0.592157 0.986374 1
0.649866 1 1
0.708461 1 1
0.772183 1 0.914351
0.858259 1 0.82739
0.976425 1 0.781231
0.44773 0 0.851591
0.478431 0 0.801633
0.51017 0 0.757977
0.546059 0 0.726284
0.590143 0 0.717815
0.647913 0 0.731182
0.719249 0 0.758572
0.800778 0 0.793088
0.892882 0 0.831907
0.429923 0 0.874601
0.465049 0 0.818998
0.502068 0 0.768933
0.542992 0 0.730785
0.591852 0 0.720119
0.655573 0.00909438 0.738079
0.735195 0.0263066 0.774899
0.826917 0.0433661 0.820172
0.929335 0.0602121 0.868727
0.41912 0 0.920775
0.466041 0.0263981 0.866102
0.515557 0.0585641 0.814832
0.568383 0.0934462 0.771832
0.62501 0.12845 0.756481
0.69247 0.159792 0.77409
0.775433 0.185992 0.815351
0.871199 0.208682 0.865507
0.97731 0.228168 0.916915
0.426551 0.129656 1
0.487724 0.167956 0.958251
0.550179 0.208515 0.904723
0.61326 0.251164 0.850385
0.673548 0.292958 0.816312
0.73637 0.329671 0.817929
0.812955 0.358343 0.85275
0.904738 0.379797 0.900221
1 0.397177 0.949844
0.451102 0.291417 1
0.519509 0.332189 1
0.588495 0.373098 1
0.657008 0.413993 0.954147
0.720012 0.455085 0.893492
0.7785 0.494499 0.864317
0.846174 0.527565 0.885267
0.935439 0.551385 0.932143
1 0.567758 0.98117
0.47071 0.457893 1
0.539895 0.496071 1
0.612375 0.535439 1
0.688243 0.57557 1
0.761166 0.616205 0.999542
0.824918 0.656367 0.935286
0.88069 0.691798 0.919188
0.956817 0.712489 0.954711
1 0.720272 0.995544
0.491402 0.622553 1
0.561913 0.660578 1
0.634318 0.697551 1
0.709163 0.732433 1
0.781476 0.76463 1
0.848966 0.794812 1
0.90309 0.823453 0.95523
0.956268 0.840833 0.955276
1 0.836515 0.988037
0.511696 0.776989 1
0.575433 0.807935 1
0.639643 0.836225 1
0.705547 0.861311 1
0.769024 0.882979 1
0.829908 0.902403 1
0.885756 0.920012 1
0.936217 0.936217 0.936217
1 0.917891 0.97583
0.505699 0.902159 1
0.559396 0.923186 1
0.61387 0.94197 1
0.671397 0.958984 1
0.728542 0.974807 1
0.784665 0.990127 1
0.837568 1 1
0.892546 1 0.96199
0.993057 1 0.897719
0.503487 0 0.957137
0.534279 0 0.906676
0.566094 0 0.860792
0.60174 0 0.824384
0.643534 0 0.808652
0.695842 0 0.814572
0.759335 0 0.837049
0.832746 0 0.869612
0.917311 0 0.908675
0.486534 0 0.980423
0.522118 0 0.925841
0.559747 0 0.8757
0.601968 0 0.834882
0.650141 0 0.817731
0.709255 0 0.827314
0.780606 0.0204776 0.857893
0.86302 0.0418708 0.900404
0.956313 0.0625467 0.948623
0.479133 0 1
0.526909 0.0110475 0.975875
0.57731 0.0442817 0.92636
0.631281 0.080293 0.88275
0.687846 0.116869 0.861753
0.751202 0.150973 0.869184
0.825315 0.181521 0.901869
0.909392 0.208209 0.947234
1 0.231022 0.997101
0.492058 0.116411 1
0.552789 0.155566 1
0.614832 0.196735 1
0.677699 0.239567 0.964614
0.738125 0.281636 0.927794
0.79855 0.319814 0.918975
0.865614 0.351949 0.941161
0.943664 0.378317 0.981781
1 0.400183 1
0.520974 0.278889 1
0.587839 0.319814 1
0.655085 0.360967 1
0.721508 0.401709 1
0.783764 0.442817 1
0.842603 0.483238 0.973159
0.903944 0.519692 0.979019
0.976593 0.549294 1
1 0.570947 1
0.543725 0.443671 1
0.611948 0.482307 1
0.683116 0.522362 1
0.756649 0.563043 1
0.826123 0.603525 1
0.888151 0.64358 1
0.941894 0.679728 1
0.999268 0.7066 1
1 0.721645 1
0.568002 0.607187 1
0.637766 0.645258 1
0.708553 0.681788 1
0.781064 0.716289 1
0.85005 0.748333 1
0.912551 0.778637 1
0.962386 0.806714 1
1 0.828672 1
1 0.836744 1
0.588693 0.758312 1
0.651514 0.788556 1
0.714473 0.815915 1
0.779049 0.840177 1
0.84097 0.861204 1
0.899794 0.880323 1
0.951919 0.898344 1
0.99234 0.916304 1
1 0.925902 1
0.581292 0.879301 1
0.634394 0.899596 1
0.688426 0.917723 1
0.745571 0.934035 1
0.802823 0.949493 1
0.859144 0.964355 1
0.912093 0.979065 1
0.96112 0.99382 1
1 1 1
