luts/Western.cube
TITLE "Generated by Resolve"
LUT_3D_SIZE 5
0.124697 0.0949111 0.086717
0.291691 0.0880598 0.0797742
0.52929 0.0635843 0.0555123
0.724788 0.0541848 0.0456855
0.834134 0.0730755 0.0640726
0.124498 0.246952 0.0864729
0.303716 0.249714 0.0903639
0.558022 0.24036 0.0814221
0.769467 0.249821 0.089662
0.892607 0.285939 0.122972
0.115434 0.47277 0.0770581
0.312093 0.48867 0.0959182
0.575387 0.486427 0.09691
0.786725 0.4972 0.107378
0.907835 0.529992 0.137682
0.153719 0.711345 0.113497
0.350195 0.721218 0.126497
0.603647 0.710765 0.119158
0.800046 0.709789 0.119799
0.908141 0.727916 0.138216
0.235142 0.889891 0.19321
0.417472 0.886336 0.187091
0.652094 0.863767 0.16228
0.829129 0.850721 0.148074
0.919921 0.853697 0.150439
0.124956 0.0951858 0.226413
0.292546 0.0885328 0.218723
0.53135 0.0648508 0.194507
0.727413 0.0565652 0.186877
0.838178 0.0775158 0.209293
0.12723 0.250217 0.229572
0.309071 0.254932 0.23444
0.565728 0.247669 0.227237
0.777783 0.258305 0.237293
0.900649 0.294331 0.272236
0.123522 0.481407 0.227176
0.320439 0.497185 0.244816
0.583581 0.494728 0.244419
0.794781 0.505257 0.254841
0.91487 0.536294 0.284474
0.160418 0.717968 0.267155
0.355566 0.727108 0.276326
0.607446 0.715343 0.265217
0.803235 0.713054 0.263432
0.910765 0.729519 0.279881
0.236576 0.891905 0.346075
0.41677 0.887678 0.334661
0.649897 0.864118 0.304799
0.826383 0.848951 0.286717
0.916487 0.85037 0.286702
0.120165 0.0904097 0.432532
0.288518 0.084123 0.423789
0.528634 0.0612955 0.399619
0.725612 0.0545357 0.395117
0.837934 0.0774701 0.422171
0.12546 0.24889 0.440024
0.310124 0.255741 0.445686
0.569162 0.250416 0.439734
0.781216 0.261906 0.451499
0.903532 0.297749 0.488258
0.126207 0.484855 0.444144
0.323857 0.500694 0.46009
0.586725 0.498085 0.457862
0.797177 0.507698 0.467201
0.916381 0.537285 0.496117
0.162036 0.7196 0.48661
0.355337 0.727413 0.491585
0.605982 0.714321 0.476341
0.800748 0.710521 0.471382
0.907866 0.725521 0.485832
0.232502 0.888441 0.562493
0.410666 0.883406 0.546654
0.642466 0.85864 0.512047
0.817899 0.841505 0.489525
0.90753 0.841489 0.487083
0.116655 0.0869001 0.622782
0.2869 0.080705 0.615076
0.528878 0.0589609 0.592294
0.72604 0.054139 0.589059
0.839475 0.0796826 0.617304
0.125505 0.249882 0.633127
0.313603 0.258671 0.641459
0.574395 0.254612 0.637171
0.785916 0.266819 0.649241
0.9075 0.302907 0.685252
0.130053 0.490196 0.639628
0.32842 0.505364 0.656168
0.591089 0.502388 0.654521
0.799924 0.51107 0.663218
0.917556 0.539254 0.690791
0.164813 0.722744 0.677836
0.357183 0.729046 0.68365
0.605737 0.714076 0.668086
0.799023 0.708904 0.662638
0.904997 0.722637 0.676188
0.230762 0.886778 0.746075
0.407507 0.880583 0.732296
0.636912 0.853651 0.69807
0.81059 0.834516 0.67483
0.899413 0.833402 0.671565
0.118532 0.0883345 0.749294
0.290852 0.0824445 0.743709
0.534722 0.0614633 0.722866
0.732174 0.0594034 0.720287
0.846876 0.0878767 0.747555
0.1308 0.256504 0.761196
0.322683 0.266957 0.773083
0.58526 0.263767 0.771221
0.794751 0.276509 0.782437
0.91577 0.313268 0.816434
0.138476 0.50071 0.768185
0.337896 0.515221 0.787335
0.600137 0.511193 0.787915
0.80647 0.518624 0.796368
0.922362 0.545724 0.822568
0.172366 0.730785 0.799634
0.363561 0.73492 0.808652
0.610101 0.718212 0.796735
0.801678 0.711757 0.792615
0.905882 0.724071 0.805982
0.234562 0.890303 0.859373
0.409598 0.882048 0.850278
0.636728 0.852872 0.820203
0.808316 0.832013 0.798795
0.895811 0.829877 0.796155
