luts/Western.cube
TITLE "Generated by Resolve"
LUT_3D_SIZE 33
0.124697 0.0949111 0.086717
0.142535 0.0947738 0.0864576
0.160739 0.0944533 0.0861372
0.179782 0.0942092 0.085893
0.199298 0.093843 0.0855268
0.219913 0.0929427 0.0846418
0.241947 0.0917067 0.0834211
0.265858 0.0903334 0.0820478
0.291691 0.0880598 0.0797742
0.319371 0.0852979 0.0770428
0.34876 0.0825666 0.0743114
0.378576 0.0792859 0.0710765
0.408667 0.0759594 0.0678416
0.439094 0.0729839 0.0648814
0.469413 0.0697185 0.061677
0.499672 0.0664836 0.0584268
0.52929 0.0635843 0.0555123
0.558587 0.0610208 0.0529335
0.586252 0.0586404 0.0505379
0.612558 0.0566873 0.0484932
0.637919 0.0554665 0.0471504
0.661646 0.0543984 0.0460517
0.683665 0.0538186 0.0454108
0.704723 0.0536202 0.045182
0.724788 0.0541848 0.0456855
0.742504 0.055024 0.046479
0.758358 0.0564279 0.047837
0.77261 0.0585336 0.049958
0.785809 0.0611887 0.0526284
0.79826 0.0638743 0.0552377
0.810132 0.066804 0.0579995
0.822095 0.0700389 0.0610819
0.834134 0.0730755 0.0640726
0.125521 0.111971 0.0875563
0.143648 0.111971 0.087541
0.162066 0.111879 0.0874342
0.18085 0.111498 0.0869154
0.200473 0.111192 0.0865949
0.221271 0.110445 0.085832
0.243381 0.109194 0.0846113
0.267048 0.107561 0.0829786
0.293477 0.105669 0.0810712
0.321309 0.102968 0.0783856
0.350378 0.0999771 0.0753948
0.380682 0.0970932 0.0725109
0.411063 0.0938888 0.0693065
0.441108 0.0907607 0.0661784
0.471778 0.0877394 0.0631723
0.502525 0.0847791 0.0602121
0.532204 0.0819409 0.0573587
0.561074 0.0793622 0.0547799
0.589303 0.0774548 0.0528267
0.616022 0.0757 0.0510414
0.641138 0.0743877 0.0497292
0.664836 0.0735943 0.0489052
0.687633 0.0735485 0.0488136
0.708812 0.0735485 0.0487678
0.728618 0.0740215 0.0492103
0.7467 0.0752728 0.0504616
0.76286 0.0770428 0.0522927
0.77731 0.07953 0.0547189
0.790433 0.0822309 0.0573739
0.803235 0.08542 0.0603342
0.815457 0.0886397 0.0634775
0.827619 0.0920119 0.0667887
0.840131 0.0956741 0.0703899
0.126406 0.12958 0.0884413
0.14435 0.129427 0.0882887
0.162997 0.129503 0.0883497
0.181979 0.129183 0.0880293
0.201373 0.128725 0.0874952
0.222248 0.12813 0.0867933
0.244694 0.127123 0.0857862
0.268498 0.125566 0.0842451
0.294636 0.123415 0.0821088
0.323018 0.121111 0.0797894
0.352316 0.118257 0.076936
0.382345 0.115206 0.0739147
0.413077 0.112322 0.0710002
0.443503 0.109483 0.0681773
0.474266 0.106432 0.0651255
0.50486 0.103502 0.0621805
0.534997 0.101198 0.0598611
0.56434 0.0988632 0.0575113
0.592386 0.0968948 0.0555123
0.619104 0.0953689 0.0539712
0.644877 0.0944533 0.0530404
0.668879 0.0940108 0.0525673
0.691447 0.093904 0.05243
0.713191 0.0944076 0.0528878
0.733211 0.09514 0.0536965
0.751385 0.0965286 0.0550851
0.767803 0.0987564 0.0572518
0.782589 0.10161 0.0600443
0.796048 0.104677 0.0629587
0.808911 0.107988 0.0661173
0.821683 0.111742 0.06981
0.834287 0.115526 0.0735943
0.847242 0.119493 0.0775769
0.127077 0.147417 0.0891432
0.145159 0.147372 0.0890822
0.163546 0.147204 0.0889296
0.182788 0.147143 0.0888685
0.202518 0.146868 0.0885939
0.223423 0.146166 0.087892
0.245777 0.145113 0.0868391
0.270039 0.143984 0.0856489
0.296345 0.142031 0.0836347
0.324575 0.139574 0.081178
0.354238 0.137041 0.0786603
0.384726 0.134279 0.0758984
0.415396 0.13135 0.0729839
0.445792 0.128618 0.070222
0.477317 0.126131 0.0677348
0.508171 0.123415 0.0650339
0.538094 0.121035 0.062623
0.56759 0.118883 0.0604715
0.596231 0.117388 0.0589456
0.623255 0.116258 0.0578012
0.648997 0.115434 0.0569314
0.673396 0.115328 0.0567788
0.696269 0.11545 0.0569772
0.718013 0.116045 0.057557
0.738445 0.117433 0.0588998
0.757061 0.119402 0.0607919
0.773617 0.121736 0.0630503
0.788449 0.124697 0.0659495
0.802518 0.128435 0.0694133
0.815778 0.132174 0.0730755
0.82884 0.136049 0.0770275
0.841886 0.140383 0.0812695
0.855146 0.144747 0.0855421
0.127367 0.165393 0.0894331
0.145708 0.165606 0.089662
0.164385 0.165698 0.0897536
0.183505 0.165515 0.089601
0.203449 0.165408 0.0895094
0.224735 0.165026 0.089128
0.247303 0.164096 0.0882277
0.271489 0.162799 0.0869612
0.2981 0.161135 0.0853285
0.32697 0.158999 0.0831922
0.356634 0.156466 0.0806897
0.387121 0.153811 0.0780346
0.418387 0.151369 0.0755627
0.449134 0.148928 0.0730755
0.480354 0.146334 0.0704356
0.51136 0.143954 0.06804
0.542031 0.14197 0.0660716
0.571893 0.1402 0.0643168
0.600473 0.138766 0.0628977
0.628016 0.138003 0.0621347
0.654032 0.137514 0.0616007
0.678431 0.137575 0.0616159
0.701854 0.138308 0.0622721
0.723766 0.13933 0.0632029
0.744472 0.140963 0.0647593
0.76318 0.14316 0.066865
0.780331 0.146242 0.0698253
0.795575 0.149569 0.0729839
0.80972 0.153292 0.0766613
0.823514 0.157656 0.0808881
0.83682 0.161959 0.0850843
0.850141 0.166567 0.0895552
0.863478 0.171038 0.0939193
0.127565 0.184329 0.089662
0.1458 0.184482 0.0898299
0.164691 0.18471 0.0900893
0.184146 0.184939 0.0902876
0.204074 0.184833 0.0901198
0.22533 0.184405 0.0897383
0.248341 0.183886 0.0892653
0.273014 0.182956 0.088365
0.299687 0.181353 0.0868086
0.328557 0.179232 0.0847334
0.358679 0.177127 0.0826276
0.389746 0.174838 0.0803845
0.420874 0.172427 0.0780041
0.452232 0.170321 0.0758984
0.483757 0.167971 0.0735637
0.514946 0.16582 0.0714122
0.545815 0.164157 0.0697337
0.576242 0.162829 0.0683604
0.605066 0.16173 0.0672313
0.632502 0.161105 0.0665446
0.659022 0.161166 0.0665293
0.683848 0.161593 0.066865
0.707469 0.162676 0.0678569
0.729778 0.164141 0.0692149
0.751049 0.166201 0.0712596
0.770031 0.168704 0.0736706
0.787182 0.171862 0.0767071
0.803021 0.175921 0.080415
0.81738 0.180041 0.0843519
0.831144 0.184375 0.0885176
0.844816 0.18912 0.09308
0.858503 0.194034 0.0979477
0.871992 0.198657 0.102434
0.126925 0.203983 0.0890669
0.145556 0.204562 0.0896315
0.164538 0.204807 0.0899367
0.184024 0.205005 0.0902113
0.204593 0.205386 0.0906081
0.22623 0.205264 0.0905776
0.249287 0.20473 0.090135
0.273991 0.203845 0.0893263
0.301244 0.202686 0.0881971
0.330632 0.201022 0.0866102
0.360723 0.198993 0.0846571
0.392233 0.196963 0.0826581
0.42356 0.194827 0.0805676
0.455009 0.192828 0.0785992
0.486976 0.190906 0.0767071
0.51899 0.189441 0.0752117
0.54995 0.187884 0.07364
0.580301 0.186664 0.0724041
0.609888 0.186206 0.07187
0.637736 0.186038 0.0716106
0.664271 0.186282 0.0717784
0.68954 0.187152 0.0725109
0.713664 0.188769 0.0739757
0.736187 0.190555 0.0756237
0.757458 0.192782 0.0776837
0.776944 0.195895 0.0805829
0.794278 0.199298 0.0838026
0.810101 0.203204 0.0874952
0.824796 0.207675 0.0917525
0.838834 0.212375 0.0962234
0.852399 0.217044 0.100649
0.866041 0.222065 0.105455
0.87985 0.227176 0.110292
0.126162 0.224796 0.0882124
0.144747 0.22536 0.0888685
0.164187 0.226017 0.0895857
0.18407 0.226612 0.0902724
0.204623 0.226886 0.0906539
0.22649 0.226947 0.0908217
0.250126 0.226902 0.0908522
0.275196 0.226291 0.0903487
0.302663 0.225299 0.0894942
0.332494 0.223926 0.0881666
0.362921 0.222248 0.0865644
0.394476 0.220401 0.0847028
0.426276 0.218708 0.0830243
0.458198 0.217105 0.0814221
0.490639 0.215656 0.0800336
0.522591 0.214267 0.0786603
0.55436 0.213397 0.0777295
0.585077 0.212543 0.0768444
0.614527 0.212146 0.0764019
0.642908 0.212421 0.0766155
0.669963 0.213184 0.077348
0.69546 0.214298 0.0783246
0.719615 0.216022 0.079881
0.742626 0.218341 0.0819715
0.764035 0.220783 0.0841993
0.783383 0.223835 0.0870222
0.800946 0.227573 0.090486
0.816922 0.23183 0.0943008
0.83154 0.236316 0.0985275
0.845701 0.240955 0.103059
0.859571 0.246082 0.107836
0.873198 0.251133 0.112596
0.886809 0.256016 0.117205
0.124498 0.246952 0.0864729
0.143496 0.247944 0.0875715
0.163073 0.248646 0.0884718
0.1832 0.249454 0.0894026
0.20415 0.25008 0.0901503
0.226322 0.250355 0.0905928
0.250263 0.250568 0.0909743
0.27599 0.250523 0.0910048
0.303716 0.249714 0.0903639
0.333547 0.248417 0.0891737
0.364446 0.247181 0.087953
0.396597 0.245777 0.0865949
0.428717 0.244388 0.0853437
0.461082 0.243259 0.0842756
0.494026 0.242206 0.0832227
0.526299 0.241108 0.0821851
0.558022 0.24036 0.0814221
0.589303 0.240024 0.0810254
0.619272 0.240101 0.0809949
0.647608 0.240513 0.0812848
0.674556 0.241382 0.0820172
0.700725 0.243 0.0835584
0.725032 0.244923 0.0852979
0.747814 0.247089 0.0872511
0.769467 0.249821 0.089662
0.789044 0.253178 0.0926986
0.806607 0.256916 0.0961471
0.822461 0.261112 0.0998856
0.837339 0.266011 0.104326
0.851408 0.270741 0.108751
0.865385 0.275792 0.113603
0.879088 0.281102 0.118471
0.892607 0.285939 0.122972
0.122057 0.270649 0.0840467
0.141253 0.271855 0.0852674
0.161181 0.272908 0.0865034
0.181567 0.273869 0.0877546
0.202838 0.274754 0.088838
0.225727 0.275715 0.0899367
0.249943 0.276112 0.0905623
0.275792 0.276112 0.0907759
0.304128 0.275822 0.0906691
0.334661 0.275059 0.090074
0.36582 0.274037 0.089189
0.398077 0.272847 0.0880446
0.430991 0.272145 0.0873884
0.463676 0.27129 0.086656
0.49662 0.270344 0.0858167
0.529397 0.269673 0.0851759
0.561502 0.269261 0.0847181
0.592752 0.269001 0.0844434
0.622705 0.269154 0.0845197
0.65156 0.270039 0.0851759
0.678645 0.271031 0.0860609
0.704662 0.272648 0.0875868
0.72929 0.274922 0.0895705
0.752148 0.277211 0.0915999
0.773663 0.279866 0.0939345
0.793133 0.283131 0.0968643
0.811017 0.287266 0.100557
0.826902 0.291554 0.104356
0.84155 0.296147 0.108492
0.855756 0.301213 0.1131
0.869718 0.306249 0.117906
0.883116 0.311177 0.122423
0.89659 0.316045 0.126894
0.119203 0.295918 0.0812238
0.13872 0.297307 0.0827344
0.158968 0.298589 0.0841993
0.179858 0.300114 0.0858778
0.20174 0.301518 0.087602
0.224796 0.302541 0.0889448
0.249546 0.303395 0.0900282
0.275807 0.303868 0.0907149
0.304494 0.30367 0.0908064
0.335286 0.30309 0.0905013
0.367254 0.302708 0.0902419
0.4 0.301808 0.0895857
0.4327 0.30103 0.0889143
0.466011 0.300771 0.0886549
0.498985 0.300053 0.088014
0.531899 0.299413 0.0874647
0.563989 0.299031 0.0871138
0.595728 0.299214 0.0871595
0.625788 0.299474 0.0873732
0.654398 0.300206 0.088014
0.681987 0.301595 0.0892805
0.707805 0.303151 0.0906539
0.73225 0.305348 0.0925765
0.755154 0.307713 0.0946517
0.776974 0.310796 0.097261
0.796414 0.314061 0.100175
0.814023 0.3178 0.103548
0.83006 0.322408 0.107546
0.844694 0.327016 0.11165
0.8589 0.331975 0.116213
0.87277 0.337041 0.120943
0.886137 0.341955 0.125429
0.899626 0.346838 0.129885
0.116335 0.322423 0.0784619
0.136492 0.324468 0.0804761
0.157137 0.326177 0.0823377
0.178317 0.327871 0.0843061
0.20058 0.329824 0.0863813
0.224155 0.331151 0.0881208
0.24918 0.332174 0.0895399
0.275746 0.332906 0.0905776
0.305135 0.333303 0.0911879
0.336217 0.332921 0.0911269
0.368078 0.332448 0.0909285
0.401389 0.332052 0.0906844
0.434409 0.331472 0.0903639
0.467521 0.330983 0.090074
0.500664 0.330404 0.0896468
0.534096 0.33019 0.0894484
0.566278 0.329931 0.0892195
0.597681 0.329885 0.0891585
0.628183 0.330526 0.0897078
0.656825 0.331319 0.0903944
0.684062 0.332555 0.0914778
0.710292 0.334569 0.0931563
0.734569 0.336614 0.0949416
0.757443 0.338933 0.0969711
0.778927 0.341665 0.0993515
0.798642 0.345266 0.102464
0.816236 0.348989 0.105806
0.832029 0.353231 0.109606
0.847074 0.358328 0.114046
0.861204 0.363073 0.118471
0.874876 0.367926 0.122988
0.888273 0.372854 0.127474
0.902007 0.378058 0.132128
0.11458 0.350744 0.0766613
0.134874 0.352789 0.0788434
0.156115 0.355108 0.0812695
0.177813 0.35729 0.083711
0.200092 0.359304 0.0858778
0.223926 0.360845 0.0877394
0.249378 0.362402 0.089601
0.27631 0.363272 0.090898
0.305699 0.363531 0.0915389
0.337194 0.363668 0.0919051
0.369345 0.363287 0.0918288
0.402411 0.362753 0.0916152
0.436027 0.362615 0.0916457
0.469215 0.362188 0.0914626
0.502434 0.361669 0.0911421
0.535561 0.361181 0.090837
0.568185 0.361318 0.0909133
0.59968 0.361334 0.0909895
0.629786 0.3617 0.0913252
0.658671 0.362753 0.0921798
0.686076 0.364187 0.0934615
0.711864 0.365728 0.0948348
0.736034 0.367697 0.0965286
0.759167 0.370321 0.0987411
0.780621 0.372992 0.101106
0.800107 0.376242 0.104005
0.817975 0.380285 0.107576
0.834104 0.384863 0.111727
0.848783 0.389425 0.115801
0.863005 0.394186 0.12015
0.876738 0.399237 0.124819
0.89012 0.404089 0.129259
0.903655 0.408896 0.133684
0.113909 0.380301 0.0759136
0.134569 0.382666 0.0784466
0.155825 0.384924 0.0809796
0.178103 0.387655 0.0838788
0.200702 0.389761 0.0863203
0.224613 0.391531 0.0883497
0.250065 0.39292 0.0900282
0.277531 0.394217 0.0915694
0.307134 0.394583 0.0924697
0.338445 0.394537 0.0928511
0.371084 0.394507 0.0930495
0.404135 0.394034 0.0929274
0.43769 0.393759 0.0929732
0.470878 0.393301 0.0927901
0.504494 0.393133 0.0927138
0.537621 0.392645 0.0924392
0.569802 0.392416 0.0923323
0.601572 0.392676 0.0925612
0.631678 0.393072 0.092958
0.660349 0.393942 0.0937667
0.687678 0.3953 0.0950027
0.713588 0.39704 0.0964828
0.737774 0.399008 0.0982223
0.760693 0.401343 0.100328
0.782422 0.404364 0.102907
0.801923 0.407645 0.105867
0.819852 0.411612 0.109499
0.835752 0.4159 0.113375
0.850553 0.420661 0.117617
0.864683 0.425315 0.121798
0.878264 0.43006 0.126284
0.891936 0.435248 0.131075
0.905547 0.440085 0.135546
0.113771 0.410422 0.0757
0.134859 0.413336 0.0786603
0.156268 0.415793 0.0814221
0.178485 0.418189 0.0841688
0.201373 0.420508 0.0868696
0.225834 0.422705 0.0893263
0.251423 0.424216 0.0910964
0.278752 0.425254 0.0925002
0.308782 0.425971 0.0935225
0.34023 0.425956 0.0940566
0.372671 0.425696 0.0942397
0.405921 0.425422 0.094316
0.439628 0.425238 0.0944228
0.472663 0.424765 0.094255
0.50602 0.424216 0.0939956
0.539452 0.424033 0.093904
0.571633 0.423789 0.0938277
0.603021 0.423743 0.093904
0.633417 0.424414 0.0945907
0.662211 0.425422 0.095491
0.689342 0.426612 0.0966049
0.715084 0.428168 0.098024
0.739544 0.430457 0.0999771
0.762402 0.432731 0.102052
0.783963 0.435508 0.10457
0.803723 0.438926 0.107683
0.8215 0.442847 0.111192
0.837324 0.446967 0.114977
0.851926 0.451392 0.119051
0.866178 0.45623 0.123339
0.879744 0.461036 0.127733
0.893095 0.465782 0.132143
0.906645 0.470405 0.136584
0.114305 0.441535 0.0761273
0.135332 0.444236 0.0790417
0.157015 0.446983 0.0820783
0.179568 0.449714 0.0851148
0.202548 0.452033 0.0878309
0.226871 0.453895 0.0901656
0.252964 0.455741 0.0922866
0.280385 0.45687 0.0936751
0.310216 0.457267 0.0945602
0.341802 0.457282 0.0950484
0.374533 0.457252 0.0954299
0.407782 0.456931 0.0956436
0.441108 0.456367 0.095491
0.474388 0.456199 0.0955367
0.507774 0.455589 0.0952621
0.540871 0.455085 0.0950637
0.57319 0.454963 0.0951095
0.604913 0.455283 0.095491
0.635142 0.455802 0.0961013
0.663645 0.45655 0.0968643
0.69102 0.457984 0.0981613
0.716686 0.459495 0.0995651
0.740841 0.461418 0.101335
0.763821 0.463813 0.103517
0.78558 0.46685 0.106203
0.805051 0.469902 0.109026
0.822583 0.473442 0.112306
0.838529 0.477775 0.116213
0.853086 0.482078 0.120211
0.867323 0.486732 0.124529
0.880812 0.491569 0.128817
0.893965 0.49601 0.132921
0.907179 0.500374 0.137041
0.115434 0.47277 0.0770581
0.136507 0.475731 0.0802319
0.15845 0.478477 0.08336
0.180865 0.481056 0.0863508
0.204227 0.48365 0.0892195
0.228641 0.485466 0.0915541
0.25452 0.486915 0.0934462
0.282124 0.488075 0.0948806
0.312093 0.48867 0.0959182
0.343786 0.488518 0.0962997
0.376303 0.488411 0.0966812
0.409903 0.488167 0.0968338
0.443137 0.487633 0.0968643
0.476219 0.48716 0.0968185
0.509804 0.486702 0.0966812
0.543099 0.486397 0.0966354
0.575387 0.486427 0.09691
0.606607 0.486427 0.0970321
0.637003 0.487022 0.0976272
0.665492 0.487755 0.0983749
0.692485 0.488838 0.0994583
0.71841 0.490562 0.101076
0.742687 0.492607 0.103059
0.765408 0.494713 0.105104
0.786725 0.4972 0.107378
0.806317 0.500496 0.110338
0.823774 0.503914 0.113527
0.839658 0.507988 0.117372
0.854246 0.512413 0.121401
0.868116 0.516594 0.125353
0.881315 0.520928 0.129351
0.894484 0.525277 0.13341
0.907835 0.529992 0.137682
0.116945 0.504189 0.0784619
0.138079 0.506935 0.0814984
0.160189 0.509926 0.0847639
0.182635 0.512489 0.0879225
0.205829 0.514702 0.0905928
0.230411 0.516625 0.0930037
0.256504 0.518242 0.0949569
0.284016 0.519203 0.0963302
0.314092 0.519615 0.097322
0.346334 0.519966 0.0980697
0.378714 0.519677 0.0983139
0.412009 0.519112 0.0982986
0.445472 0.518914 0.098436
0.478614 0.518349 0.0984054
0.512001 0.517693 0.0982834
0.545098 0.517494 0.0982986
0.577386 0.517571 0.0984512
0.608637 0.517464 0.0985885
0.638483 0.517693 0.0990005
0.667292 0.518563 0.099855
0.694148 0.519539 0.100908
0.71986 0.521111 0.10248
0.74374 0.522835 0.104143
0.766552 0.525139 0.106218
0.787732 0.527413 0.10837
0.806989 0.530236 0.11104
0.824765 0.533974 0.114565
0.84036 0.537636 0.118105
0.854688 0.541527 0.121843
0.868528 0.545693 0.12575
0.881849 0.550118 0.129915
0.894789 0.554147 0.133745
0.907637 0.558145 0.137514
0.119387 0.535348 0.0806897
0.140688 0.538277 0.0839246
0.162524 0.540902 0.0869612
0.185138 0.543618 0.090013
0.20824 0.545754 0.0926528
0.232776 0.54757 0.0950179
0.258778 0.548989 0.0969253
0.286946 0.550256 0.0985885
0.317311 0.550744 0.0996719
0.348989 0.550637 0.10016
0.381842 0.550561 0.100496
0.414984 0.549966 0.100481
0.448188 0.549386 0.10042
0.481209 0.548836 0.100191
0.515007 0.54873 0.100343
0.547768 0.548135 0.100267
0.57969 0.547723 0.100237
0.611124 0.547799 0.100496
0.640848 0.547951 0.100862
0.669459 0.548669 0.101732
0.696361 0.549706 0.1028
0.721691 0.550942 0.104051
0.745266 0.552499 0.105608
0.767742 0.554299 0.107378
0.789273 0.557015 0.10985
0.808255 0.559594 0.112352
0.825406 0.5626 0.115251
0.840864 0.566232 0.118639
0.855253 0.570199 0.122438
0.868894 0.574014 0.126131
0.881758 0.57789 0.129824
0.894667 0.581979 0.133654
0.907561 0.585946 0.137484
0.122515 0.565805 0.0836194
0.144045 0.569055 0.0870527
0.165789 0.571633 0.090074
0.188327 0.574014 0.0929274
0.211368 0.576257 0.0954299
0.236316 0.578363 0.0979477
0.262669 0.579767 0.0999466
0.29073 0.580728 0.101625
0.321233 0.581277 0.102663
0.352972 0.581064 0.103059
0.385458 0.580621 0.103166
0.418585 0.58024 0.103151
0.451865 0.579751 0.10309
0.485023 0.579141 0.102983
0.518029 0.578393 0.102708
0.551156 0.577981 0.102602
0.58291 0.577462 0.10248
0.613931 0.577203 0.102663
0.643778 0.577508 0.103197
0.671824 0.57792 0.103777
0.698466 0.578592 0.10457
0.723537 0.579583 0.105669
0.747372 0.581506 0.1075
0.76965 0.583078 0.109102
0.790433 0.584985 0.110994
0.809339 0.587594 0.113466
0.826658 0.590738 0.116518
0.84181 0.593942 0.119615
0.855756 0.597391 0.122972
0.869276 0.601144 0.126543
0.882216 0.60502 0.130312
0.894804 0.608576 0.133791
0.907362 0.612268 0.137316
0.127016 0.596429 0.0879225
0.147982 0.599222 0.0909438
0.169955 0.602045 0.0939651
0.192416 0.604456 0.096849
0.215808 0.606531 0.0994125
0.240604 0.608316 0.101747
0.267384 0.610056 0.103929
0.295384 0.610803 0.105241
0.32546 0.610925 0.106004
0.35729 0.610834 0.106355
0.389578 0.610376 0.106447
0.422873 0.609781 0.106447
0.45594 0.609033 0.106233
0.488975 0.60853 0.106111
0.521965 0.607538 0.105638
0.554437 0.606668 0.105135
0.586389 0.6065 0.105135
0.617197 0.606088 0.105043
0.646448 0.605905 0.105196
0.674159 0.606073 0.105669
0.700938 0.606897 0.106615
0.725704 0.607797 0.107698
0.748928 0.608957 0.108919
0.771191 0.610529 0.110491
0.792065 0.612573 0.112505
0.810559 0.61474 0.114656
0.827329 0.617304 0.11722
0.842451 0.620523 0.120302
0.856443 0.623987 0.12372
0.869642 0.627268 0.126925
0.882246 0.6309 0.130388
0.894881 0.63444 0.133898
0.907164 0.637659 0.137118
0.132174 0.626337 0.0927596
0.153323 0.629114 0.0958419
0.175174 0.631601 0.0988022
0.197574 0.63389 0.101671
0.221347 0.636484 0.104646
0.246159 0.637995 0.106706
0.272236 0.63917 0.108232
0.300404 0.64004 0.10956
0.330739 0.64007 0.11014
0.362524 0.639796 0.11046
0.394797 0.6392 0.110536
0.427924 0.638468 0.110353
0.460395 0.637583 0.109804
0.493111 0.636591 0.109316
0.526421 0.635935 0.109071
0.558831 0.634943 0.108507
0.590082 0.634073 0.108049
0.620539 0.633402 0.107759
0.649821 0.63331 0.107881
0.67747 0.633494 0.108309
0.703487 0.633753 0.10869
0.728099 0.634653 0.109651
0.751247 0.635798 0.110903
0.773068 0.636957 0.112215
0.793408 0.638468 0.113771
0.811902 0.640711 0.115953
0.828595 0.643229 0.118502
0.84332 0.64593 0.121218
0.857023 0.64918 0.124346
0.870253 0.65243 0.127596
0.882536 0.655573 0.130709
0.894743 0.65864 0.133776
0.907149 0.66212 0.137148
0.138613 0.655314 0.0989242
0.15967 0.658 0.10193
0.181353 0.660685 0.104768
0.204059 0.663081 0.107576
0.227268 0.664958 0.109957
0.252186 0.666667 0.112215
0.278523 0.667674 0.113741
0.306493 0.66807 0.114687
0.336797 0.668193 0.115129
0.368429 0.667811 0.115221
0.400534 0.666941 0.1149
0.433021 0.665873 0.114412
0.466072 0.665095 0.114229
0.498573 0.664012 0.113588
0.530983 0.66273 0.112627
0.563088 0.661524 0.111849
0.594476 0.660945 0.111574
0.624735 0.66009 0.111086
0.653376 0.65948 0.110796
0.680781 0.659495 0.110994
0.706737 0.659724 0.111467
0.730938 0.660182 0.112108
0.753689 0.660914 0.112963
0.775494 0.662135 0.114229
0.795682 0.663554 0.11577
0.813626 0.665278 0.117556
0.830045 0.667643 0.119905
0.84477 0.67039 0.122652
0.858061 0.673106 0.125399
0.870954 0.676127 0.128359
0.883238 0.679225 0.131456
0.895201 0.682048 0.134295
0.907057 0.68484 0.137087
0.145815 0.683772 0.105867
0.166629 0.686366 0.108766
0.18851 0.688838 0.11162
0.210986 0.691173 0.11426
0.234089 0.692882 0.116228
0.258671 0.694133 0.117952
0.285069 0.695109 0.119493
0.313344 0.695674 0.120562
0.343236 0.695277 0.120684
0.374411 0.694484 0.120195
0.406439 0.69369 0.119844
0.439063 0.692638 0.119295
0.471412 0.691279 0.118441
0.503655 0.689921 0.117678
0.536187 0.688777 0.116915
0.567849 0.68751 0.115892
0.59852 0.686244 0.115023
0.628656 0.685405 0.114473
0.65745 0.684825 0.114183
0.68426 0.684382 0.114
0.709865 0.684474 0.114244
0.733928 0.684718 0.114702
0.756481 0.685328 0.115465
0.777752 0.68603 0.11632
0.797864 0.687465 0.117739
0.815641 0.689036 0.119402
0.83151 0.690913 0.121401
0.846036 0.693446 0.123888
0.859312 0.696132 0.12665
0.871855 0.69868 0.129274
0.883955 0.701549 0.132189
0.895842 0.704372 0.134951
0.907485 0.706889 0.137545
0.153719 0.711345 0.113497
0.174685 0.71397 0.116442
0.19617 0.716045 0.118944
0.21828 0.717922 0.121187
0.241413 0.719783 0.123217
0.266224 0.721096 0.124895
0.292226 0.721645 0.125887
0.319997 0.721614 0.126314
0.350195 0.721218 0.126497
0.38146 0.720485 0.126085
0.41294 0.719249 0.125231
0.445396 0.717968 0.124376
0.477516 0.716457 0.123339
0.509438 0.715053 0.122377
0.54139 0.713344 0.121202
0.573144 0.71194 0.120134
0.603647 0.710765 0.119158
0.633112 0.709438 0.118196
0.661433 0.708675 0.117662
0.688304 0.708156 0.117418
0.713405 0.707866 0.117357
0.737057 0.707805 0.117479
0.759655 0.708507 0.118273
0.780606 0.70898 0.118883
0.800046 0.709789 0.119799
0.817914 0.711543 0.121569
0.833448 0.713252 0.123369
0.847578 0.715251 0.125444
0.860716 0.717845 0.128038
0.873091 0.720272 0.130495
0.884749 0.722728 0.132998
0.896513 0.725338 0.135653
0.908141 0.727916 0.138216
0.162142 0.737957 0.12163
0.182681 0.740154 0.124071
0.204105 0.742351 0.126528
0.226383 0.744198 0.128847
0.249073 0.745556 0.130388
0.273396 0.746395 0.131609
0.299672 0.747036 0.132586
0.327565 0.74699 0.132937
0.357305 0.746105 0.132464
0.388312 0.745098 0.131945
0.419654 0.743694 0.130816
0.451713 0.742153 0.129732
0.483314 0.740414 0.12842
0.515282 0.738811 0.127153
0.547173 0.737102 0.125841
0.578149 0.735302 0.1243
0.608545 0.733852 0.123201
0.637949 0.732601 0.122255
0.665644 0.73138 0.121324
0.692119 0.730556 0.120699
0.717189 0.730312 0.120653
0.740551 0.730037 0.120562
0.762387 0.730098 0.120775
0.783551 0.730846 0.121584
0.80267 0.731441 0.122255
0.819837 0.732631 0.123445
0.835248 0.734356 0.125185
0.84921 0.736294 0.127123
0.862089 0.738598 0.129488
0.874205 0.740734 0.131685
0.885817 0.743191 0.134112
0.897368 0.745541 0.136522
0.908629 0.747631 0.13872
0.170962 0.763455 0.13019
0.191394 0.765728 0.132631
0.212436 0.767437 0.134585
0.234165 0.768902 0.136248
0.257053 0.77026 0.137743
0.281407 0.771084 0.13901
0.307179 0.77116 0.139422
0.335012 0.770932 0.139498
0.36463 0.770123 0.138994
0.395209 0.768643 0.137743
0.426474 0.767025 0.136614
0.457984 0.765225 0.135195
0.489723 0.763485 0.133806
0.521035 0.761456 0.132067
0.552651 0.759609 0.130358
0.583673 0.757733 0.128801
0.613382 0.75581 0.127291
0.642359 0.754208 0.125994
0.67013 0.75314 0.125154
0.696071 0.752056 0.124285
