luts/Western.cube
TITLE "Generated by Resolve"
LUT_3D_SIZE 9
0.124697 0.0949111 0.086717
0.199298 0.093843 0.0855268
0.291691 0.0880598 0.0797742
0.408667 0.0759594 0.0678416
0.52929 0.0635843 0.0555123
0.637919 0.0554665 0.0471504
0.724788 0.0541848 0.0456855
0.785809 0.0611887 0.0526284
0.834134 0.0730755 0.0640726
0.127367 0.165393 0.0894331
0.203449 0.165408 0.0895094
0.2981 0.161135 0.0853285
0.418387 0.151369 0.0755627
0.542031 0.14197 0.0660716
0.654032 0.137514 0.0616007
0.744472 0.140963 0.0647593
0.80972 0.153292 0.0766613
0.863478 0.171038 0.0939193
0.124498 0.246952 0.0864729
0.20415 0.25008 0.0901503
0.303716 0.249714 0.0903639
0.428717 0.244388 0.0853437
0.558022 0.24036 0.0814221
0.674556 0.241382 0.0820172
0.769467 0.249821 0.089662
0.837339 0.266011 0.104326
0.892607 0.285939 0.122972
0.11458 0.350744 0.0766613
0.200092 0.359304 0.0858778
0.305699 0.363531 0.0915389
0.436027 0.362615 0.0916457
0.568185 0.361318 0.0909133
0.686076 0.364187 0.0934615
0.780621 0.372992 0.101106
0.848783 0.389425 0.115801
0.903655 0.408896 0.133684
0.115434 0.47277 0.0770581
0.204227 0.48365 0.0892195
0.312093 0.48867 0.0959182
0.443137 0.487633 0.0968643
0.575387 0.486427 0.09691
0.692485 0.488838 0.0994583
0.786725 0.4972 0.107378
0.854246 0.512413 0.121401
0.907835 0.529992 0.137682
0.127016 0.596429 0.0879225
0.215808 0.606531 0.0994125
0.32546 0.610925 0.106004
0.45594 0.609033 0.106233
0.586389 0.6065 0.105135
0.700938 0.606897 0.106615
0.792065 0.612573 0.112505
0.856443 0.623987 0.12372
0.907164 0.637659 0.137118
0.153719 0.711345 0.113497
0.241413 0.719783 0.123217
0.350195 0.721218 0.126497
0.477516 0.716457 0.123339
0.603647 0.710765 0.119158
0.713405 0.707866 0.117357
0.800046 0.709789 0.119799
0.860716 0.717845 0.128038
0.908141 0.727916 0.138216
0.191363 0.810269 0.150179
0.275486 0.815625 0.155383
0.380804 0.813535 0.153323
0.503227 0.805325 0.145464
0.624247 0.796368 0.136812
0.72929 0.790524 0.131456
0.811536 0.789609 0.130709
0.867994 0.794537 0.135576
0.91223 0.801419 0.142504
0.235142 0.889891 0.19321
0.315404 0.891646 0.193835
0.417472 0.886336 0.187091
0.535576 0.875395 0.174899
0.652094 0.863767 0.16228
0.752087 0.855238 0.153017
0.829129 0.850721 0.148074
0.880781 0.851545 0.148577
0.919921 0.853697 0.150439
0.125139 0.0953689 0.150408
0.199939 0.0944533 0.149294
0.292561 0.0887007 0.143572
0.409781 0.0767071 0.131716
0.530739 0.0645914 0.119585
0.639475 0.0566873 0.111604
0.726574 0.0558175 0.110445
0.78764 0.0631418 0.117784
0.83653 0.0757153 0.130037
0.128222 0.166278 0.153521
0.204562 0.166506 0.153765
0.299763 0.16257 0.149859
0.42034 0.153002 0.140337
0.544701 0.14406 0.13138
0.656901 0.140307 0.127474
0.747936 0.144305 0.131258
0.813565 0.15729 0.144015
0.867704 0.175463 0.161715
0.126284 0.248966 0.151675
0.206439 0.252537 0.155596
0.306737 0.252659 0.156252
0.432502 0.247944 0.151843
0.562402 0.244495 0.148486
0.67924 0.245838 0.149569
0.774273 0.254719 0.157549
0.841962 0.270848 0.172427
0.8972 0.290761 0.191089
0.118059 0.35462 0.143481
0.204044 0.363363 0.15317
0.310201 0.368124 0.159014
0.44065 0.367208 0.159136
0.573037 0.366155 0.158648
0.690593 0.36875 0.160983
0.785306 0.377798 0.168948
0.853407 0.394202 0.183825
0.908263 0.413581 0.201663
0.119951 0.477592 0.145159
0.208652 0.488289 0.157092
0.316762 0.493431 0.163821
0.447852 0.492454 0.164813
0.579797 0.490913 0.164523
0.697047 0.493462 0.167254
0.791135 0.50164 0.175082
0.858503 0.516503 0.188891
0.911818 0.533684 0.205081
0.131426 0.601007 0.156329
0.220432 0.611231 0.167834
0.3299 0.615412 0.174243
0.460227 0.613397 0.174075
0.590326 0.610559 0.172824
0.704463 0.610468 0.173693
0.795422 0.615808 0.179278
0.859709 0.626841 0.190143
0.91014 0.640116 0.20322
0.157794 0.715404 0.182162
0.245243 0.723644 0.191363
0.353628 0.724849 0.194202
0.480415 0.719676 0.190448
0.606134 0.713603 0.185718
0.715648 0.710307 0.183459
0.802121 0.711818 0.185611
0.862547 0.719448 0.193256
0.909773 0.729183 0.203067
0.194385 0.813413 0.218433
0.277852 0.818265 0.222705
0.382528 0.815839 0.219913
0.504662 0.807462 0.211551
0.625345 0.798047 0.20235
0.730251 0.79202 0.196536
0.812192 0.790631 0.195071
0.868772 0.795117 0.199756
0.912795 0.801694 0.206363
0.236683 0.891768 0.260639
0.31632 0.893111 0.260182
0.417868 0.887724 0.252811
0.535409 0.876417 0.239811
0.651682 0.864546 0.226612
0.751354 0.855314 0.216541
0.828367 0.850431 0.211032
0.879713 0.850584 0.210788
0.918791 0.852583 0.212634
0.124956 0.0951858 0.226413
0.199664 0.0941787 0.224918
0.292546 0.0885328 0.218723
0.410056 0.0767071 0.2065
0.53135 0.0648508 0.194507
0.640253 0.0572213 0.18706
0.727413 0.0565652 0.186877
0.788846 0.0644388 0.195438
0.838178 0.0775158 0.209293
0.128191 0.166278 0.230045
0.204807 0.166751 0.230167
0.30074 0.163241 0.226474
0.421653 0.154025 0.216938
0.546471 0.14551 0.208301
0.659098 0.14229 0.205203
0.7505 0.146822 0.209903
0.816663 0.160494 0.224231
0.870954 0.178851 0.242939
0.12723 0.250217 0.229572
0.208011 0.254276 0.233677
0.309071 0.254932 0.23444
0.435569 0.250736 0.230472
0.565728 0.247669 0.227237
0.682963 0.249454 0.229007
0.777783 0.258305 0.237293
0.845701 0.274739 0.253223
0.900649 0.294331 0.272236
0.120882 0.357717 0.223743
0.207294 0.366842 0.233402
0.313848 0.371847 0.238941
0.444495 0.371084 0.238849
0.576883 0.370031 0.238254
0.694377 0.37261 0.24065
0.78912 0.381704 0.248859
0.857069 0.397833 0.264012
0.911955 0.417166 0.282551
0.123522 0.481407 0.227176
0.212177 0.491966 0.238468
0.320439 0.497185 0.244816
0.451637 0.496284 0.245106
0.583581 0.494728 0.244419
0.700542 0.497093 0.246937
0.794781 0.505257 0.254841
0.86186 0.51957 0.268391
0.91487 0.536294 0.284474
0.13489 0.604471 0.239902
0.223926 0.61474 0.250645
0.333181 0.61886 0.256001
0.463279 0.616617 0.254932
0.593118 0.613519 0.252644
0.707225 0.613291 0.25304
0.797803 0.618036 0.257954
0.862074 0.628534 0.268376
0.912154 0.641459 0.281132
0.160418 0.717968 0.267155
0.247837 0.726101 0.275135
0.355566 0.727108 0.276326
0.482246 0.721889 0.271534
0.607446 0.715343 0.265217
0.716884 0.711589 0.261997
0.803235 0.713054 0.263432
0.86363 0.719982 0.270375
0.910765 0.729519 0.279881
0.195712 0.814908 0.304128
0.278782 0.819516 0.306584
0.382864 0.816861 0.302037
0.504707 0.808362 0.291966
0.625116 0.798627 0.281224
0.72987 0.792294 0.274296
0.811902 0.790585 0.27216
0.868574 0.794659 0.275959
0.912062 0.80061 0.281682
0.236576 0.891905 0.346075
0.315816 0.893202 0.343832
0.41677 0.887678 0.334661
0.534127 0.876402 0.319905
0.649897 0.864118 0.304799
0.749249 0.854292 0.293065
0.826383 0.848951 0.286717
0.877516 0.848478 0.285435
0.916487 0.85037 0.286702
0.12285 0.0930953 0.325551
0.197681 0.0921645 0.323522
0.290837 0.0866407 0.316899
0.408698 0.0749981 0.304356
0.530114 0.0634318 0.292515
0.639506 0.0561532 0.285786
0.726726 0.0558633 0.286748
0.788388 0.0641031 0.296666
0.838209 0.0776532 0.311986
0.126574 0.164645 0.330175
0.203372 0.16527 0.330007
0.299825 0.162081 0.325933
0.421408 0.153414 0.316716
0.546777 0.145418 0.308476
0.659831 0.142748 0.306218
0.751568 0.147829 0.312184
0.818021 0.162005 0.327901
0.872526 0.180575 0.347921
0.126497 0.24976 0.33106
0.207874 0.254429 0.335348
0.309697 0.255482 0.335958
0.43711 0.252049 0.33225
0.567636 0.249271 0.329305
0.684993 0.251423 0.331411
0.779767 0.26038 0.340536
0.847623 0.276768 0.357321
0.902388 0.296254 0.376959
0.121996 0.359167 0.327428
0.208835 0.368643 0.337087
0.31577 0.373831 0.342184
0.446662 0.373236 0.34165
0.578866 0.37203 0.340642
0.696406 0.374701 0.34316
0.791165 0.383841 0.351827
0.858885 0.39971 0.36733
0.913741 0.418921 0.386374
0.125307 0.483619 0.332753
0.213993 0.49395 0.34345
0.322377 0.499199 0.348821
0.453498 0.498238 0.348424
0.585519 0.496742 0.347173
0.702342 0.498939 0.34934
0.796353 0.506813 0.356985
0.863325 0.520729 0.370642
0.916091 0.537133 0.386709
0.136599 0.606241 0.346685
0.225559 0.616388 0.356802
0.334646 0.620447 0.361028
0.464469 0.617914 0.358557
0.593896 0.614466 0.35523
0.707851 0.613993 0.354818
0.798444 0.618418 0.359213
0.862486 0.628443 0.369192
0.912306 0.640909 0.381537
0.161471 0.718959 0.375036
0.248493 0.726726 0.381781
0.355596 0.727535 0.381491
0.482002 0.722026 0.375265
0.607095 0.715145 0.367468
0.716075 0.711086 0.363058
0.80235 0.712139 0.363668
0.862882 0.718685 0.369985
0.909743 0.72781 0.379065
0.195209 0.814572 0.411856
0.277897 0.818845 0.412863
0.381399 0.816052 0.406836
0.502815 0.807279 0.395163
0.62327 0.797452 0.383139
0.727581 0.790753 0.37464
0.809857 0.788754 0.37174
0.866468 0.792309 0.374594
0.909499 0.79765 0.379339
0.234653 0.890333 0.453178
0.313436 0.891417 0.449531
0.413825 0.885786 0.438636
0.530831 0.874357 0.422202
0.64651 0.861845 0.405722
0.745495 0.85153 0.392477
0.822446 0.845594 0.384833
0.873487 0.844633 0.382483
0.91223 0.846235 0.383062
0.120165 0.0904097 0.432532
0.195193 0.0895094 0.43064
0.288518 0.084123 0.423789
0.40708 0.072755 0.411368
0.528634 0.0612955 0.399619
0.638178 0.0543526 0.393347
0.725612 0.0545357 0.395117
0.787533 0.0634318 0.405859
0.837934 0.0774701 0.422171
0.124331 0.162432 0.437949
0.201556 0.1635 0.43798
0.298634 0.160464 0.434104
0.420859 0.152224 0.42504
0.546792 0.144778 0.417319
0.660121 0.142611 0.415641
0.752361 0.14847 0.422553
0.818692 0.162875 0.438819
0.873747 0.181872 0.459571
0.12546 0.24889 0.440024
0.207355 0.254124 0.444648
0.310124 0.255741 0.445686
0.438254 0.252872 0.442481
0.569162 0.250416 0.439734
0.686809 0.253056 0.442496
0.781216 0.261906 0.451499
0.848875 0.278264 0.468544
0.903532 0.297749 0.488258
0.122362 0.360021 0.437964
0.209781 0.369985 0.447959
0.317143 0.375265 0.452949
0.448218 0.374777 0.452369
0.580301 0.373419 0.451118
0.697841 0.376211 0.453773
0.792477 0.385321 0.462577
0.860105 0.40116 0.478141
0.914794 0.420157 0.497093
0.126207 0.484855 0.444144
0.215152 0.495445 0.454643
0.323857 0.500694 0.46009
0.454688 0.49955 0.459022
0.586725 0.498085 0.457862
0.703456 0.50013 0.459648
0.797177 0.507698 0.467201
0.863813 0.521157 0.480461
0.916381 0.537285 0.496117
0.137697 0.607614 0.458732
0.226642 0.617594 0.468177
0.335607 0.621424 0.471901
0.465232 0.618753 0.469184
0.594186 0.614878 0.464942
0.70779 0.613993 0.464225
0.798199 0.618067 0.468162
0.862013 0.627695 0.477668
0.911513 0.639719 0.489555
0.162036 0.7196 0.48661
0.248661 0.726925 0.492607
0.355337 0.727413 0.491585
0.48127 0.721553 0.484596
0.605982 0.714321 0.476341
0.714641 0.709941 0.471031
0.800748 0.710521 0.471382
0.86125 0.716762 0.477333
0.907866 0.725521 0.485832
0.194461 0.81384 0.522103
0.276631 0.817761 0.522438
0.379629 0.814755 0.515694
0.50071 0.805631 0.503395
0.620844 0.795621 0.49073
0.72491 0.78851 0.481697
0.80708 0.786175 0.478111
0.863783 0.789334 0.480705
0.906294 0.794217 0.484855
0.232502 0.888441 0.562493
0.311025 0.889418 0.558343
0.410666 0.883406 0.546654
0.527337 0.871778 0.529564
0.642466 0.85864 0.512047
0.741283 0.848066 0.498238
0.817899 0.841505 0.489525
0.869032 0.84033 0.486732
0.90753 0.841489 0.487083
0.117861 0.0880751 0.534997
0.193149 0.0872358 0.533059
0.286976 0.0818952 0.526268
0.405814 0.0707408 0.514336
0.527932 0.059556 0.502876
0.637324 0.0529488 0.496742
0.7252 0.0537118 0.499077
0.787198 0.0633402 0.510369
0.838148 0.0779736 0.527291
0.12253 0.160662 0.540703
0.200366 0.162066 0.541466
0.298192 0.159335 0.537682
0.421057 0.151476 0.528939
0.547372 0.14461 0.521798
0.661265 0.143084 0.520714
0.753857 0.149615 0.528572
0.819928 0.164523 0.544854
0.87538 0.183841 0.56585
0.124895 0.248707 0.543938
0.207431 0.254337 0.549096
0.311162 0.256519 0.550835
0.439765 0.253864 0.547692
0.571023 0.251972 0.54551
0.688624 0.254627 0.548241
0.782986 0.263844 0.557763
0.85005 0.280034 0.574289
0.904936 0.299718 0.594324
0.123293 0.3617 0.543435
0.211063 0.371862 0.553521
0.318914 0.377157 0.558785
0.449943 0.376532 0.55816
0.582071 0.37528 0.556848
0.699687 0.378134 0.559564
0.793774 0.386969 0.5682
0.861463 0.402914 0.584115
0.915908 0.421836 0.602518
0.127672 0.486885 0.549737
0.216464 0.497459 0.560204
0.325628 0.502419 0.565637
0.456519 0.501366 0.564813
0.588327 0.499718 0.563317
0.705028 0.501595 0.565179
0.798154 0.508904 0.572335
0.86424 0.52192 0.585122
0.916609 0.537728 0.600656
0.139178 0.609537 0.563897
0.228031 0.619272 0.573526
0.336965 0.622736 0.576913
0.46627 0.61976 0.573922
0.594949 0.615641 0.569802
0.708034 0.614298 0.568414
0.798047 0.617975 0.572
0.861524 0.627237 0.58114
0.910719 0.638895 0.59266
0.162844 0.720577 0.590707
0.249165 0.72752 0.596582
0.355734 0.727825 0.595651
0.481025 0.721355 0.588159
0.60528 0.713726 0.579507
0.713741 0.709148 0.574289
0.799481 0.709224 0.573968
0.859876 0.715282 0.579736
0.90602 0.723552 0.587839
0.194186 0.813596 0.624475
0.275898 0.817105 0.624765
0.378653 0.813886 0.618143
0.499168 0.804273 0.605585
0.618952 0.794018 0.592935
0.722744 0.78645 0.583398
0.804639 0.783841 0.579751
0.860868 0.786374 0.58146
0.903014 0.790921 0.585214
0.230976 0.887037 0.662913
0.309148 0.887739 0.658961
0.408469 0.881575 0.647578
0.524483 0.869383 0.63035
0.638941 0.855665 0.612406
0.737499 0.844694 0.598291
0.813642 0.837522 0.589258
0.864851 0.836149 0.58645
0.902983 0.836927 0.586084
0.116655 0.0869001 0.622782
0.192111 0.0861067 0.621424
0.2869 0.080705 0.615076
0.406149 0.0697185 0.60322
0.528878 0.0589609 0.592294
0.6383 0.0527199 0.586633
0.72604 0.054139 0.589059
0.788006 0.0644846 0.600626
0.839475 0.0796826 0.617304
0.121996 0.160113 0.628977
0.200336 0.161852 0.630198
0.299153 0.159396 0.627237
0.422644 0.151995 0.619043
0.549722 0.145632 0.612451
0.663859 0.144762 0.611978
0.756344 0.151843 0.619684
0.82237 0.167361 0.636194
0.877668 0.186709 0.656535
0.125505 0.249882 0.633127
0.208743 0.255985 0.639048
0.313603 0.258671 0.641459
0.44271 0.256336 0.639033
0.574395 0.254612 0.637171
0.691737 0.257496 0.639979
0.785916 0.266819 0.649241
0.852293 0.283192 0.665537
0.9075 0.302907 0.685252
0.12546 0.36463 0.633829
0.21323 0.374792 0.644038
0.32195 0.38024 0.649851
0.45304 0.379278 0.649485
0.585168 0.378149 0.648325
0.702602 0.381125 0.651194
0.796384 0.38996 0.659754
0.863539 0.405875 0.67512
0.917861 0.424887 0.693492
0.130053 0.490196 0.639628
0.219074 0.500648 0.650568
0.32842 0.505364 0.656168
0.459495 0.50425 0.65565
0.591089 0.502388 0.654521
0.707332 0.504036 0.656352
0.799924 0.51107 0.663218
0.86566 0.52401 0.675883
0.917556 0.539254 0.690791
0.14168 0.612619 0.652888
0.23035 0.622141 0.662898
0.339193 0.624964 0.666392
0.46833 0.621714 0.663767
0.596613 0.617197 0.659815
0.709377 0.615702 0.658671
0.798672 0.618891 0.661921
0.861692 0.627726 0.670726
0.910811 0.639292 0.682185
0.164813 0.722744 0.677836
0.250721 0.729244 0.684047
0.357183 0.729046 0.68365
0.481971 0.722164 0.676585
0.605737 0.714076 0.668086
0.713817 0.709163 0.663081
0.799023 0.708904 0.662638
0.859052 0.71458 0.668177
0.904997 0.722637 0.676188
0.195056 0.814511 0.709438
0.276448 0.817594 0.710246
0.378744 0.813901 0.704265
0.499001 0.803998 0.692454
0.618296 0.793301 0.680064
0.721843 0.785565 0.671077
0.803174 0.782422 0.667109
0.858763 0.784314 0.668421
0.900572 0.788495 0.671992
0.230762 0.886778 0.746075
0.30869 0.887205 0.742977
0.407507 0.880583 0.732296
0.523125 0.86804 0.715755
0.636912 0.853651 0.69807
0.734859 0.8421 0.683864
0.81059 0.834516 0.67483
0.861494 0.832807 0.671931
0.899413 0.833402 0.671565
0.116823 0.0869459 0.69482
0.192554 0.086244 0.69366
0.288273 0.0809491 0.687831
0.407996 0.0699168 0.676478
0.530968 0.0594797 0.66601
0.640665 0.0539101 0.660517
0.728374 0.0560159 0.663127
0.790356 0.0670939 0.675013
0.842252 0.0829786 0.691371
0.122942 0.161044 0.701198
0.201724 0.163012 0.703059
0.301671 0.1608 0.700481
0.426108 0.153796 0.693172
0.553658 0.147875 0.687099
0.667979 0.147921 0.687251
0.760098 0.155489 0.695094
0.826215 0.171511 0.711391
0.881498 0.191058 0.731243
0.127275 0.252415 0.705974
0.211444 0.259159 0.712856
0.317647 0.262181 0.716258
0.447379 0.260014 0.714275
0.579263 0.258579 0.712657
0.6963 0.261646 0.715694
0.789624 0.271031 0.724697
0.855772 0.287602 0.740475
0.910994 0.307408 0.759808
0.128618 0.368994 0.707698
0.216876 0.379217 0.718532
0.326314 0.384665 0.724834
0.457511 0.383474 0.724529
0.589746 0.382223 0.723812
0.706676 0.385214 0.726787
0.800137 0.394156 0.735195
0.866621 0.410025 0.750286
0.920745 0.428794 0.768139
0.133547 0.494743 0.713054
0.222858 0.50515 0.724697
0.332357 0.509651 0.730495
0.463783 0.508217 0.730724
0.595041 0.506203 0.72958
0.710689 0.507561 0.731395
0.802609 0.514244 0.737957
0.867796 0.526986 0.750347
0.919432 0.541924 0.764904
0.145312 0.616922 0.725475
0.234012 0.626078 0.735851
0.342855 0.628611 0.73991
0.471443 0.624887 0.737713
0.599588 0.619806 0.733913
0.711681 0.618051 0.732754
0.800305 0.62089 0.736141
0.862821 0.629374 0.744686
0.911574 0.640558 0.755856
0.16788 0.726085 0.748608
0.253483 0.732067 0.755352
0.359762 0.731334 0.755215
0.484077 0.72401 0.748669
0.607294 0.715541 0.740902
0.715038 0.710155 0.735973
0.799802 0.709789 0.735805
0.859251 0.715038 0.741146
0.904967 0.722835 0.748989
0.197131 0.81651 0.778073
0.278126 0.81915 0.779538
0.380179 0.815 0.774365
0.499947 0.804715 0.76321
0.61886 0.793637 0.751431
0.721889 0.785595 0.742641
0.802899 0.782132 0.738811
0.857847 0.78349 0.740078
0.899107 0.787091 0.743374
0.232013 0.887922 0.81297
0.309346 0.887709 0.810422
0.407889 0.880705 0.800671
0.522774 0.867445 0.784649
0.636316 0.852796 0.767773
0.733486 0.840574 0.753887
0.808911 0.832776 0.7449
0.859312 0.830686 0.742031
0.897108 0.831128 0.741909
0.118532 0.0883345 0.749294
0.194491 0.0876936 0.748775
0.290852 0.0824445 0.743709
0.411307 0.0717021 0.733135
0.534722 0.0614633 0.722866
0.644327 0.0565499 0.717784
0.732174 0.0594034 0.720287
0.794125 0.0712291 0.731502
0.846876 0.0878767 0.747555
0.125307 0.163394 0.75584
0.204669 0.165698 0.758312
0.305715 0.163684 0.75642
0.430869 0.157122 0.750225
0.558968 0.151827 0.744991
0.673671 0.15256 0.745388
0.765637 0.160647 0.752987
0.831556 0.177401 0.768948
0.886915 0.196841 0.787564
0.1308 0.256504 0.761196
0.215763 0.263844 0.769177
0.322683 0.266957 0.773083
0.453162 0.265171 0.772213
0.58526 0.263767 0.771221
0.702129 0.267109 0.774151
0.794751 0.276509 0.782437
0.860716 0.293355 0.798062
0.91577 0.313268 0.816434
0.13341 0.374807 0.763577
0.221836 0.385046 0.775067
0.33164 0.390005 0.781781
0.46305 0.388968 0.782361
0.595438 0.387717 0.782361
0.711757 0.390494 0.785321
0.804913 0.399619 0.793667
0.870832 0.415503 0.808179
0.924987 0.433921 0.825376
0.138476 0.50071 0.768185
0.227665 0.510796 0.780133
0.337896 0.515221 0.787335
0.469001 0.513512 0.788281
0.600137 0.511193 0.787915
0.715297 0.512398 0.790112
0.80647 0.518624 0.796368
0.871046 0.531121 0.808438
0.922362 0.545724 0.822568
0.1505 0.622583 0.77908
0.238697 0.631251 0.790173
0.347799 0.633524 0.795377
0.475975 0.629236 0.794018
0.603601 0.623636 0.791257
0.715038 0.6215 0.7906
0.803098 0.624002 0.793912
0.865003 0.632166 0.802396
0.913329 0.642939 0.813336
0.172366 0.730785 0.799634
0.257679 0.736339 0.807462
0.363561 0.73492 0.808652
0.487404 0.727031 0.803357
0.610101 0.718212 0.796735
0.717327 0.712367 0.792584
0.801678 0.711757 0.792615
0.860517 0.716609 0.798001
0.905882 0.724071 0.805982
0.200641 0.819928 0.826566
0.281315 0.822187 0.829541
0.38294 0.817395 0.825803
0.502403 0.806806 0.816251
0.620676 0.795117 0.805493
0.723247 0.78674 0.797864
0.803433 0.782635 0.794217
0.857954 0.783734 0.795575
0.898619 0.786664 0.798871
0.234562 0.890303 0.859373
0.311589 0.889738 0.858457
0.409598 0.882048 0.850278
0.523766 0.868025 0.835691
0.636728 0.852872 0.820203
0.733181 0.84004 0.80705
0.808316 0.832013 0.798795
0.858183 0.829587 0.796063
0.895811 0.829877 0.796155
